%
(Header)
(Generated by gcodetools from Inkscape.)
(Using default header. To add your own header create file "header" in the output dir.)
M3
(Header end.)
G21 (All units in mm)

(Start cutting path id: path817)
(Change tool to Default tool)

G00 Z5.000000
G00 X81.075891 Y11.339280

G01 Z1.000000 F100.0(Penetrate)
G01 X52.127548 Y24.623060 Z1.000000 F400.000000
G01 X24.773423 Y8.306890 Z1.000000
G01 X28.461524 Y39.943310 Z1.000000
G01 X4.491032 Y60.916660 Z1.000000
G01 X35.718747 Y67.185260 Z1.000000
G01 X48.258292 Y96.463670 Z1.000000
G01 X63.869981 Y68.701450 Z1.000000
G01 X95.590338 Y65.823160 Z1.000000
G01 X74.011177 Y42.396570 Z1.000000
G01 X81.075891 Y11.339280 Z1.000000
G00 Z5.000000

(End cutting path id: path817)


(Footer)
M5
G00 X0.0000 Y0.0000
M2
(Using default footer. To add your own footer create file "footer" in the output dir.)
(end)
%