%
(Header)
(Generated by gcodetools from Inkscape.)
(Using default header. To add your own header create file "header" in the output dir.)
M3
(Header end.)
G21 (All units in mm)

(Start cutting path id: path825)
(Change tool to Default tool)

G00 Z10.000000
G00 X42.415097 Y63.342716

G01 Z1.000000 F100.0(Penetrate)
G02 X42.718351 Y98.204739 Z1.000000 I2004.019955 J0.000000 F400.000000
G02 X43.051482 Y99.919326 Z1.000000 I5.029321 J-0.087504
G02 X44.001835 Y101.262771 Z1.000000 I3.113932 J-1.194933
G02 X46.051482 Y102.476356 Z1.000000 I4.533043 J-5.318307
G03 X47.837211 Y103.773540 Z1.000000 I-1.497935 J3.939815
G03 X48.415097 Y105.413326 Z1.000000 I-2.037555 J1.639786
G02 X48.704216 Y107.368775 Z1.000000 I6.757377 J0.000000
G02 X49.609509 Y109.364206 Z1.000000 I7.947987 J-2.402793
G03 X50.228690 Y111.367496 Z1.000000 I-3.478833 J2.172579
G03 X49.846481 Y115.100636 Z1.000000 I-13.126180 J0.542241
G03 X48.132176 Y117.907890 Z1.000000 I-5.348722 J-1.339238
G03 X45.652069 Y118.777056 Z1.000000 I-2.319945 J-2.646816
G02 X43.458552 Y119.721489 Z1.000000 I-0.124386 J2.730626
G02 X42.415097 Y122.527056 Z1.000000 I3.249977 J2.805567
G01 X42.415097 Y126.424506 Z1.000000
G01 X48.439848 Y126.424506 Z1.000000
G02 X53.827022 Y125.499995 Z1.000000 I0.000000 J-16.157935
G02 X55.400484 Y123.962936 Z1.000000 I-0.872428 J-2.466983
G02 X55.723591 Y121.537404 Z1.000000 I-4.997332 J-1.899984
G02 X54.881894 Y118.712936 Z1.000000 I-7.718232 J0.762399
G03 X53.614669 Y115.881107 Z1.000000 I22.928617 J-11.959859
G03 X53.452683 Y114.924506 Z1.000000 I2.366353 J-0.892721
G03 X53.950932 Y113.752873 Z1.000000 I1.729422 J0.043696
G03 X55.935759 Y112.144563 Z1.000000 I8.214910 J8.109182
G03 X58.120180 Y111.126419 Z1.000000 I4.869886 J7.595900
G03 X58.914183 Y111.423026 Z1.000000 I0.205801 J0.660138
G02 X59.732450 Y112.066999 Z1.000000 I1.289965 J-0.797246
G02 X61.974114 Y112.424506 Z1.000000 I2.241664 J-6.849155
G02 X63.621146 Y111.630555 Z1.000000 I-0.000000 J-2.105340
G02 X64.415097 Y109.358766 Z1.000000 I-2.853242 J-2.271789
G03 X64.721765 Y106.369921 Z1.000000 I14.718242 J0.000000
G03 X65.453181 Y104.353346 Z1.000000 I7.346155 J1.523534
G02 X65.932587 Y102.332743 Z1.000000 I-3.582007 J-1.917036
G02 X65.250538 Y96.406656 Z1.000000 I-33.510577 J0.854528
G03 X64.752573 Y90.399677 Z1.000000 I24.457332 J-5.051587
G03 X65.815021 Y81.662076 Z1.000000 I53.215134 J2.037295
G03 X67.596477 Y74.159725 Z1.000000 I128.450778 J26.538350
G03 X68.522680 Y72.030738 Z1.000000 I7.612198 J2.045677
G03 X69.965474 Y71.244401 Z1.000000 I1.418335 J0.885593
G03 X71.941621 Y71.849926 Z1.000000 I-0.054192 J3.704223
G02 X74.071247 Y72.828991 Z1.000000 I4.323246 J-6.598088
G02 X74.670877 Y72.694816 Z1.000000 I0.177576 J-0.613378
G02 X74.848016 Y72.131988 Z1.000000 I-0.376872 J-0.427902
G02 X73.974043 Y70.059886 Z1.000000 I-6.846876 J1.667517
G03 X73.138390 Y67.774732 Z1.000000 I4.974301 J-3.114411
G03 X72.456051 Y59.424506 Z1.000000 I68.884220 J-9.831872
G02 X71.858982 Y50.982419 Z1.000000 I-85.826917 J1.827976
G02 X70.708822 Y44.924506 Z1.000000 I-45.242734 J5.451678
G03 X69.356133 Y38.890300 Z1.000000 I85.961772 J-22.438784
G03 X68.923970 Y35.424506 Z1.000000 I27.851987 J-5.232811
G02 X68.693445 Y31.925368 Z1.000000 I-515.782672 J32.222886
G02 X68.560204 Y30.174506 Z1.000000 I-129.271132 J8.957050
G02 X67.667637 Y29.236511 Z1.000000 I-1.028799 J0.085307
G02 X55.415097 Y28.424506 Z1.000000 I-12.252540 J92.034733
G01 X42.415097 Y28.424506 Z1.000000
G01 X42.415097 Y63.342716 Z1.000000
G00 Z10.000000

(End cutting path id: path825)


(Start cutting path id: path825)
(Change tool to Default tool)

G00 Z10.000000
G00 X100.032070 Y30.886316

G01 Z1.000000 F100.0(Penetrate)
G02 X98.337076 Y35.775161 Z1.000000 I8.875579 J5.815474 F400.000000
G02 X99.415097 Y37.924506 Z1.000000 I2.282712 J0.200105
G03 X100.453424 Y40.202538 Z1.000000 I-1.183634 J1.915151
G03 X98.438678 Y43.903166 Z1.000000 I-6.294020 J-1.027914
G02 X97.024873 Y45.771556 Z1.000000 I4.218066 J4.660904
G02 X97.066794 Y46.669956 Z1.000000 I0.829816 J0.411457
G03 X97.153761 Y47.525937 Z1.000000 I-0.837304 J0.517477
G03 X96.426879 Y48.417226 Z1.000000 I-1.651554 J-0.604862
G02 X95.865105 Y49.357343 Z1.000000 I0.625094 J1.011434
G02 X96.268355 Y51.055426 Z1.000000 I3.014242 J0.181119
G02 X97.078696 Y51.849732 Z1.000000 I1.845442 J-1.072194
G02 X97.384688 Y51.674506 Z1.000000 I0.099954 J-0.180238
G03 X98.467809 Y51.014327 Z1.000000 I0.753933 J0.018340
G03 X100.889420 Y53.374846 Z1.000000 I-2.339779 J4.822737
G03 X101.694622 Y56.560671 Z1.000000 I-6.410093 J3.314788
G03 X100.955620 Y57.078416 Z1.000000 I-0.544054 J0.009724
G02 X99.645587 Y57.174702 Z1.000000 I-0.552695 J1.440295
G02 X96.708864 Y59.471426 Z1.000000 I6.100677 J10.826566
G03 X93.827096 Y62.205283 Z1.000000 I-26.171862 J-24.702075
G03 X93.230103 Y62.424506 Z1.000000 I-0.596993 J-0.703263
G02 X92.618321 Y62.629865 Z1.000000 I-0.000000 J1.013955
G02 X89.226855 Y65.453356 Z1.000000 I28.607830 J37.811191
G03 X85.704794 Y68.163165 Z1.000000 I-17.657834 J-19.306893
G03 X81.153243 Y70.636996 Z1.000000 I-19.209589 J-29.919255
G02 X77.816799 Y72.642109 Z1.000000 I6.920692 J15.294232
G02 X77.555298 Y73.380845 Z1.000000 I0.441425 J0.571909
G02 X78.120207 Y73.944416 Z1.000000 I0.738404 J-0.175247
G02 X82.048506 Y74.409196 Z1.000000 I4.014109 J-17.093766
G03 X84.938605 Y76.602726 Z1.000000 I-0.014792 J3.020188
G03 X84.360131 Y82.532326 Z1.000000 I-7.832426 J2.228908
G02 X83.094479 Y86.508111 Z1.000000 I11.413477 J5.822714
G02 X82.415137 Y95.884666 Z1.000000 I64.369843 J9.376555
G02 X82.804305 Y105.035337 Z1.000000 I107.776318 J-0.000000
G02 X83.228046 Y105.424506 Z1.000000 I0.423741 J-0.036108
G02 X86.313071 Y103.832716 Z1.000000 I0.000000 J-3.785417
G02 X90.338602 Y95.424506 Z1.000000 I-22.246517 J-15.818525
G03 X91.641114 Y90.934346 Z1.000000 I303.488629 J85.602432
G03 X93.469032 Y84.924506 Z1.000000 I545.510273 J162.636308
G02 X94.988763 Y77.556368 Z1.000000 I-36.953784 J-11.462777
G02 X95.459313 Y66.223676 Z1.000000 I-87.451315 J-9.307223
G03 X96.414836 Y63.366475 Z1.000000 I4.443462 J-0.102366
G03 X98.905558 Y61.860326 Z1.000000 I3.255677 J2.571389
G03 X102.309859 Y61.688532 Z1.000000 I2.334427 J12.443424
G03 X103.728130 Y62.269306 Z1.000000 I-0.216286 J2.550301
G02 X105.115862 Y62.905479 Z1.000000 I1.875891 J-2.260351
G02 X107.004900 Y62.821536 Z1.000000 I0.748916 J-4.443750
G03 X108.805045 Y63.018221 Z1.000000 I0.642409 J2.456588
G03 X112.452870 Y65.612506 Z1.000000 I-7.074064 J13.808589
G02 X115.994526 Y68.569621 Z1.000000 I23.719570 J-24.808854
G02 X116.665140 Y68.673626 Z1.000000 I0.436534 J-0.600696
G03 X118.198324 Y69.879420 Z1.000000 I0.368427 J1.109170
G03 X115.908980 Y77.788816 Z1.000000 I-20.756538 J-1.721882
G02 X114.688557 Y80.720139 Z1.000000 I16.347727 J8.525906
G02 X114.415140 Y82.479796 Z1.000000 I5.525689 J1.759657
G03 X114.091467 Y84.126010 Z1.000000 I-4.348190 J-0.000000
G03 X113.415140 Y84.924506 Z1.000000 I-1.565625 J-0.640413
G02 X112.638305 Y85.666965 Z1.000000 I1.360142 J2.200748
G02 X112.415140 Y86.389906 Z1.000000 I1.059398 J0.722941
G02 X113.506134 Y87.301342 Z1.000000 I0.926212 J0.000000
G02 X117.915140 Y85.395546 Z1.000000 I-1.881136 J-10.404910
G03 X118.995971 Y84.834498 Z1.000000 I2.297385 J3.104193
G03 X122.382320 Y83.912826 Z1.000000 I10.103558 J30.440047
G02 X125.799839 Y83.029699 Z1.000000 I-8.829434 J-41.222185
G02 X127.382320 Y82.394816 Z1.000000 I-2.857611 J-9.412410
G03 X128.962748 Y81.745598 Z1.000000 I4.914256 J9.714775
G03 X133.415140 Y80.454206 Z1.000000 I24.545218 J76.304639
G02 X137.904173 Y79.250050 Z1.000000 I-66.943160 J-258.530311
G02 X141.036190 Y78.338646 Z1.000000 I-35.183319 J-126.743810
G03 X144.547707 Y77.695142 Z1.000000 I4.557759 J14.968401
G03 X145.857686 Y78.021613 Z1.000000 I0.147425 J2.199860
G03 X146.455962 Y79.019157 Z1.000000 I-0.670341 J1.080216
G03 X146.090030 Y81.474876 Z1.000000 I-5.860153 J0.381889
G02 X145.566377 Y84.502142 Z1.000000 I7.623868 J2.877691
G02 X146.137473 Y85.739703 Z1.000000 I1.693828 J-0.031096
G02 X147.467026 Y86.227832 Z1.000000 I1.289221 J-1.456786
G02 X150.767280 Y85.614136 Z1.000000 I-0.214277 J-10.333001
G03 X154.100884 Y85.108397 Z1.000000 I2.937630 J8.123858
G03 X157.789240 Y85.936346 Z1.000000 I-0.497703 J10.846613
G02 X161.084981 Y86.592928 Z1.000000 I3.274622 J-7.837255
G02 X162.053040 Y85.925746 Z1.000000 I-0.002585 J-1.039652
G03 X164.911482 Y85.465074 Z1.000000 I1.563004 J0.599781
G03 X167.415140 Y92.476026 Z1.000000 I-8.564498 J7.010952
G02 X168.200955 Y94.638688 Z1.000000 I3.368868 J0.000000
G02 X169.883760 Y95.424506 Z1.000000 I1.682805 J-1.408929
G03 X171.522374 Y95.995019 Z1.000000 I0.000000 J2.638450
G03 X171.776770 Y96.924506 Z1.000000 I-0.505467 J0.637901
G02 X172.343928 Y97.868559 Z1.000000 I0.652502 J0.250389
G02 X174.215140 Y97.224506 Z1.000000 I0.275559 J-2.239706
G03 X175.063668 Y96.873034 Z1.000000 I0.848528 J0.848528
G03 X175.415140 Y97.224506 Z1.000000 I0.000000 J0.351472
G02 X175.902094 Y97.937556 Z1.000000 I0.765540 J0.000000
G02 X178.486570 Y98.424506 Z1.000000 I2.584476 J-6.615055
G03 X183.033729 Y99.805916 Z1.000000 I-0.000000 J8.174599
G03 X184.415140 Y102.392916 Z1.000000 I-1.731661 J2.587000
G03 X184.115943 Y103.850269 Z1.000000 I-3.698901 J0.000000
G03 X182.331331 Y107.551420 Z1.000000 I-42.626630 J-18.272785
G03 X180.196175 Y111.084194 Z1.000000 I-36.340185 J-19.551846
G03 X179.555940 Y111.424506 Z1.000000 I-0.640235 J-0.432088
G02 X178.822662 Y111.655614 Z1.000000 I-0.000000 J1.278858
G02 X175.025040 Y114.595516 Z1.000000 I28.610989 J40.881015
G03 X166.679287 Y119.544369 Z1.000000 I-18.444581 J-21.593400
G03 X155.206970 Y122.135906 Z1.000000 I-14.838763 J-38.999992
G02 X151.187070 Y122.529272 Z1.000000 I9.710176 J119.967428
G02 X150.452819 Y122.797092 Z1.000000 I0.191110 J1.664360
G02 X150.350145 Y123.287571 Z1.000000 I0.196935 J0.297211
G02 X151.411410 Y124.650876 Z1.000000 I8.207243 J-5.294205
G02 X153.653206 Y125.940704 Z1.000000 I3.215581 J-2.995767
G02 X160.255450 Y126.660436 Z1.000000 I6.420836 J-28.257891
G02 X167.082325 Y126.205582 Z1.000000 I-0.356120 J-56.804528
G02 X169.247690 Y125.514126 Z1.000000 I-0.792710 J-6.218706
G03 X173.295767 Y124.143839 Z1.000000 I6.138630 J11.470104
G03 X189.434760 Y121.963586 Z1.000000 I48.263115 J296.437095
G03 X205.567729 Y120.655767 Z1.000000 I32.946959 J306.266217
G03 X210.790060 Y121.045156 Z1.000000 I1.110719 J20.318101
G02 X213.890543 Y120.168210 Z1.000000 I0.706160 J-3.422761
G02 X215.399830 Y116.709686 Z1.000000 I-3.283886 J-3.491661
G03 X215.930071 Y114.805853 Z1.000000 I3.771921 J0.024771
G03 X217.324940 Y113.472776 Z1.000000 I3.093180 J1.840256
G02 X218.575013 Y112.162522 Z1.000000 I-1.368507 J-2.557105
G02 X218.730240 Y110.521446 Z1.000000 I-2.169683 J-1.033106
G02 X216.209027 Y107.924637 Z1.000000 I-3.555646 J0.929823
G02 X198.936830 Y104.715616 Z1.000000 I-24.370882 J83.086212
G03 X193.304657 Y103.512244 Z1.000000 I1.843401 J-22.409610
G03 X190.734580 Y101.824176 Z1.000000 I2.130887 J-6.044765
G03 X189.264734 Y99.753779 Z1.000000 I7.180299 J-6.654488
G03 X189.462890 Y99.424506 Z1.000000 I0.198156 J-0.105012
G02 X190.216055 Y98.847648 Z1.000000 I0.000000 J-0.780107
G02 X190.384835 Y96.839611 Z1.000000 I-5.441691 J-1.468498
G02 X189.862116 Y94.711460 Z1.000000 I-7.549250 J0.725984
G02 X188.920880 Y93.788336 Z1.000000 I-1.534681 J0.623378
G03 X187.956327 Y93.036219 Z1.000000 I0.751454 J-1.958256
G03 X187.937200 Y92.388816 Z1.000000 I0.481166 J-0.338200
G02 X188.016789 Y91.664434 Z1.000000 I-0.721350 J-0.445819
G02 X187.431450 Y90.934586 Z1.000000 I-1.320209 J0.459164
G03 X186.424609 Y88.249866 Z1.000000 I1.231820 J-1.993121
G03 X189.165140 Y85.322756 Z1.000000 I4.378083 J1.352539
G03 X196.739990 Y85.004830 Z1.000000 I4.261542 J11.137282
G03 X200.144740 Y88.498496 Z1.000000 I-1.371800 J4.742768
G02 X201.154301 Y89.769298 Z1.000000 I1.944758 J-0.508558
G02 X203.809270 Y90.424506 Z1.000000 I2.654969 J-5.051496
G03 X206.842300 Y90.829805 Z1.000000 I-0.000000 J11.551385
G03 X208.978310 Y91.831096 Z1.000000 I-1.802604 J6.624390
G02 X211.125747 Y92.888970 Z1.000000 I4.497352 J-6.420885
G02 X215.708430 Y93.945776 Z1.000000 I9.069673 J-28.864830
G03 X220.054860 Y95.325056 Z1.000000 I-2.143156 J14.291529
G03 X222.858190 Y97.539186 Z1.000000 I-3.982601 J7.924130
G02 X225.384223 Y100.213520 Z1.000000 I24.539671 J-20.648717
G02 X225.915140 Y100.424506 Z1.000000 I0.530917 J-0.562497
G03 X226.445582 Y100.636515 Z1.000000 I0.000000 J0.769583
G03 X229.068590 Y103.424506 Z1.000000 I-23.819528 J25.037862
G02 X231.821276 Y105.933934 Z1.000000 I10.820316 J-9.104739
G02 X233.387400 Y106.424506 Z1.000000 I1.566124 J-2.254593
G03 X234.774986 Y106.951489 Z1.000000 I0.000000 J2.090300
G03 X235.724300 Y108.498716 Z1.000000 I-2.075368 J2.338203
G02 X236.670844 Y110.168804 Z1.000000 I3.614245 J-0.945143
G02 X238.271730 Y111.097256 Z1.000000 I2.479282 J-2.430517
G03 X239.588739 Y111.974792 Z1.000000 I-0.614255 J2.348931
G03 X239.738950 Y113.023046 Z1.000000 I-0.864698 J0.658797
G02 X240.787691 Y114.293955 Z1.000000 I0.883563 J0.339053
G02 X243.446530 Y112.365856 Z1.000000 I-0.656256 J-3.702287
G02 X244.092415 Y110.244077 Z1.000000 I-5.022970 J-2.688225
G02 X243.932420 Y107.503186 Z1.000000 I-8.686998 J-0.868025
G03 X244.357973 Y105.209653 Z1.000000 I2.927708 J-0.643025
G03 X246.905430 Y102.996136 Z1.000000 I5.237157 J3.454609
G03 X252.147241 Y102.020414 Z1.000000 I4.462011 J9.402998
G03 X254.746560 Y103.585276 Z1.000000 I-0.252501 J3.360652
G03 X255.010212 Y105.285900 Z1.000000 I-1.834464 J1.155151
G03 X252.684760 Y111.515796 Z1.000000 I-31.326206 J-8.144265
G01 X249.577190 Y117.785546 Z1.000000
G01 X253.194440 Y125.355026 Z1.000000
G02 X257.026510 Y132.696766 Z1.000000 I105.959155 J-50.635130
G02 X257.696550 Y133.285556 Z1.000000 I1.184717 J-0.672556
G03 X258.378184 Y133.859777 Z1.000000 I-0.547274 J1.341327
G03 X260.505540 Y137.785556 Z1.000000 I-30.845091 J19.254057
G02 X266.731447 Y149.603789 Z1.000000 I121.910245 J-56.673918
G02 X268.676160 Y151.585826 Z1.000000 I4.998774 J-2.959578
G02 X269.821937 Y151.708574 Z1.000000 I0.700973 J-1.134210
G02 X271.899680 Y150.445086 Z1.000000 I-1.980774 J-5.597399
G03 X276.634012 Y147.540282 Z1.000000 I9.450034 J10.091457
G03 X282.980240 Y146.424506 Z1.000000 I6.346228 J17.489917
G02 X286.315778 Y146.304902 Z1.000000 I-0.000000 J-46.570711
G02 X286.461760 Y146.174506 Z1.000000 I-0.011472 J-0.159756
G02 X286.497125 Y145.922954 Z1.000000 I-2.812991 J-0.523728
G02 X287.076210 Y139.743506 Z1.000000 I-1690.175107 J-161.505724
G02 X286.674148 Y133.913145 Z1.000000 I-18.212009 J-1.673143
G02 X285.021220 Y130.939676 Z1.000000 I-6.035146 J1.408731
G02 X282.327050 Y128.929421 Z1.000000 I-8.261018 J8.261018
G02 X281.362780 Y128.956866 Z1.000000 I-0.458450 J0.845877
G03 X278.576826 Y128.730166 Z1.000000 I-1.239061 J-2.004856
G03 X273.954730 Y122.512296 Z1.000000 I11.884595 J-13.661362
G03 X273.164738 Y118.390750 Z1.000000 I8.240539 J-3.715979
G03 X274.357320 Y113.547956 Z1.000000 I12.755192 J0.572844
G02 X276.008813 Y108.573990 Z1.000000 I-20.250954 J-9.485025
G02 X276.670110 Y102.318696 Z1.000000 I-31.549224 J-6.497923
G03 X277.457348 Y96.092307 Z1.000000 I26.599301 J0.200141
G03 X280.004870 Y88.924506 Z1.000000 I37.924511 J9.442213
G02 X284.453426 Y78.502016 Z1.000000 I-144.300949 J-67.751543
G02 X285.536955 Y74.132517 Z1.000000 I-16.874600 J-6.503584
G02 X284.896490 Y70.229099 Z1.000000 I-7.084298 J-0.841875
G02 X282.580840 Y67.247996 Z1.000000 I-7.922466 J3.764061
G03 X281.203822 Y65.342399 Z1.000000 I3.018907 J-3.631842
G03 X281.010070 Y63.247996 Z1.000000 I3.518401 J-1.381649
G02 X280.934592 Y62.436870 Z1.000000 I-1.435066 J-0.275536
G02 X280.685670 Y62.424506 Z1.000000 I-0.127258 J0.050131
G03 X279.320527 Y63.632804 Z1.000000 I-2.232222 J-1.146656
G03 X273.294790 Y65.145786 Z1.000000 I-10.069907 J-27.349502
G03 X270.118690 Y65.158704 Z1.000000 I-1.635552 J-11.672715
G03 X269.206241 Y64.608000 Z1.000000 I0.173950 J-1.319472
G03 X269.068213 Y63.613220 Z1.000000 I0.891168 J-0.630617
G03 X270.443180 Y61.115986 Z1.000000 I8.269511 J2.926016
G03 X272.752911 Y59.528614 Z1.000000 I3.701157 J2.911334
G03 X275.672960 Y59.498446 Z1.000000 I1.510639 J4.884145
G02 X279.479911 Y59.732137 Z1.000000 I2.430967 J-8.476284
G02 X280.010790 Y58.813166 Z1.000000 I-0.106536 J-0.674371
G03 X280.158948 Y57.968314 Z1.000000 I0.778776 J-0.298846
G03 X280.903800 Y57.781776 Z1.000000 I0.505364 J0.437558
G02 X281.910269 Y57.627251 Z1.000000 I0.367902 J-0.958723
G02 X282.415140 Y56.581686 Z1.000000 I-0.830222 J-1.045565
G03 X282.805465 Y54.955281 Z1.000000 I3.583610 J0.000000
G03 X284.415140 Y52.654876 Z1.000000 I8.998112 J4.582921
G02 X286.068729 Y50.371772 Z1.000000 I-8.392593 J-7.818899
G02 X286.415140 Y49.025336 Z1.000000 I-2.443469 J-1.346437
G03 X287.615955 Y47.716360 Z1.000000 I1.313847 J0.000000
G03 X290.121010 Y48.705326 Z1.000000 I0.259832 J3.008985
G03 X292.183250 Y53.058988 Z1.000000 I-6.256164 J5.628667
G03 X291.387630 Y56.969016 Z1.000000 I-5.706856 J0.874720
G02 X290.248606 Y60.463427 Z1.000000 I6.617541 J4.089869
G02 X290.919190 Y63.071026 Z1.000000 I4.162579 J0.319553
G02 X292.895115 Y65.280664 Z1.000000 I8.318939 J-5.450760
G02 X294.713430 Y66.212766 Z1.000000 I3.013957 J-3.639927
G03 X295.266285 Y66.850994 Z1.000000 I-0.188843 J0.722147
G03 X294.861590 Y67.522226 Z1.000000 I-0.639074 J0.072308
G02 X294.382748 Y68.038447 Z1.000000 I0.295000 J0.753835
G02 X294.606120 Y68.354216 Z1.000000 I0.233516 J0.071703
G02 X296.121288 Y68.093176 Z1.000000 I0.151755 J-3.646971
G02 X296.915140 Y67.424506 Z1.000000 I-0.621480 J-1.543397
G03 X297.719701 Y66.759061 Z1.000000 I1.385910 J0.856543
G03 X299.533170 Y66.424506 Z1.000000 I1.813469 J4.747707
G03 X300.742207 Y66.865499 Z1.000000 I0.000000 J1.877857
G03 X300.848930 Y67.531636 Z1.000000 I-0.332240 J0.394847
G02 X301.033193 Y67.964690 Z1.000000 I0.245061 J0.151456
G02 X302.539910 Y67.896716 Z1.000000 I0.624416 J-2.892124
G02 X309.027162 Y64.432121 Z1.000000 I-5.875762 J-18.807821
G02 X311.095180 Y61.003196 Z1.000000 I-3.665001 J-4.548481
G03 X311.535906 Y60.289023 Z1.000000 I1.169147 J0.228421
G03 X313.683310 Y59.003196 Z1.000000 I6.478318 J8.383104
G02 X316.092287 Y57.385304 Z1.000000 I-3.499808 J-7.813458
G02 X324.562363 Y48.882838 Z1.000000 I-161.816419 J-169.670116
G02 X332.526593 Y40.043279 Z1.000000 I-176.091279 J-166.661588
G02 X334.668210 Y36.830976 Z1.000000 I-12.161010 J-10.427698
G02 X335.969868 Y33.864184 Z1.000000 I-26.909641 J-13.575350
G02 X336.791010 Y31.185826 Z1.000000 I-21.093480 J-7.931978
G01 X337.447560 Y28.447136 Z1.000000
G01 X219.548330 Y28.432836 Z1.000000
G01 X101.649090 Y28.418536 Z1.000000
G01 X100.032110 Y30.886346 Z1.000000
G01 X100.032070 Y30.886316 Z1.000000
G00 Z10.000000

(End cutting path id: path825)


(Start cutting path id: path825)
(Change tool to Default tool)

G00 Z10.000000
G00 X275.144270 Y34.028676

G01 Z1.000000 F100.0(Penetrate)
G03 X274.476241 Y34.321622 Z1.000000 I-0.709299 J-0.709321 F400.000000
G03 X273.227600 Y34.107576 Z1.000000 I-0.124474 J-3.022887
G03 X273.163745 Y33.796368 Z1.000000 I0.070692 J-0.176660
G03 X273.831770 Y33.503416 Z1.000000 I0.709304 J0.709309
G03 X275.080413 Y33.717427 Z1.000000 I0.124473 J3.023365
G03 X275.144270 Y34.028636 Z1.000000 I-0.070691 J0.176661
G01 X275.144270 Y34.028676 Z1.000000
G00 Z10.000000

(End cutting path id: path825)


(Start cutting path id: path825)
(Change tool to Default tool)

G00 Z10.000000
G00 X290.982490 Y37.424506

G01 Z1.000000 F100.0(Penetrate)
G01 X289.847710 Y41.424506 Z1.000000 F400.000000
G03 X288.458344 Y42.388791 Z1.000000 I-1.281668 J-0.363600
G03 X286.765280 Y41.174506 Z1.000000 I0.163455 J-2.015356
G03 X286.706514 Y37.017491 Z1.000000 I4.981172 J-2.149339
G03 X289.055810 Y35.424506 Z1.000000 I2.349296 J0.935850
G03 X290.651915 Y36.103159 Z1.000000 I0.000000 J2.216244
G03 X290.982490 Y37.424506 Z1.000000 I-0.984388 J0.948300
G01 X290.982490 Y37.424506 Z1.000000
G00 Z10.000000

(End cutting path id: path825)


(Start cutting path id: path825)
(Change tool to Default tool)

G00 Z10.000000
G00 X277.600000 Y44.390316

G01 Z1.000000 F100.0(Penetrate)
G03 X279.829728 Y45.500920 Z1.000000 I-7.174565 J17.197751 F400.000000
G03 X281.775160 Y46.831036 Z1.000000 I-8.417893 J14.399794
G03 X282.738428 Y48.527142 Z1.000000 I-1.617979 J2.040484
G03 X282.357150 Y51.193306 Z1.000000 I-4.921264 J0.656573
G01 X281.079080 Y54.080656 Z1.000000
G01 X277.247090 Y52.229246 Z1.000000
G03 X273.671011 Y50.197888 Z1.000000 I13.460010 J-27.858921
G03 X273.338590 Y49.651166 Z1.000000 I0.412347 J-0.625138
G02 X273.240962 Y48.927586 Z1.000000 I-12.451597 J1.311645
G02 X272.898770 Y46.981646 Z1.000000 I-90.313734 J14.878520
G03 X272.880337 Y44.582705 Z1.000000 I6.689618 J-1.250941
G03 X273.488741 Y43.727352 Z1.000000 I1.192354 J0.204056
G03 X274.630048 Y43.533170 Z1.000000 I0.849338 J1.540881
G03 X277.600000 Y44.390316 Z1.000000 I-2.249623 J13.368702
G01 X277.600000 Y44.390316 Z1.000000
G00 Z10.000000

(End cutting path id: path825)


(Start cutting path id: path825)
(Change tool to Default tool)

G00 Z10.000000
G00 X280.407300 Y79.513986

G01 Z1.000000 F100.0(Penetrate)
G03 X278.912255 Y81.917410 Z1.000000 I-2.657375 J0.013693 F400.000000
G03 X272.368050 Y83.424506 Z1.000000 I-6.544205 J-13.454778
G03 X270.173834 Y82.665774 Z1.000000 I-0.000000 J-3.552150
G03 X269.415100 Y81.104976 Z1.000000 I1.225999 J-1.560798
G03 X271.999657 Y77.003598 Z1.000000 I4.546474 J0.000000
G03 X278.157300 Y76.923096 Z1.000000 I3.165871 J6.618239
G03 X279.925384 Y78.233672 Z1.000000 I-2.076488 J4.649309
G03 X280.407300 Y79.513986 Z1.000000 I-1.485407 J1.289969
G01 X280.407300 Y79.513986 Z1.000000
G00 Z10.000000

(End cutting path id: path825)


(Start cutting path id: path825)
(Change tool to Default tool)

G00 Z10.000000
G00 X197.415100 Y93.483526

G01 Z1.000000 F100.0(Penetrate)
G02 X197.733362 Y93.971706 Z1.000000 I0.533539 J0.000000 F400.000000
G02 X198.415100 Y93.924506 Z1.000000 I0.296026 J-0.671293
G02 X199.271603 Y93.226463 Z1.000000 I-2.236420 J-3.618590
G02 X199.415100 Y92.865486 Z1.000000 I-0.382283 J-0.360977
G02 X199.241067 Y92.598538 Z1.000000 I-0.291752 J-0.000000
G02 X198.415100 Y92.424506 Z1.000000 I-0.825967 J1.873032
G02 X197.716337 Y92.725744 Z1.000000 I-0.000000 J0.961057
G02 X197.415100 Y93.483526 Z1.000000 I0.802507 J0.757782
G01 X197.415100 Y93.483526 Z1.000000
G00 Z10.000000

(End cutting path id: path825)


(Start cutting path id: path825)
(Change tool to Default tool)

G00 Z10.000000
G00 X83.610046 Y110.924506

G01 Z1.000000 F100.0(Penetrate)
G02 X83.860758 Y112.171518 Z1.000000 I3.437808 J-0.042462 F400.000000
G02 X84.108088 Y112.155476 Z1.000000 I0.121010 J-0.048960
G02 X84.321746 Y110.402481 Z1.000000 I-6.413027 J-1.671149
G02 X84.071038 Y109.155476 Z1.000000 I-3.437806 J0.042460
G02 X83.823706 Y109.171519 Z1.000000 I-0.121011 J0.048961
G02 X83.610046 Y110.924506 Z1.000000 I6.412904 J1.671139
G01 X83.610046 Y110.924506 Z1.000000
G00 Z10.000000

(End cutting path id: path825)


(Start cutting path id: path825)
(Change tool to Default tool)

G00 Z10.000000
G00 X80.998046 Y111.290296

G01 Z1.000000 F100.0(Penetrate)
G02 X80.584662 Y112.514504 Z1.000000 I2.432217 J1.503198 F400.000000
G02 X80.814961 Y113.157706 Z1.000000 I0.795517 J0.077994
G02 X81.916968 Y113.076308 Z1.000000 I0.515903 J-0.515904
G02 X82.202348 Y111.286256 Z1.000000 I-1.577148 J-1.169212
G02 X81.678024 Y110.909668 Z1.000000 I-0.522493 J0.174165
G02 X80.998046 Y111.290256 Z1.000000 I0.002668 J0.802502
G01 X80.998046 Y111.290296 Z1.000000
G00 Z10.000000

(End cutting path id: path825)


(Start cutting path id: path825)
(Change tool to Default tool)

G00 Z10.000000
G00 X244.415100 Y114.872556

G01 Z1.000000 F100.0(Penetrate)
G03 X244.063874 Y116.010330 Z1.000000 I-2.018484 J0.000000 F400.000000
G03 X243.165100 Y116.704266 Z1.000000 I-1.516101 J-1.034621
G02 X242.508985 Y117.296050 Z1.000000 I0.390016 J1.092026
G02 X242.598980 Y117.888156 Z1.000000 I0.480648 J0.229838
G02 X243.304488 Y118.033976 Z1.000000 I0.455044 J-0.421993
G02 X245.401200 Y116.652086 Z1.000000 I-3.043076 J-6.898791
G02 X246.404451 Y114.895099 Z1.000000 I-2.318883 J-2.489023
G02 X245.967320 Y114.082916 Z1.000000 I-0.690415 J-0.152134
G02 X244.864066 Y114.140441 Z1.000000 I-0.486959 J1.269007
G02 X244.415100 Y114.872556 Z1.000000 I0.372435 J0.732115
G01 X244.415100 Y114.872556 Z1.000000
G00 Z10.000000

(End cutting path id: path825)


(Start cutting path id: path825)
(Change tool to Default tool)

G00 Z10.000000
G00 X82.304406 Y119.174506

G01 Z1.000000 F100.0(Penetrate)
G02 X82.266090 Y120.923828 Z1.000000 I21.163410 J1.338627 F400.000000
G02 X82.382906 Y123.227456 Z1.000000 I36.848313 J-0.713782
G03 X82.188101 Y125.409346 Z1.000000 I-6.414301 J0.526956
G03 X81.391650 Y126.952756 Z1.000000 I-3.909667 J-1.040316
G02 X80.726500 Y128.523879 Z1.000000 I2.278470 J1.890973
G02 X80.772617 Y132.649806 Z1.000000 I17.217068 J1.870779
G02 X81.339723 Y136.923750 Z1.000000 I1606.087895 J-210.935990
G02 X82.015832 Y141.924506 Z1.000000 I2199.408710 J-294.816775
G02 X83.150341 Y146.623235 Z1.000000 I23.658849 J-3.226103
G02 X84.056361 Y147.724196 Z1.000000 I1.959827 J-0.689534
G03 X84.996031 Y148.765440 Z1.000000 I-1.185785 J2.014735
G03 X85.430406 Y150.724196 Z1.000000 I-4.349306 J1.992047
G02 X85.724328 Y152.838669 Z1.000000 I8.160198 J-0.056641
G02 X86.451665 Y154.424506 Z1.000000 I5.254590 J-1.450282
G02 X86.908205 Y154.292682 Z1.000000 I0.207183 J-0.138943
G02 X86.751425 Y143.924506 Z1.000000 I-118.738033 J-3.389800
G03 X86.177533 Y131.920600 Z1.000000 I544.890972 J-32.066256
G03 X86.043403 Y124.674506 Z1.000000 I198.377377 J-7.296375
G02 X85.246827 Y118.219450 Z1.000000 I-26.607035 J0.006721
G02 X84.228331 Y117.424506 Z1.000000 I-1.018496 J0.254986
G02 X82.898074 Y117.939005 Z1.000000 I-0.000000 J1.976964
G02 X82.304402 Y119.174506 Z1.000000 I1.228656 J1.350766
G01 X82.304406 Y119.174506 Z1.000000
G00 Z10.000000

(End cutting path id: path825)


(Start cutting path id: path825)
(Change tool to Default tool)

G00 Z10.000000
G00 X214.981080 Y122.317746

G01 Z1.000000 F100.0(Penetrate)
G02 X214.621216 Y123.424509 Z1.000000 I2.089171 J1.291180 F400.000000
G02 X214.832500 Y124.290856 Z1.000000 I1.437860 J0.108273
G03 X214.852263 Y125.084111 Z1.000000 I-0.669136 J0.413544
G03 X213.346810 Y126.986306 Z1.000000 I-6.438556 J-3.548835
G03 X211.121106 Y127.968815 Z1.000000 I-2.595987 J-2.868532
G03 X206.829770 Y127.612926 Z1.000000 I-1.159952 J-12.063800
G02 X202.353440 Y127.125356 Z1.000000 I-3.820669 J14.285035
G02 X197.374480 Y128.032586 Z1.000000 I0.828276 J18.661769
G02 X192.737816 Y129.888690 Z1.000000 I12.014586 J36.732579
G02 X192.415100 Y130.400376 Z1.000000 I0.244297 J0.511686
G03 X192.082368 Y130.902132 Z1.000000 I-0.544687 J0.000000
G03 X185.434670 Y133.349086 Z1.000000 I-29.342234 J-69.461281
G02 X178.684436 Y135.847844 Z1.000000 I22.195324 J70.326285
G02 X177.802980 Y136.605916 Z1.000000 I0.755173 J1.769581
G02 X178.509896 Y137.647825 Z1.000000 I0.586780 J0.362649
G02 X192.379990 Y134.027786 Z1.000000 I-15.571700 J-88.044096
G03 X204.033563 Y131.426243 Z1.000000 I16.998642 J48.743399
G03 X205.379660 Y132.674506 Z1.000000 I0.126346 J1.213682
G03 X203.837327 Y138.253120 Z1.000000 I-12.100498 J-0.342941
G03 X202.435220 Y137.924506 Z1.000000 I-0.653643 J-0.366596
G02 X202.174161 Y137.721540 Z1.000000 I-0.218028 J0.011060
G02 X201.647380 Y138.082906 Z1.000000 I0.160590 J0.798741
G03 X200.645793 Y138.857909 Z1.000000 I-1.577146 J-1.003539
G03 X193.051970 Y140.864486 Z1.000000 I-22.139546 J-68.413786
G02 X185.305926 Y142.804516 Z1.000000 I19.366794 J93.760663
G02 X182.054370 Y144.111856 Z1.000000 I5.222295 J17.685880
G03 X173.520403 Y147.293484 Z1.000000 I-17.394106 J-33.619596
G03 X164.190780 Y148.412636 Z1.000000 I-9.430852 J-39.171724
G03 X160.039565 Y147.480278 Z1.000000 I-0.024208 J-9.599791
G03 X157.915100 Y145.424506 Z1.000000 I1.992589 J-4.184785
G02 X156.190208 Y142.709591 Z1.000000 I-16.117691 J8.334800
G02 X155.611930 Y142.424506 Z1.000000 I-0.578278 J0.443958
G02 X151.885983 Y143.895384 Z1.000000 I0.000000 J5.454621
G02 X150.415100 Y147.285046 Z1.000000 I3.170310 J3.389662
G02 X151.715881 Y150.443463 Z1.000000 I4.484857 J0.000000
G02 X159.415100 Y156.358156 Z1.000000 I25.723729 J-25.516431
G02 X162.946137 Y157.532543 Z1.000000 I4.668270 J-8.140531
G02 X174.710124 Y158.470523 Z1.000000 I17.062866 J-139.759512
G02 X186.383219 Y158.462550 Z1.000000 I5.732581 J-152.213291
G02 X191.914430 Y157.582126 Z1.000000 I-0.921187 J-23.602259
G03 X196.948135 Y156.324048 Z1.000000 I22.306688 J78.552227
G03 X200.665100 Y155.688256 Z1.000000 I9.123969 J42.157558
G02 X204.027854 Y154.873050 Z1.000000 I-1.937869 J-15.337128
G02 X204.415100 Y154.319466 Z1.000000 I-0.202063 J-0.553584
G03 X204.795708 Y153.805111 Z1.000000 I0.537854 J0.000000
G03 X207.342520 Y153.424506 Z1.000000 I2.546812 J8.330669
G02 X211.644441 Y151.071666 Z1.000000 I-0.000000 J-5.109225
G02 X214.896130 Y141.635526 Z1.000000 I-17.824139 J-11.420525
G03 X215.591692 Y134.931832 Z1.000000 I352.679082 J33.205376
G03 X216.304590 Y129.213376 Z1.000000 I257.354712 J29.179738
G02 X216.122424 Y122.527757 Z1.000000 I-20.494820 J-2.786861
G02 X214.981080 Y122.317746 Z1.000000 I-0.611593 J0.117388
G01 X214.981080 Y122.317746 Z1.000000
G00 Z10.000000

(End cutting path id: path825)


(Start cutting path id: path825)
(Change tool to Default tool)

G00 Z10.000000
G00 X247.979390 Y126.131376

G01 Z1.000000 F100.0(Penetrate)
G02 X248.098992 Y126.690353 Z1.000000 I0.491448 J0.187131 F400.000000
G02 X248.539190 Y126.691176 Z1.000000 I0.220512 J-0.220512
G02 X249.341571 Y125.457020 Z1.000000 I-2.456766 J-2.475165
G02 X249.221970 Y124.898046 Z1.000000 I-0.491444 J-0.187131
G02 X248.781772 Y124.897224 Z1.000000 I-0.220512 J0.220512
G02 X247.979390 Y126.131376 Z1.000000 I2.456726 J2.475146
G01 X247.979390 Y126.131376 Z1.000000
G00 Z10.000000

(End cutting path id: path825)


(Start cutting path id: path825)
(Change tool to Default tool)

G00 Z10.000000
G00 X252.081770 Y133.091176

G01 Z1.000000 F100.0(Penetrate)
G02 X251.596284 Y133.832881 Z1.000000 I1.533375 J1.533416 F400.000000
G02 X251.415100 Y134.791176 Z1.000000 I2.443648 J0.958294
G02 X251.728662 Y135.067500 Z1.000000 I0.278535 J0.000000
G02 X252.598430 Y134.641176 Z1.000000 I-0.188142 J-1.484234
G02 X253.372979 Y133.457834 Z1.000000 I-2.446501 J-2.446501
G02 X253.265100 Y132.941176 Z1.000000 I-0.448602 J-0.175923
G02 X252.748428 Y132.764402 Z1.000000 I-0.438659 J0.438659
G02 X252.081770 Y133.091176 Z1.000000 I0.144205 J1.137615
G01 X252.081770 Y133.091176 Z1.000000
G00 Z10.000000

(End cutting path id: path825)


(Start cutting path id: path825)
(Change tool to Default tool)

G00 Z10.000000
G00 X222.665100 Y136.113836

G01 Z1.000000 F100.0(Penetrate)
G03 X223.948722 Y137.453235 Z1.000000 I-0.447922 J1.714053 F400.000000
G03 X223.165100 Y138.424696 Z1.000000 I-0.783746 J0.169579
G02 X222.492048 Y138.971529 Z1.000000 I0.000104 J0.687747
G02 X222.170770 Y143.174696 Z1.000000 I15.906076 J3.329676
G03 X222.422126 Y147.924727 Z1.000000 I-2613.310848 J140.669847
G03 X223.028460 Y159.666966 Z1.000000 I-15975.544069 J830.811480
G02 X224.046944 Y170.615292 Z1.000000 I132.224047 J-6.778798
G02 X224.539100 Y170.847866 Z1.000000 I0.321562 J-0.043446
G02 X225.049553 Y170.192312 Z1.000000 I-0.627242 J-1.014920
G02 X224.963810 Y169.503316 Z1.000000 I-0.794501 J-0.250960
G03 X224.865766 Y168.704465 Z1.000000 I0.818561 J-0.505905
G03 X226.447490 Y164.860966 Z1.000000 I24.443668 J7.812145
G02 X228.116757 Y160.929953 Z1.000000 I-27.231801 J-13.883646
G02 X228.415100 Y159.147326 Z1.000000 I-5.176502 J-1.782627
G03 X229.868680 Y154.971317 Z1.000000 I6.725446 J0.000000
G03 X232.390760 Y154.128396 Z1.000000 I1.906680 J1.510341
G03 X233.765868 Y154.902742 Z1.000000 I-0.785147 J3.002441
G03 X233.844840 Y155.538196 Z1.000000 I-0.355666 J0.366835
G02 X233.902066 Y156.087204 Z1.000000 I0.384180 J0.237442
G02 X234.689420 Y156.424506 Z1.000000 I0.787354 J-0.750299
G03 X236.130024 Y156.919270 Z1.000000 I0.000000 J2.344685
G03 X239.743513 Y160.122783 Z1.000000 I-23.308820 J29.931527
G03 X242.921235 Y163.759055 Z1.000000 I-26.972056 J26.777402
G03 X243.415100 Y165.213616 Z1.000000 I-1.895098 J1.454561
G02 X243.829237 Y165.787508 Z1.000000 I0.604705 J0.000000
G02 X244.667930 Y165.629636 Z1.000000 I0.277116 J-0.834530
G03 X247.739513 Y165.257940 Z1.000000 I1.824282 J2.198148
G03 X249.415100 Y167.933726 Z1.000000 I-1.298722 J2.675786
G02 X249.941066 Y169.292489 Z1.000000 I2.018075 J0.000000
G02 X253.075059 Y172.258163 Z1.000000 I21.480373 J-19.560734
G02 X256.606410 Y174.706768 Z1.000000 I17.591538 J-21.599583
G02 X257.856410 Y174.808656 Z1.000000 I0.731073 J-1.250410
G03 X258.862772 Y175.014100 Z1.000000 I0.342137 J0.891591
G03 X259.415100 Y176.317516 Z1.000000 I-1.261773 J1.303415
G02 X260.342293 Y177.784524 Z1.000000 I1.624149 J-0.000000
G02 X261.965100 Y177.528986 Z1.000000 I0.624525 J-1.314549
G03 X265.941056 Y176.809227 Z1.000000 I2.541124 J2.695702
G03 X266.824840 Y179.570556 Z1.000000 I-0.738762 J1.758542
G02 X266.870704 Y179.968903 Z1.000000 I0.275258 J0.170122
G02 X267.267650 Y180.015636 Z1.000000 I0.227921 J-0.226759
G03 X268.203781 Y179.965944 Z1.000000 I0.513487 J0.830838
G03 X269.029150 Y180.861126 Z1.000000 I-0.713030 J1.485515
G02 X271.553464 Y182.592208 Z1.000000 I2.518452 J-0.966424
G02 X274.082010 Y180.850126 Z1.000000 I-0.005899 J-2.714633
G02 X274.237368 Y179.437312 Z1.000000 I-2.611541 J-1.002123
G02 X273.406499 Y175.399765 Z1.000000 I-36.687892 J5.445578
G02 X272.128484 Y171.477271 Z1.000000 I-35.363839 J9.352693
G02 X271.324730 Y170.424476 Z1.000000 I-2.227929 J0.867697
G03 X270.825975 Y169.796688 Z1.000000 I0.924143 J-1.246215
G03 X269.050750 Y165.192436 Z1.000000 I53.896845 J-23.424930
G02 X267.095408 Y160.681228 Z1.000000 I-28.092172 J9.496929
G02 X265.433060 Y158.442436 Z1.000000 I-8.406795 J4.505655
G03 X263.746825 Y156.287074 Z1.000000 I7.981817 J-7.981817
G03 X263.415100 Y155.093956 Z1.000000 I1.979785 J-1.193118
G02 X263.170509 Y153.821924 Z1.000000 I-3.429997 J-0.000000
G02 X260.919290 Y148.843956 Z1.000000 I-56.667613 J22.629144
G03 X258.670484 Y143.865007 Z1.000000 I53.839214 J-27.314490
G03 X258.419290 Y142.566066 Z1.000000 I3.289211 J-1.309840
G02 X257.890997 Y141.881693 Z1.000000 I-0.710283 J0.002203
G02 X255.784940 Y141.867786 Z1.000000 I-1.079979 J4.074316
G03 X254.129434 Y141.562847 Z1.000000 I-0.493594 J-1.966610
G03 X253.707320 Y140.415026 Z1.000000 I0.613280 J-0.877062
G02 X253.649532 Y138.615444 Z1.000000 I-3.067646 J-0.802210
G02 X252.824740 Y137.751426 Z1.000000 I-1.324839 J0.439010
G02 X249.493757 Y138.233951 Z1.000000 I-1.234440 J3.216909
G02 X249.051220 Y140.644716 Z1.000000 I1.111837 J1.450097
G03 X248.845240 Y141.049885 Z1.000000 I-0.226333 J0.139880
G03 X246.290210 Y140.856546 Z1.000000 I-0.646845 J-8.431135
G02 X242.897974 Y140.189978 Z1.000000 I-11.612557 J50.132573
G02 X240.415100 Y139.905836 Z1.000000 I-4.295574 J26.545368
G03 X237.936789 Y139.654136 Z1.000000 I2.488008 J-36.824657
G03 X237.415100 Y139.498466 Z1.000000 I0.237228 J-1.746995
G02 X236.894806 Y139.326394 Z1.000000 I-0.941505 J1.974181
G02 X233.915100 Y138.811576 Z1.000000 I-12.824774 J65.347827
G03 X230.950356 Y138.236819 Z1.000000 I5.179914 J-34.653172
G03 X229.415100 Y137.736086 Z1.000000 I2.328827 J-9.744147
G02 X227.891659 Y137.306690 Z1.000000 I-2.524094 J6.037978
G02 X226.665100 Y137.310596 Z1.000000 I-0.600918 J3.883826
G03 X225.756914 Y137.110806 Z1.000000 I-0.201350 J-1.248790
G03 X225.415100 Y136.468316 Z1.000000 I0.432922 J-0.642490
G02 X225.005261 Y135.855991 Z1.000000 I-0.662346 J0.000000
G02 X223.165100 Y135.540476 Z1.000000 I-1.621209 J3.931400
G02 X222.576580 Y135.826626 Z1.000000 I0.043158 J0.837037
G02 X222.665100 Y136.113806 Z1.000000 I0.133210 J0.116172
G01 X222.665100 Y136.113836 Z1.000000
G00 Z10.000000

(End cutting path id: path825)


(Start cutting path id: path825)
(Change tool to Default tool)

G00 Z10.000000
G00 X286.102600 Y160.070336

G01 Z1.000000 F100.0(Penetrate)
G02 X285.675593 Y162.212041 Z1.000000 I1.390693 J1.390693 F400.000000
G02 X287.488420 Y163.424506 Z1.000000 I1.812827 J-0.748999
G02 X288.884483 Y162.865968 Z1.000000 I0.000000 J-2.023994
G02 X289.238420 Y161.757376 Z1.000000 I-0.836205 J-0.877769
G02 X287.812126 Y159.819111 Z1.000000 I-2.756684 J0.534627
G02 X286.102600 Y160.070336 Z1.000000 I-0.685872 J1.274879
G01 X286.102600 Y160.070336 Z1.000000
G00 Z10.000000

(End cutting path id: path825)


(Start cutting path id: path825)
(Change tool to Default tool)

G00 Z10.000000
G00 X292.040100 Y160.222256

G01 Z1.000000 F100.0(Penetrate)
G02 X291.892553 Y161.018195 Z1.000000 I0.951423 J0.588015 F400.000000
G02 X292.465770 Y162.472256 Z1.000000 I4.097278 J-0.775203
G02 X292.991770 Y162.551718 Z1.000000 I0.297427 J-0.188156
G02 X293.399790 Y161.674506 Z1.000000 I-0.755997 J-0.885137
G02 X292.802013 Y160.146229 Z1.000000 I-2.214065 J-0.015028
G02 X292.040100 Y160.222256 Z1.000000 I-0.351877 J0.329444
G01 X292.040100 Y160.222256 Z1.000000
G00 Z10.000000

(End cutting path id: path825)


(Start cutting path id: path825)
(Change tool to Default tool)

G00 Z10.000000
G00 X87.415097 Y166.810746

G01 Z1.000000 F100.0(Penetrate)
G03 X87.030210 Y169.380007 Z1.000000 I-8.767820 J-0.000000 F400.000000
G03 X85.869468 Y171.853796 Z1.000000 I-9.274395 J-2.842483
G02 X84.982368 Y177.223570 Z1.000000 I5.628649 J3.688029
G02 X87.823505 Y179.424506 Z1.000000 I2.841137 J-0.733311
G02 X90.896975 Y178.537799 Z1.000000 I-0.000000 J-5.769927
G02 X92.143508 Y176.723412 Z1.000000 I-1.480806 J-2.352747
G02 X92.041394 Y174.133596 Z1.000000 I-5.476334 J-1.080996
G02 X89.915097 Y168.828486 Z1.000000 I-25.644803 J7.199815
G02 X88.252270 Y165.853098 Z1.000000 I-71.892179 J38.225372
G02 X87.835880 Y165.369782 Z1.000000 I-1.531734 J0.898607
G02 X87.574477 Y165.458886 Z1.000000 I-0.102569 J0.127084
G02 X87.415097 Y166.810746 Z1.000000 I5.653529 J1.351860
G01 X87.415097 Y166.810746 Z1.000000
G00 Z10.000000

(End cutting path id: path825)


(Start cutting path id: path825)
(Change tool to Default tool)

G00 Z10.000000
G00 X282.344380 Y169.128616

G01 Z1.000000 F100.0(Penetrate)
G01 X279.773660 Y169.522756 Z1.000000 F400.000000
G01 X281.060040 Y177.606916 Z1.000000
G02 X286.531658 Y196.461085 Z1.000000 I77.972605 J-12.407184
G02 X293.378510 Y206.175786 Z1.000000 I26.571465 J-11.457223
G03 X294.385767 Y208.293088 Z1.000000 I-2.172260 J2.331642
G03 X293.946660 Y214.603676 Z1.000000 I-23.143629 J1.560179
G03 X291.217933 Y223.770069 Z1.000000 I-56.401875 J-11.800823
G03 X289.328900 Y226.424506 Z1.000000 I-6.228522 J-2.433149
G02 X287.830168 Y228.898073 Z1.000000 I2.984677 J3.499237
G02 X286.062113 Y239.345831 Z1.000000 I90.247039 J20.645825
G02 X285.419149 Y249.804966 Z1.000000 I106.355389 J11.787408
G02 X286.114990 Y255.422976 Z1.000000 I20.929306 J0.259815
G02 X288.763293 Y258.970948 Z1.000000 I5.735685 J-1.518903
G02 X290.415100 Y258.043146 Z1.000000 I0.565335 J-0.927803
G03 X292.064970 Y255.833361 Z1.000000 I2.304793 J0.000000
G03 X299.687310 Y255.295106 Z1.000000 I5.028222 J16.965797
G02 X300.888165 Y255.020984 Z1.000000 I0.248680 J-1.677975
G02 X301.187310 Y254.277726 Z1.000000 I-0.402868 J-0.593974
G03 X301.445743 Y253.265343 Z1.000000 I1.152237 J-0.245043
G03 X303.165100 Y251.973976 Z1.000000 I3.785637 J3.250009
G02 X305.034071 Y250.704995 Z1.000000 I-2.773384 J-6.095485
G02 X305.415100 Y249.809826 Z1.000000 I-0.861015 J-0.895169
G03 X305.709315 Y248.807551 Z1.000000 I1.854287 J0.000000
G03 X306.984620 Y247.366806 Z1.000000 I5.293442 J3.400795
G02 X308.011475 Y245.889702 Z1.000000 I-2.149030 J-2.589443
G02 X308.078240 Y244.244366 Z1.000000 I-2.660995 J-0.932001
G03 X308.253227 Y242.927077 Z1.000000 I1.699692 J-0.444482
G03 X309.120010 Y242.424506 Z1.000000 I0.866783 J0.496184
G02 X310.397839 Y240.966922 Z1.000000 I0.000000 J-1.288913
G02 X307.812550 Y232.519396 Z1.000000 I-26.541551 J3.503435
G03 X306.731181 Y229.323674 Z1.000000 I11.096513 J-5.535657
G03 X306.557820 Y225.989296 Z1.000000 I11.927550 J-2.291834
G02 X305.066332 Y219.670467 Z1.000000 I-10.352192 J-0.891921
G02 X302.281450 Y219.007106 Z1.000000 I-1.722786 J1.055153
G03 X301.719639 Y218.996304 Z1.000000 I-0.272531 J-0.440961
G03 X301.415100 Y218.424506 Z1.000000 I0.384532 J-0.571798
G02 X301.087388 Y217.894257 Z1.000000 I-0.592837 J-0.000000
G02 X300.415100 Y217.924506 Z1.000000 I-0.309016 J0.618033
G03 X299.020685 Y217.167441 Z1.000000 I-0.480564 J-0.777562
G03 X300.295320 Y212.584066 Z1.000000 I8.215240 J-0.184270
G03 X301.326325 Y211.444635 Z1.000000 I3.823219 J2.423246
G03 X303.510300 Y210.064366 Z1.000000 I7.892838 J10.070729
G02 X305.567990 Y208.577400 Z1.000000 I-3.484385 J-6.988969
G02 X307.080820 Y206.467826 Z1.000000 I-5.794557 J-5.752660
G02 X307.454880 Y204.244420 Z1.000000 I-3.460786 J-1.725401
G02 X306.600530 Y202.769336 Z1.000000 I-2.192084 J0.284671
G03 X305.768046 Y201.761000 Z1.000000 I1.730618 J-2.276619
G03 X305.950810 Y201.456306 Z1.000000 I0.189248 J-0.093644
G02 X307.814669 Y199.411349 Z1.000000 I-0.059073 J-1.925720
G02 X305.700810 Y197.424506 Z1.000000 I-2.113859 J0.131076
G03 X304.820148 Y197.019458 Z1.000000 I0.000000 J-1.159899
G03 X304.415100 Y195.924506 Z1.000000 I1.277448 J-1.094952
G02 X303.671727 Y195.059931 Z1.000000 I-0.874456 J0.000000
G02 X301.349360 Y195.459686 Z1.000000 I-0.559910 J3.692959
G02 X299.885568 Y196.776690 Z1.000000 I1.944324 J3.633002
G02 X299.415100 Y198.306056 Z1.000000 I2.250545 J1.529366
G03 X297.860744 Y204.870151 Z1.000000 I-14.637372 J-0.000000
G03 X295.341860 Y206.424506 Z1.000000 I-2.518884 J-1.263791
G03 X294.705675 Y205.917860 Z1.000000 I0.000000 J-0.652746
G03 X294.480680 Y202.674506 Z1.000000 I10.166537 J-2.334744
G03 X294.810355 Y202.279131 Z1.000000 I0.449052 J0.039299
G03 X296.068370 Y202.238476 Z1.000000 I0.713640 J2.598498
G02 X296.834827 Y201.871502 Z1.000000 I0.141845 J-0.687638
G02 X296.947390 Y200.526256 Z1.000000 I-1.576271 J-0.809227
G03 X297.295235 Y196.096207 Z1.000000 I5.629340 J-1.786668
G03 X300.001310 Y194.424506 Z1.000000 I2.706075 J1.354387
G02 X301.173223 Y193.901660 Z1.000000 I0.000000 J-1.574794
G02 X302.918610 Y191.174506 Z1.000000 I-7.460703 J-6.696975
G03 X304.537229 Y188.056590 Z1.000000 I22.510713 J9.706997
G03 X306.696630 Y185.020016 Z1.000000 I23.503462 J14.427939
G02 X308.174144 Y181.956402 Z1.000000 I-5.619930 J-4.598463
G02 X307.994150 Y179.020016 Z1.000000 I-5.309681 J-1.148238
G02 X304.824036 Y172.902281 Z1.000000 I-22.878873 J7.975251
G02 X303.053129 Y171.695672 Z1.000000 I-2.528344 J1.807923
G02 X301.660795 Y172.318203 Z1.000000 I-0.300538 J1.196116
G02 X300.498120 Y177.136546 Z1.000000 I8.975110 J4.715161
G03 X300.115361 Y181.053338 Z1.000000 I-18.321941 J0.186632
G03 X298.737268 Y186.384211 Z1.000000 I-56.221120 J-11.690262
G03 X296.939642 Y190.811925 Z1.000000 I-26.965230 J-8.368955
G03 X296.254120 Y190.810996 Z1.000000 I-0.342526 J-0.174160
G03 X295.976698 Y189.879669 Z1.000000 I2.447340 J-1.235993
G03 X295.551110 Y184.523576 Z1.000000 I83.293046 J-9.313304
G02 X292.584250 Y171.786697 Z1.000000 I-36.161363 J1.709252
G02 X288.980040 Y169.424506 Z1.000000 I-3.604210 J1.568539
G03 X287.589811 Y169.337104 Z1.000000 I-0.000000 J-11.100356
G03 X286.246890 Y169.079486 Z1.000000 I1.339686 J-10.612575
G02 X284.905829 Y168.917174 Z1.000000 I-1.276985 J4.929532
G02 X282.344380 Y169.128586 Z1.000000 I0.231965 J18.433368
G01 X282.344380 Y169.128616 Z1.000000
G00 Z10.000000

(End cutting path id: path825)


(Start cutting path id: path825)
(Change tool to Default tool)

G00 Z10.000000
G00 X221.609100 Y174.904996

G01 Z1.000000 F100.0(Penetrate)
G03 X218.995625 Y176.706439 Z1.000000 I-4.210523 J-3.311996 F400.000000
G03 X214.510140 Y177.122166 Z1.000000 I-3.216517 J-10.298665
G02 X204.445733 Y177.831963 Z1.000000 I-3.169717 J26.763611
G02 X197.965100 Y181.500536 Z1.000000 I3.756103 J14.193650
G03 X196.866066 Y182.059499 Z1.000000 I-1.449796 J-1.490650
G03 X192.465100 Y182.441786 Z1.000000 I-4.502398 J-26.308951
G02 X188.239277 Y183.209745 Z1.000000 I0.046597 J12.267043
G02 X185.462000 Y185.043756 Z1.000000 I2.565388 J6.904661
G03 X180.410060 Y188.128795 Z1.000000 I-8.248622 J-7.828674
G03 X174.566750 Y188.235026 Z1.000000 I-3.116025 J-10.638345
G02 X168.945970 Y188.387736 Z1.000000 I-2.540533 J10.008955
G02 X167.415100 Y190.470046 Z1.000000 I0.650758 J2.082310
G02 X169.785408 Y196.077013 Z1.000000 I7.816799 J0.000000
G02 X175.588180 Y198.409196 Z1.000000 I5.748485 J-5.917858
G02 X178.637778 Y197.387643 Z1.000000 I-0.033917 J-5.163946
G02 X181.961680 Y193.664926 Z1.000000 I-7.425179 J-9.974983
G03 X183.836967 Y191.275231 Z1.000000 I9.506752 J5.529665
G03 X184.747011 Y190.849223 Z1.000000 I1.078778 J1.119475
G03 X185.356624 Y191.214583 Z1.000000 I0.063841 J0.584738
G03 X185.602240 Y193.267456 Z1.000000 I-3.687837 J1.482360
G02 X186.091310 Y194.730499 Z1.000000 I1.696693 J0.246091
G02 X187.775950 Y195.424506 Z1.000000 I1.684640 J-1.697655
G03 X190.241087 Y195.612593 Z1.000000 I-0.000000 J16.248545
G03 X195.197750 Y196.563696 Z1.000000 I-10.272999 J66.928966
G02 X199.998222 Y196.716595 Z1.000000 I2.787278 J-12.075224
G02 X205.274040 Y194.904766 Z1.000000 I-2.715638 J-16.494766
G02 X209.951900 Y191.831384 Z1.000000 I-16.166393 J-29.702833
G02 X210.415100 Y190.880586 Z1.000000 I-0.744239 J-0.950798
G03 X210.830950 Y189.853506 Z1.000000 I1.476282 J-0.000000
G03 X212.959871 Y188.013407 Z1.000000 I11.419601 J11.060434
G03 X215.331074 Y186.641007 Z1.000000 I8.061299 J11.193482
G03 X216.106030 Y186.782106 Z1.000000 I0.285519 J0.630535
G03 X216.387074 Y187.396134 Z1.000000 I-0.684697 J0.684721
G03 X216.569400 Y193.112006 Z1.000000 I-69.264395 J5.070254
G02 X216.902039 Y196.994629 Z1.000000 I20.592502 J0.191325
G02 X217.409381 Y197.088582 Z1.000000 I0.271532 J-0.049473
G02 X218.227793 Y195.313919 Z1.000000 I-7.317049 J-4.450405
G02 X221.396670 Y185.175396 Z1.000000 I-340.531876 J-112.000481
G02 X223.765858 Y176.372652 Z1.000000 I-173.374355 J-51.382515
G02 X224.072951 Y174.008861 Z1.000000 I-10.695602 J-2.591368
G02 X223.431217 Y173.558823 Z1.000000 I-0.471825 J-0.009759
G02 X221.609100 Y174.904996 Z1.000000 I1.540157 J3.990937
G01 X221.609100 Y174.904996 Z1.000000
G00 Z10.000000

(End cutting path id: path825)


(Start cutting path id: path825)
(Change tool to Default tool)

G00 Z10.000000
G00 X264.608880 Y229.884986

G01 Z1.000000 F100.0(Penetrate)
G03 X256.449179 Y233.594978 Z1.000000 I-14.522005 J-21.111322 F400.000000
G03 X252.082580 Y233.095776 Z1.000000 I-1.529614 J-5.967495
G02 X249.239005 Y232.446427 Z1.000000 I-2.672055 J5.150392
G02 X243.614710 Y233.346206 Z1.000000 I0.654058 J22.116273
G02 X239.077211 Y236.008741 Z1.000000 I3.102888 J10.485627
G02 X237.415100 Y239.401016 Z1.000000 I3.939234 J4.033433
G03 X236.541719 Y243.462655 Z1.000000 I-21.127331 J-2.418321
G03 X235.915100 Y244.089456 Z1.000000 I-0.921804 J-0.294918
G03 X235.095281 Y243.895117 Z1.000000 I-0.248796 J-0.776827
G03 X232.424030 Y240.667116 Z1.000000 I14.122083 J-14.405637
G02 X229.806993 Y237.045839 Z1.000000 I-48.286194 J32.139345
G02 X228.924030 Y236.197336 Z1.000000 I-3.430682 J2.686349
G02 X226.369536 Y235.822345 Z1.000000 I-1.638490 J2.273347
G02 X222.126140 Y238.548586 Z1.000000 I3.495616 J10.106474
G03 X220.165575 Y240.023714 Z1.000000 I-5.434667 J-5.182675
G03 X218.531130 Y240.424506 Z1.000000 I-1.634445 J-3.132267
G02 X213.622927 Y243.583128 Z1.000000 I0.000000 J5.392756
G02 X213.361130 Y251.782556 Z1.000000 I9.696030 J4.413475
G02 X215.267100 Y255.507667 Z1.000000 I17.878024 J-6.797216
G02 X217.288756 Y257.299651 Z1.000000 I4.338522 J-2.858202
G02 X220.042188 Y258.093808 Z1.000000 I3.541283 J-7.107716
G02 X226.692200 Y258.424506 Z1.000000 I6.650012 J-66.697326
G02 X235.380195 Y257.750395 Z1.000000 I-0.000000 J-56.322809
G02 X240.219960 Y256.312526 Z1.000000 I-2.916480 J-18.680756
G02 X244.913961 Y254.198015 Z1.000000 I-1958.508160 J-4353.960088
G02 X250.165100 Y251.826076 Z1.000000 I-2457.473648 J-5447.496214
G02 X255.006532 Y249.187987 Z1.000000 I-15.330218 J-33.895634
G02 X255.415100 Y248.438066 Z1.000000 I-0.483952 J-0.749921
G03 X255.690544 Y247.699950 Z1.000000 I1.126698 J-0.000000
G03 X256.293950 Y247.424506 Z1.000000 I0.603406 J0.523208
G02 X261.008970 Y246.099182 Z1.000000 I-0.000000 J-9.049828
G02 X269.805280 Y239.177176 Z1.000000 I-24.625939 J-40.344083
G02 X270.958380 Y237.378187 Z1.000000 I-3.534555 J-3.534595
G02 X271.415100 Y234.829266 Z1.000000 I-6.884317 J-2.548921
G03 X271.761775 Y232.928124 Z1.000000 I5.386195 J-0.000000
G03 X272.165100 Y232.841176 Z1.000000 I0.229716 J0.086660
G03 X272.748163 Y233.876131 Z1.000000 I-1.561270 J1.561290
G03 X273.290100 Y237.424506 Z1.000000 I-19.580074 J4.806004
G02 X273.871743 Y238.938419 Z1.000000 I2.699941 J-0.168624
G02 X274.878600 Y239.424506 Z1.000000 I1.006857 J-0.799733
G02 X275.712326 Y238.807239 Z1.000000 I0.000000 J-0.871679
G02 X276.251780 Y234.924506 Z1.000000 I-11.905436 J-3.632944
G02 X275.802283 Y230.790962 Z1.000000 I-23.586070 J0.473627
G02 X275.355660 Y230.424506 Z1.000000 I-0.446623 J0.088936
G03 X274.769532 Y230.124339 Z1.000000 I-0.000000 J-0.722342
G03 X273.915100 Y228.424506 Z1.000000 I4.892239 J-3.523774
G02 X271.705461 Y227.057879 Z1.000000 I-1.900504 J0.603194
G02 X264.608880 Y229.884986 Z1.000000 I2.672413 J17.028714
G01 X264.608880 Y229.884986 Z1.000000
G00 Z10.000000

(End cutting path id: path825)


(Start cutting path id: path825)
(Change tool to Default tool)

G00 Z10.000000
G00 X170.070090 Y249.253246

G01 Z1.000000 F100.0(Penetrate)
G02 X168.671720 Y251.180866 Z1.000000 I8.192676 J7.414306 F400.000000
G02 X168.415100 Y252.146256 Z1.000000 I1.687557 J0.965389
G03 X167.609572 Y253.618983 Z1.000000 I-1.749040 J0.000000
G03 X164.858990 Y254.424506 Z1.000000 I-2.750582 J-4.293383
G03 X164.564072 Y254.264143 Z1.000000 I0.000000 J-0.351369
G03 X162.911420 Y251.417386 Z1.000000 I28.354418 J-18.363920
G02 X160.805943 Y249.493554 Z1.000000 I-3.661967 J1.893672
G02 X157.135740 Y249.062496 Z1.000000 I-2.613154 J6.409116
G02 X149.743491 Y251.549003 Z1.000000 I3.496567 J22.626730
G02 X148.415100 Y253.777306 Z1.000000 I1.204732 J2.228303
G03 X147.970322 Y255.970745 Z1.000000 I-5.630902 J-0.000000
G03 X146.849520 Y257.478926 Z1.000000 I-3.655638 J-1.546130
G03 X145.221012 Y257.989125 Z1.000000 I-1.436408 J-1.730757
G03 X142.445230 Y257.101376 Z1.000000 I0.560205 J-6.535109
G02 X135.105010 Y254.728127 Z1.000000 I-8.955442 J15.160380
G02 X133.415100 Y256.269516 Z1.000000 I-0.141995 J1.541389
G02 X136.080301 Y259.867433 Z1.000000 I3.761124 J0.000000
G02 X158.541480 Y263.922996 Z1.000000 I28.477431 J-93.491483
G02 X169.003131 Y263.690970 Z1.000000 I3.849222 J-62.410148
G02 X174.259490 Y262.251446 Z1.000000 I-1.793614 J-16.865748
G02 X179.050954 Y259.638367 Z1.000000 I-16.079034 J-35.182734
G02 X179.855060 Y258.665826 Z1.000000 I-1.115763 J-1.741215
G02 X180.000408 Y257.297756 Z1.000000 I-2.351934 J-0.941634
G02 X179.353484 Y254.816938 Z1.000000 I-14.717796 J2.513213
G02 X178.339689 Y252.806928 Z1.000000 I-8.435238 J2.993833
G02 X177.755640 Y252.750636 Z1.000000 I-0.315222 J0.212536
G03 X175.120910 Y252.811411 Z1.000000 I-1.349188 J-1.349198
G03 X174.121930 Y249.437596 Z1.000000 I2.291519 J-2.513320
G02 X173.066467 Y248.004433 Z1.000000 I-1.107491 J-0.289614
G02 X170.070090 Y249.253246 Z1.000000 I-0.173066 J3.803879
G01 X170.070090 Y249.253246 Z1.000000
G00 Z10.000000

(End cutting path id: path825)


(Start cutting path id: path825)
(Change tool to Default tool)

G00 Z10.000000
G00 X257.915100 Y354.424506

G01 Z1.000000 F100.0(Penetrate)
G02 X257.867900 Y355.106244 Z1.000000 I0.624093 J0.385712 F400.000000
G02 X258.356080 Y355.424506 Z1.000000 I0.488180 J-0.215277
G02 X259.113862 Y355.123269 Z1.000000 I-0.000000 J-1.103744
G02 X259.415100 Y354.424506 Z1.000000 I-0.659820 J-0.698763
G02 X259.241068 Y353.598539 Z1.000000 I-2.047063 J0.000000
G02 X258.974120 Y353.424506 Z1.000000 I-0.266948 J0.117718
G02 X258.613143 Y353.568003 Z1.000000 I0.000000 J0.525780
G02 X257.915100 Y354.424506 Z1.000000 I2.920547 J3.092923
G01 X257.915100 Y354.424506 Z1.000000
G00 Z10.000000

(End cutting path id: path825)


(Footer)
M5
G00 X0.0000 Y0.0000
M2
(Using default footer. To add your own footer create file "footer" in the output dir.)
(end)
%