%
(Header)
(Generated by gcodetools from Inkscape.)
(Using default header. To add your own header create file "header" in the output dir.)
M3
(Header end.)
G21 (All units in mm)

(Start cutting path id: path815)
(Change tool to Default tool)

G00 Z10.000000
G00 X89.951782 Y65.687171

G01 Z1.000000 F100.0(Penetrate)
G01 X70.298823 Y46.532837 Z1.000000 F400.000000
G01 X74.936142 Y19.484315 Z1.000000
G01 X50.646189 Y32.256374 Z1.000000
G01 X26.354525 Y19.487570 Z1.000000
G01 X30.995469 Y46.535475 Z1.000000
G01 X11.345077 Y65.692443 Z1.000000
G01 X38.503285 Y69.636899 Z1.000000
G01 X50.650339 Y94.245361 Z1.000000
G01 X62.794098 Y69.635275 Z1.000000
G01 X89.951782 Y65.687171 Z1.000000
G00 Z10.000000

(End cutting path id: path815)


(Footer)
M5
G00 X0.0000 Y0.0000
M2
(Using default footer. To add your own footer create file "footer" in the output dir.)
(end)
%