(www.thuijzer.nl/image2gcode)
(2021-07-27 10:22:52)
(bit size: 1mm)
(x size: 40mm)
(max z: 10mm)

G21 (Programming in millimeters)
G90 (Absolute programming)
G92 X0 Y0 Z10 (Tell the machine it is at 0, 0, 10)
G00 X0 Y-0.5 Z10 (Starting position)

G01 X0.611111 Y-0.5 Z10 F1000
G01 X39.5 Y-0.5 Z10 F1000
G01 X39.5 Y-0.611111 Z10 F1000
G01 X39.5 Y-0.722222 Z10 F1000
G01 X39.5 Y-0.833333 Z10 F1000
G01 X39.5 Y-0.944444 Z10 F1000
G01 X39.5 Y-1.055556 Z10 F1000
G01 X0.388889 Y-1.055556 Z10 F1000
G01 X0.388889 Y-1.166667 Z10 F1000
G01 X0.388889 Y-1.277778 Z10 F1000
G01 X0.388889 Y-1.388889 Z10 F1000
G01 X0.388889 Y-1.5 Z10 F1000
G01 X0.388889 Y-1.611111 Z10 F1000
G01 X39.5 Y-1.611111 Z10 F1000
G01 X39.5 Y-1.722222 Z10 F1000
G01 X39.5 Y-1.833333 Z10 F1000
G01 X39.5 Y-1.944444 Z10 F1000
G01 X39.5 Y-2.055556 Z10 F1000
G01 X39.5 Y-2.166667 Z10 F1000
G01 X0.388889 Y-2.166667 Z10 F1000
G01 X0.388889 Y-2.277778 Z10 F1000
G01 X0.388889 Y-2.388889 Z10 F1000
G01 X0.388889 Y-2.5 Z10 F1000
G01 X0.388889 Y-2.611111 Z10 F1000
G01 X0.388889 Y-2.722222 Z10 F1000
G01 X22.277778 Y-2.722222 Z10 F1000
G01 X22.388889 Y-2.722222 Z9.960784 F1000
G01 X22.5 Y-2.722222 Z9.960784 F1000
G01 X22.611111 Y-2.722222 Z9.921569 F1000
G01 X22.944444 Y-2.722222 Z9.921569 F1000
G01 X23.055556 Y-2.722222 Z9.960784 F1000
G01 X23.388889 Y-2.722222 Z9.960784 F1000
G01 X23.5 Y-2.722222 Z10 F1000
G01 X39.5 Y-2.722222 Z10 F1000
G01 X39.5 Y-2.833333 Z10 F1000
G01 X39.5 Y-2.944444 Z10 F1000
G01 X39.5 Y-3.055556 Z10 F1000
G01 X39.5 Y-3.166667 Z10 F1000
G01 X39.5 Y-3.277778 Z10 F1000
G01 X25.277778 Y-3.277778 Z10 F1000
G01 X25.166667 Y-3.277778 Z9.960784 F1000
G01 X24.833333 Y-3.277778 Z9.960784 F1000
G01 X24.722222 Y-3.277778 Z9.921569 F1000
G01 X24.5 Y-3.277778 Z9.921569 F1000
G01 X24.388889 Y-3.277778 Z9.882353 F1000
G01 X24.277778 Y-3.277778 Z9.843137 F1000
G01 X24.166667 Y-3.277778 Z9.803922 F1000
G01 X24.055556 Y-3.277778 Z8.784314 F1000
G01 X23.944444 Y-3.277778 Z5.803922 F1000
G01 X23.833333 Y-3.277778 Z4.470588 F1000
G01 X23.055556 Y-3.277778 Z4.470588 F1000
G01 X22.944444 Y-3.277778 Z4.352941 F1000
G01 X22.722222 Y-3.277778 Z4.352941 F1000
G01 X22.611111 Y-3.277778 Z4.588235 F1000
G01 X21.833333 Y-3.277778 Z4.588235 F1000
G01 X21.722222 Y-3.277778 Z5.803922 F1000
G01 X21.611111 Y-3.277778 Z9.490196 F1000
G01 X21.5 Y-3.277778 Z9.882353 F1000
G01 X21.388889 Y-3.277778 Z9.882353 F1000
G01 X21.277778 Y-3.277778 Z9.960784 F1000
G01 X21.055556 Y-3.277778 Z9.960784 F1000
G01 X20.944444 Y-3.277778 Z10 F1000
G01 X0.388889 Y-3.277778 Z10 F1000
G01 X0.388889 Y-3.388889 Z10 F1000
G01 X0.388889 Y-3.5 Z10 F1000
G01 X0.388889 Y-3.611111 Z10 F1000
G01 X0.388889 Y-3.722222 Z10 F1000
G01 X0.388889 Y-3.833333 Z10 F1000
G01 X20.611111 Y-3.833333 Z10 F1000
G01 X20.722222 Y-3.833333 Z9.960784 F1000
G01 X20.833333 Y-3.833333 Z9.45098 F1000
G01 X20.944444 Y-3.833333 Z6.823529 F1000
G01 X21.055556 Y-3.833333 Z4.470588 F1000
G01 X21.833333 Y-3.833333 Z4.470588 F1000
G01 X21.944444 Y-3.833333 Z4.431373 F1000
G01 X22.611111 Y-3.833333 Z4.431373 F1000
G01 X22.722222 Y-3.833333 Z4.313725 F1000
G01 X22.833333 Y-3.833333 Z4.352941 F1000
G01 X22.944444 Y-3.833333 Z4.352941 F1000
G01 X23.055556 Y-3.833333 Z4.588235 F1000
G01 X23.944444 Y-3.833333 Z4.588235 F1000
G01 X24.055556 Y-3.833333 Z4.392157 F1000
G01 X24.166667 Y-3.833333 Z4.392157 F1000
G01 X24.277778 Y-3.833333 Z3.568627 F1000
G01 X24.388889 Y-3.833333 Z3.843137 F1000
G01 X24.5 Y-3.833333 Z4.156863 F1000
G01 X24.611111 Y-3.833333 Z5.803922 F1000
G01 X24.722222 Y-3.833333 Z9.45098 F1000
G01 X24.833333 Y-3.833333 Z9.882353 F1000
G01 X24.944444 Y-3.833333 Z9.921569 F1000
G01 X25.055556 Y-3.833333 Z9.921569 F1000
G01 X25.166667 Y-3.833333 Z9.960784 F1000
G01 X25.277778 Y-3.833333 Z9.960784 F1000
G01 X25.388889 Y-3.833333 Z10 F1000
G01 X39.5 Y-3.833333 Z10 F1000
G01 X39.5 Y-3.944444 Z10 F1000
G01 X39.5 Y-4.055556 Z10 F1000
G01 X39.5 Y-4.166667 Z10 F1000
G01 X39.5 Y-4.277778 Z10 F1000
G01 X39.5 Y-4.388889 Z10 F1000
G01 X25.5 Y-4.388889 Z10 F1000
G01 X25.388889 Y-4.388889 Z9.960784 F1000
G01 X25.277778 Y-4.388889 Z9.960784 F1000
G01 X25.166667 Y-4.388889 Z9.882353 F1000
G01 X25.055556 Y-4.388889 Z8.352941 F1000
G01 X24.944444 Y-4.388889 Z4.666667 F1000
G01 X24.722222 Y-4.388889 Z4.666667 F1000
G01 X24.611111 Y-4.388889 Z4.509804 F1000
G01 X24.5 Y-4.388889 Z3.176471 F1000
G01 X24.388889 Y-4.388889 Z3.058824 F1000
G01 X24.277778 Y-4.388889 Z3.019608 F1000
G01 X24.166667 Y-4.388889 Z3.019608 F1000
G01 X24.055556 Y-4.388889 Z3.45098 F1000
G01 X23.944444 Y-4.388889 Z4.156863 F1000
G01 X23.833333 Y-4.388889 Z4.313725 F1000
G01 X23.277778 Y-4.388889 Z4.313725 F1000
G01 X23.166667 Y-4.388889 Z4.352941 F1000
G01 X23.055556 Y-4.388889 Z4.470588 F1000
G01 X22.944444 Y-4.388889 Z4.54902 F1000
G01 X22.055556 Y-4.388889 Z4.54902 F1000
G01 X21.944444 Y-4.388889 Z4.431373 F1000
G01 X21.833333 Y-4.388889 Z4.431373 F1000
G01 X21.722222 Y-4.388889 Z4.392157 F1000
G01 X21.055556 Y-4.388889 Z4.392157 F1000
G01 X20.944444 Y-4.388889 Z4.431373 F1000
G01 X20.833333 Y-4.388889 Z4.54902 F1000
G01 X20.722222 Y-4.388889 Z4.54902 F1000
G01 X20.611111 Y-4.388889 Z4.627451 F1000
G01 X20.5 Y-4.388889 Z4.627451 F1000
G01 X20.388889 Y-4.388889 Z6.705882 F1000
G01 X20.277778 Y-4.388889 Z9.843137 F1000
G01 X20.166667 Y-4.388889 Z9.882353 F1000
G01 X20.055556 Y-4.388889 Z9.882353 F1000
G01 X19.944444 Y-4.388889 Z10 F1000
G01 X0.388889 Y-4.388889 Z10 F1000
G01 X0.388889 Y-4.5 Z10 F1000
G01 X0.388889 Y-4.611111 Z10 F1000
G01 X0.388889 Y-4.722222 Z10 F1000
G01 X0.388889 Y-4.833333 Z10 F1000
G01 X0.388889 Y-4.944444 Z10 F1000
G01 X19.388889 Y-4.944444 Z10 F1000
G01 X19.5 Y-4.944444 Z9.960784 F1000
G01 X19.611111 Y-4.944444 Z9.921569 F1000
G01 X19.722222 Y-4.944444 Z9.921569 F1000
G01 X19.833333 Y-4.944444 Z9.764706 F1000
G01 X19.944444 Y-4.944444 Z5.019608 F1000
G01 X20.055556 Y-4.944444 Z4.431373 F1000
G01 X20.277778 Y-4.944444 Z4.431373 F1000
G01 X20.388889 Y-4.944444 Z4.392157 F1000
G01 X20.5 Y-4.944444 Z4.431373 F1000
G01 X20.833333 Y-4.944444 Z4.431373 F1000
G01 X20.944444 Y-4.944444 Z4.470588 F1000
G01 X21.944444 Y-4.944444 Z4.470588 F1000
G01 X22.055556 Y-4.944444 Z4.54902 F1000
G01 X22.944444 Y-4.944444 Z4.54902 F1000
G01 X23.055556 Y-4.944444 Z4.470588 F1000
G01 X23.166667 Y-4.944444 Z4.352941 F1000
G01 X23.277778 Y-4.944444 Z4.235294 F1000
G01 X23.388889 Y-4.944444 Z3.686275 F1000
G01 X23.5 Y-4.944444 Z3.176471 F1000
G01 X23.611111 Y-4.944444 Z3.019608 F1000
G01 X23.833333 Y-4.944444 Z3.019608 F1000
G01 X23.944444 Y-4.944444 Z3.058824 F1000
G01 X24.055556 Y-4.944444 Z3.098039 F1000
G01 X24.388889 Y-4.944444 Z3.098039 F1000
G01 X24.5 Y-4.944444 Z3.176471 F1000
G01 X24.611111 Y-4.944444 Z3.176471 F1000
G01 X24.722222 Y-4.944444 Z3.372549 F1000
G01 X24.833333 Y-4.944444 Z4.352941 F1000
G01 X24.944444 Y-4.944444 Z4.745098 F1000
G01 X25.166667 Y-4.944444 Z4.745098 F1000
G01 X25.277778 Y-4.944444 Z8.156863 F1000
G01 X25.388889 Y-4.944444 Z9.882353 F1000
G01 X25.5 Y-4.944444 Z10 F1000
G01 X39.5 Y-4.944444 Z10 F1000
G01 X39.5 Y-5.055556 Z10 F1000
G01 X39.5 Y-5.166667 Z10 F1000
G01 X39.5 Y-5.277778 Z10 F1000
G01 X39.5 Y-5.388889 Z10 F1000
G01 X39.5 Y-5.5 Z10 F1000
G01 X25.611111 Y-5.5 Z10 F1000
G01 X25.5 Y-5.5 Z9.921569 F1000
G01 X25.388889 Y-5.5 Z9.843137 F1000
G01 X25.277778 Y-5.5 Z6.666667 F1000
G01 X25.166667 Y-5.5 Z4.745098 F1000
G01 X24.944444 Y-5.5 Z4.745098 F1000
G01 X24.833333 Y-5.5 Z4.627451 F1000
G01 X24.722222 Y-5.5 Z3.72549 F1000
G01 X24.611111 Y-5.5 Z3.411765 F1000
G01 X24.5 Y-5.5 Z3.411765 F1000
G01 X24.388889 Y-5.5 Z3.215686 F1000
G01 X24.277778 Y-5.5 Z3.176471 F1000
G01 X24.166667 Y-5.5 Z3.176471 F1000
G01 X24.055556 Y-5.5 Z3.137255 F1000
G01 X23.611111 Y-5.5 Z3.137255 F1000
G01 X23.5 Y-5.5 Z3.058824 F1000
G01 X23.277778 Y-5.5 Z3.058824 F1000
G01 X23.166667 Y-5.5 Z3.019608 F1000
G01 X22.611111 Y-5.5 Z3.019608 F1000
G01 X22.5 Y-5.5 Z3.333333 F1000
G01 X22.388889 Y-5.5 Z3.803922 F1000
G01 X22.277778 Y-5.5 Z4.235294 F1000
G01 X22.166667 Y-5.5 Z4.470588 F1000
G01 X21.055556 Y-5.5 Z4.470588 F1000
G01 X20.944444 Y-5.5 Z4.54902 F1000
G01 X19.944444 Y-5.5 Z4.54902 F1000
G01 X19.833333 Y-5.5 Z4.666667 F1000
G01 X19.611111 Y-5.5 Z4.666667 F1000
G01 X19.5 Y-5.5 Z5.411765 F1000
G01 X19.388889 Y-5.5 Z9.647059 F1000
G01 X19.277778 Y-5.5 Z9.882353 F1000
G01 X19.166667 Y-5.5 Z9.921569 F1000
G01 X19.055556 Y-5.5 Z9.960784 F1000
G01 X18.611111 Y-5.5 Z9.960784 F1000
G01 X18.5 Y-5.5 Z10 F1000
G01 X0.388889 Y-5.5 Z10 F1000
G01 X0.388889 Y-5.611111 Z10 F1000
G01 X0.388889 Y-5.722222 Z10 F1000
G01 X0.388889 Y-5.833333 Z10 F1000
G01 X0.388889 Y-5.944444 Z10 F1000
G01 X0.388889 Y-6.055556 Z10 F1000
G01 X16.5 Y-6.055556 Z10 F1000
G01 X16.611111 Y-6.055556 Z9.960784 F1000
G01 X16.944444 Y-6.055556 Z9.960784 F1000
G01 X17.055556 Y-6.055556 Z9.921569 F1000
G01 X17.277778 Y-6.055556 Z9.921569 F1000
G01 X17.388889 Y-6.055556 Z9.882353 F1000
G01 X17.5 Y-6.055556 Z9.843137 F1000
G01 X17.611111 Y-6.055556 Z9.333333 F1000
G01 X17.722222 Y-6.055556 Z8 F1000
G01 X17.833333 Y-6.055556 Z6.156863 F1000
G01 X17.944444 Y-6.055556 Z4.705882 F1000
G01 X18.944444 Y-6.055556 Z4.705882 F1000
G01 X19.055556 Y-6.055556 Z4.509804 F1000
G01 X19.166667 Y-6.055556 Z4.470588 F1000
G01 X20.055556 Y-6.055556 Z4.470588 F1000
G01 X20.166667 Y-6.055556 Z4.431373 F1000
G01 X20.944444 Y-6.055556 Z4.431373 F1000
G01 X21.055556 Y-6.055556 Z4.078431 F1000
G01 X21.166667 Y-6.055556 Z3.568627 F1000
G01 X21.277778 Y-6.055556 Z3.45098 F1000
G01 X21.722222 Y-6.055556 Z3.45098 F1000
G01 X21.833333 Y-6.055556 Z3.411765 F1000
G01 X21.944444 Y-6.055556 Z3.372549 F1000
G01 X22.388889 Y-6.055556 Z3.372549 F1000
G01 X22.5 Y-6.055556 Z3.333333 F1000
G01 X22.611111 Y-6.055556 Z3.254902 F1000
G01 X22.722222 Y-6.055556 Z3.176471 F1000
G01 X22.833333 Y-6.055556 Z3.215686 F1000
G01 X22.944444 Y-6.055556 Z3.372549 F1000
G01 X23.833333 Y-6.055556 Z3.372549 F1000
G01 X23.944444 Y-6.055556 Z3.333333 F1000
G01 X24.388889 Y-6.055556 Z3.333333 F1000
G01 X24.5 Y-6.055556 Z4.039216 F1000
G01 X24.611111 Y-6.055556 Z4.196078 F1000
G01 X24.722222 Y-6.055556 Z4.352941 F1000
G01 X24.833333 Y-6.055556 Z4.627451 F1000
G01 X25.055556 Y-6.055556 Z4.627451 F1000
G01 X25.166667 Y-6.055556 Z9.921569 F1000
G01 X25.5 Y-6.055556 Z9.921569 F1000
G01 X25.611111 Y-6.055556 Z10 F1000
G01 X39.5 Y-6.055556 Z10 F1000
G01 X39.5 Y-6.166667 Z10 F1000
G01 X39.5 Y-6.277778 Z10 F1000
G01 X39.5 Y-6.388889 Z10 F1000
G01 X39.5 Y-6.5 Z10 F1000
G01 X39.5 Y-6.611111 Z10 F1000
G01 X25.055556 Y-6.611111 Z10 F1000
G01 X24.944444 Y-6.611111 Z9.960784 F1000
G01 X24.833333 Y-6.611111 Z8.941176 F1000
G01 X24.722222 Y-6.611111 Z4.705882 F1000
G01 X24.5 Y-6.611111 Z4.705882 F1000
G01 X24.388889 Y-6.611111 Z4.352941 F1000
G01 X24.277778 Y-6.611111 Z4.196078 F1000
G01 X24.166667 Y-6.611111 Z4 F1000
G01 X23.722222 Y-6.611111 Z4 F1000
G01 X23.611111 Y-6.611111 Z4.078431 F1000
G01 X23.388889 Y-6.611111 Z4.078431 F1000
G01 X23.277778 Y-6.611111 Z4.117647 F1000
G01 X23.166667 Y-6.611111 Z4.196078 F1000
G01 X22.722222 Y-6.611111 Z4.196078 F1000
G01 X22.611111 Y-6.611111 Z4.352941 F1000
G01 X22.5 Y-6.611111 Z4.392157 F1000
G01 X22.388889 Y-6.611111 Z4.431373 F1000
G01 X21.5 Y-6.611111 Z4.431373 F1000
G01 X21.388889 Y-6.611111 Z4.352941 F1000
G01 X20.944444 Y-6.611111 Z4.352941 F1000
G01 X20.833333 Y-6.611111 Z4.196078 F1000
G01 X20.5 Y-6.611111 Z4.196078 F1000
G01 X20.388889 Y-6.611111 Z4.352941 F1000
G01 X19.5 Y-6.611111 Z4.352941 F1000
G01 X19.388889 Y-6.611111 Z4.313725 F1000
G01 X19.277778 Y-6.611111 Z4.431373 F1000
G01 X19.166667 Y-6.611111 Z4.431373 F1000
G01 X19.055556 Y-6.611111 Z4.509804 F1000
G01 X18.944444 Y-6.611111 Z4.705882 F1000
G01 X18.055556 Y-6.611111 Z4.705882 F1000
G01 X17.944444 Y-6.611111 Z4.588235 F1000
G01 X17.388889 Y-6.611111 Z4.588235 F1000
G01 X17.277778 Y-6.611111 Z4.470588 F1000
G01 X17.166667 Y-6.611111 Z4.470588 F1000
G01 X17.055556 Y-6.611111 Z4.431373 F1000
G01 X16.944444 Y-6.611111 Z4.431373 F1000
G01 X16.833333 Y-6.611111 Z4.627451 F1000
G01 X16.611111 Y-6.611111 Z4.627451 F1000
G01 X16.5 Y-6.611111 Z4.941176 F1000
G01 X16.388889 Y-6.611111 Z9.686275 F1000
G01 X16.277778 Y-6.611111 Z9.803922 F1000
G01 X16.166667 Y-6.611111 Z9.882353 F1000
G01 X16.055556 Y-6.611111 Z9.921569 F1000
G01 X15.944444 Y-6.611111 Z10 F1000
G01 X0.388889 Y-6.611111 Z10 F1000
G01 X0.388889 Y-6.722222 Z10 F1000
G01 X0.388889 Y-6.833333 Z10 F1000
G01 X0.388889 Y-6.944444 Z10 F1000
G01 X0.388889 Y-7.055556 Z10 F1000
G01 X0.388889 Y-7.166667 Z10 F1000
G01 X15.611111 Y-7.166667 Z10 F1000
G01 X15.722222 Y-7.166667 Z9.921569 F1000
G01 X15.833333 Y-7.166667 Z9.882353 F1000
G01 X15.944444 Y-7.166667 Z8.666667 F1000
G01 X16.055556 Y-7.166667 Z4.784314 F1000
G01 X16.277778 Y-7.166667 Z4.784314 F1000
G01 X16.388889 Y-7.166667 Z4.588235 F1000
G01 X16.5 Y-7.166667 Z4.588235 F1000
G01 X16.611111 Y-7.166667 Z4.431373 F1000
G01 X16.722222 Y-7.166667 Z4.431373 F1000
G01 X16.833333 Y-7.166667 Z4.666667 F1000
G01 X17.722222 Y-7.166667 Z4.666667 F1000
G01 X17.833333 Y-7.166667 Z4.588235 F1000
G01 X18.277778 Y-7.166667 Z4.588235 F1000
G01 X18.388889 Y-7.166667 Z4.470588 F1000
G01 X18.5 Y-7.166667 Z4.666667 F1000
G01 X19.388889 Y-7.166667 Z4.666667 F1000
G01 X19.5 Y-7.166667 Z4.352941 F1000
G01 X20.166667 Y-7.166667 Z4.352941 F1000
G01 X20.277778 Y-7.166667 Z5.058824 F1000
G01 X20.388889 Y-7.166667 Z6.627451 F1000
G01 X20.611111 Y-7.166667 Z6.627451 F1000
G01 X20.722222 Y-7.166667 Z8.352941 F1000
G01 X20.833333 Y-7.166667 Z9.333333 F1000
G01 X20.944444 Y-7.166667 Z9.803922 F1000
G01 X21.055556 Y-7.166667 Z9.882353 F1000
G01 X21.166667 Y-7.166667 Z9.921569 F1000
G01 X21.388889 Y-7.166667 Z9.921569 F1000
G01 X21.5 Y-7.166667 Z9.960784 F1000
G01 X22.388889 Y-7.166667 Z9.960784 F1000
G01 X22.5 Y-7.166667 Z9.921569 F1000
G01 X22.611111 Y-7.166667 Z9.921569 F1000
G01 X22.722222 Y-7.166667 Z9.882353 F1000
G01 X22.833333 Y-7.166667 Z9.843137 F1000
G01 X22.944444 Y-7.166667 Z8.392157 F1000
G01 X23.055556 Y-7.166667 Z6.705882 F1000
G01 X23.166667 Y-7.166667 Z6.666667 F1000
G01 X23.277778 Y-7.166667 Z5.529412 F1000
G01 X23.388889 Y-7.166667 Z4.078431 F1000
G01 X23.722222 Y-7.166667 Z4.078431 F1000
G01 X23.833333 Y-7.166667 Z4.313725 F1000
G01 X23.944444 Y-7.166667 Z4.509804 F1000
G01 X24.055556 Y-7.166667 Z4.901961 F1000
G01 X24.277778 Y-7.166667 Z4.901961 F1000
G01 X24.388889 Y-7.166667 Z8.117647 F1000
G01 X24.5 Y-7.166667 Z9.960784 F1000
G01 X24.722222 Y-7.166667 Z9.960784 F1000
G01 X24.833333 Y-7.166667 Z10 F1000
G01 X39.5 Y-7.166667 Z10 F1000
G01 X39.5 Y-7.277778 Z10 F1000
G01 X39.5 Y-7.388889 Z10 F1000
G01 X39.5 Y-7.5 Z10 F1000
G01 X39.5 Y-7.611111 Z10 F1000
G01 X39.5 Y-7.722222 Z10 F1000
G01 X24.5 Y-7.722222 Z10 F1000
G01 X24.388889 Y-7.722222 Z9.960784 F1000
G01 X24.277778 Y-7.722222 Z9.960784 F1000
G01 X24.166667 Y-7.722222 Z9.843137 F1000
G01 X24.055556 Y-7.722222 Z9.843137 F1000
G01 X23.944444 Y-7.722222 Z9.803922 F1000
G01 X23.833333 Y-7.722222 Z9.72549 F1000
G01 X23.722222 Y-7.722222 Z7.490196 F1000
G01 X23.611111 Y-7.722222 Z3.764706 F1000
G01 X23.5 Y-7.722222 Z6.156863 F1000
G01 X23.388889 Y-7.722222 Z6.784314 F1000
G01 X23.277778 Y-7.722222 Z9.568627 F1000
G01 X23.166667 Y-7.722222 Z9.882353 F1000
G01 X23.055556 Y-7.722222 Z9.882353 F1000
G01 X22.944444 Y-7.722222 Z9.921569 F1000
G01 X22.833333 Y-7.722222 Z10 F1000
G01 X21.277778 Y-7.722222 Z10 F1000
G01 X21.166667 Y-7.722222 Z9.960784 F1000
G01 X20.388889 Y-7.722222 Z9.960784 F1000
G01 X20.277778 Y-7.722222 Z9.882353 F1000
G01 X20.166667 Y-7.722222 Z9.843137 F1000
G01 X20.055556 Y-7.722222 Z9.843137 F1000
G01 X19.944444 Y-7.722222 Z9.215686 F1000
G01 X19.611111 Y-7.722222 Z9.215686 F1000
G01 X19.5 Y-7.722222 Z8.313725 F1000
G01 X19.388889 Y-7.722222 Z7.019608 F1000
G01 X19.277778 Y-7.722222 Z6.941176 F1000
G01 X19.166667 Y-7.722222 Z6.078431 F1000
G01 X19.055556 Y-7.722222 Z6.078431 F1000
G01 X18.944444 Y-7.722222 Z5.294118 F1000
G01 X18.833333 Y-7.722222 Z4.666667 F1000
G01 X18.5 Y-7.722222 Z4.666667 F1000
G01 X18.388889 Y-7.722222 Z4.431373 F1000
G01 X18.277778 Y-7.722222 Z4.431373 F1000
G01 X18.166667 Y-7.722222 Z4.27451 F1000
G01 X18.055556 Y-7.722222 Z4.352941 F1000
G01 X17.944444 Y-7.722222 Z4.54902 F1000
G01 X17.833333 Y-7.722222 Z4.54902 F1000
G01 X17.722222 Y-7.722222 Z4.666667 F1000
G01 X16.833333 Y-7.722222 Z4.666667 F1000
G01 X16.722222 Y-7.722222 Z4.54902 F1000
G01 X16.611111 Y-7.722222 Z4.54902 F1000
G01 X16.5 Y-7.722222 Z4.509804 F1000
G01 X16.388889 Y-7.722222 Z4.54902 F1000
G01 X16.277778 Y-7.722222 Z4.54902 F1000
G01 X16.166667 Y-7.722222 Z4.705882 F1000
G01 X15.944444 Y-7.722222 Z4.705882 F1000
G01 X15.833333 Y-7.722222 Z4.941176 F1000
G01 X15.722222 Y-7.722222 Z9.921569 F1000
G01 X15.611111 Y-7.722222 Z9.960784 F1000
G01 X15.5 Y-7.722222 Z10 F1000
G01 X0.388889 Y-7.722222 Z10 F1000
G01 X0.388889 Y-7.833333 Z10 F1000
G01 X0.388889 Y-7.944444 Z10 F1000
G01 X0.388889 Y-8.055556 Z10 F1000
G01 X0.388889 Y-8.166667 Z10 F1000
G01 X0.388889 Y-8.277778 Z10 F1000
G01 X14.611111 Y-8.277778 Z10 F1000
G01 X14.722222 Y-8.277778 Z9.960784 F1000
G01 X15.166667 Y-8.277778 Z9.960784 F1000
G01 X15.277778 Y-8.277778 Z9.019608 F1000
G01 X15.388889 Y-8.277778 Z4.54902 F1000
G01 X15.5 Y-8.277778 Z4.627451 F1000
G01 X16.388889 Y-8.277778 Z4.627451 F1000
G01 X16.5 Y-8.277778 Z4.509804 F1000
G01 X17.388889 Y-8.277778 Z4.509804 F1000
G01 X17.5 Y-8.277778 Z4.27451 F1000
G01 X17.611111 Y-8.277778 Z3.686275 F1000
G01 X17.833333 Y-8.277778 Z3.686275 F1000
G01 X17.944444 Y-8.277778 Z4.196078 F1000
G01 X18.055556 Y-8.277778 Z6.509804 F1000
G01 X18.277778 Y-8.277778 Z6.509804 F1000
G01 X18.388889 Y-8.277778 Z8.470588 F1000
G01 X18.5 Y-8.277778 Z9.764706 F1000
G01 X18.611111 Y-8.277778 Z9.843137 F1000
G01 X18.722222 Y-8.277778 Z9.882353 F1000
G01 X18.944444 Y-8.277778 Z9.882353 F1000
G01 X19.055556 Y-8.277778 Z9.921569 F1000
G01 X19.277778 Y-8.277778 Z9.921569 F1000
G01 X19.388889 Y-8.277778 Z9.960784 F1000
G01 X21.722222 Y-8.277778 Z9.960784 F1000
G01 X21.833333 Y-8.277778 Z10 F1000
G01 X22.833333 Y-8.277778 Z10 F1000
G01 X22.944444 Y-8.277778 Z9.960784 F1000
G01 X24.388889 Y-8.277778 Z9.960784 F1000
G01 X24.5 Y-8.277778 Z10 F1000
G01 X39.5 Y-8.277778 Z10 F1000
G01 X39.5 Y-8.388889 Z10 F1000
G01 X39.5 Y-8.5 Z10 F1000
G01 X39.5 Y-8.611111 Z10 F1000
G01 X39.5 Y-8.722222 Z10 F1000
G01 X39.5 Y-8.833333 Z10 F1000
G01 X24.944444 Y-8.833333 Z10 F1000
G01 X24.833333 Y-8.833333 Z9.960784 F1000
G01 X24.722222 Y-8.833333 Z9.960784 F1000
G01 X24.611111 Y-8.833333 Z10 F1000
G01 X21.833333 Y-8.833333 Z10 F1000
G01 X21.722222 Y-8.833333 Z9.960784 F1000
G01 X20.611111 Y-8.833333 Z9.960784 F1000
G01 X20.5 Y-8.833333 Z10 F1000
G01 X18.277778 Y-8.833333 Z10 F1000
G01 X18.166667 Y-8.833333 Z9.960784 F1000
G01 X18.055556 Y-8.833333 Z9.960784 F1000
G01 X17.944444 Y-8.833333 Z9.882353 F1000
G01 X17.833333 Y-8.833333 Z9.882353 F1000
G01 X17.722222 Y-8.833333 Z8.470588 F1000
G01 X17.611111 Y-8.833333 Z6.352941 F1000
G01 X17.5 Y-8.833333 Z6.352941 F1000
G01 X17.388889 Y-8.833333 Z5.72549 F1000
G01 X17.277778 Y-8.833333 Z3.607843 F1000
G01 X17.166667 Y-8.833333 Z4.745098 F1000
G01 X16.611111 Y-8.833333 Z4.745098 F1000
G01 X16.5 Y-8.833333 Z8.784314 F1000
G01 X16.388889 Y-8.833333 Z9.960784 F1000
G01 X16.277778 Y-8.833333 Z10 F1000
G01 X15.388889 Y-8.833333 Z10 F1000
G01 X15.277778 Y-8.833333 Z6.823529 F1000
G01 X15.166667 Y-8.833333 Z4.627451 F1000
G01 X15.055556 Y-8.833333 Z4.862745 F1000
G01 X14.833333 Y-8.833333 Z4.862745 F1000
G01 X14.722222 Y-8.833333 Z9.921569 F1000
G01 X14.611111 Y-8.833333 Z9.921569 F1000
G01 X14.5 Y-8.833333 Z10 F1000
G01 X0.388889 Y-8.833333 Z10 F1000
G01 X0.388889 Y-8.944444 Z10 F1000
G01 X0.388889 Y-9.055556 Z10 F1000
G01 X0.388889 Y-9.166667 Z10 F1000
G01 X0.388889 Y-9.277778 Z10 F1000
G01 X0.388889 Y-9.388889 Z10 F1000
G01 X14.277778 Y-9.388889 Z10 F1000
G01 X14.388889 Y-9.388889 Z7.764706 F1000
G01 X14.5 Y-9.388889 Z4 F1000
G01 X14.833333 Y-9.388889 Z4 F1000
G01 X14.944444 Y-9.388889 Z1.960784 F1000
G01 X15.055556 Y-9.388889 Z7.686275 F1000
G01 X15.166667 Y-9.388889 Z10 F1000
G01 X16.722222 Y-9.388889 Z10 F1000
G01 X16.833333 Y-9.388889 Z9.960784 F1000
G01 X16.944444 Y-9.388889 Z9.960784 F1000
G01 X17.055556 Y-9.388889 Z9.921569 F1000
G01 X17.166667 Y-9.388889 Z9.921569 F1000
G01 X17.277778 Y-9.388889 Z9.843137 F1000
G01 X17.388889 Y-9.388889 Z9.843137 F1000
G01 X17.5 Y-9.388889 Z9.882353 F1000
G01 X17.611111 Y-9.388889 Z9.921569 F1000
G01 X17.722222 Y-9.388889 Z9.960784 F1000
G01 X17.833333 Y-9.388889 Z10 F1000
G01 X19.611111 Y-9.388889 Z10 F1000
G01 X19.722222 Y-9.388889 Z9.960784 F1000
G01 X19.944444 Y-9.388889 Z9.960784 F1000
G01 X20.055556 Y-9.388889 Z9.921569 F1000
G01 X20.5 Y-9.388889 Z9.921569 F1000
G01 X20.611111 Y-9.388889 Z9.843137 F1000
G01 X20.722222 Y-9.388889 Z9.803922 F1000
G01 X20.833333 Y-9.388889 Z9.254902 F1000
G01 X20.944444 Y-9.388889 Z8.431373 F1000
G01 X21.388889 Y-9.388889 Z8.431373 F1000
G01 X21.5 Y-9.388889 Z8.235294 F1000
G01 X21.722222 Y-9.388889 Z8.235294 F1000
G01 X21.833333 Y-9.388889 Z8.27451 F1000
G01 X21.944444 Y-9.388889 Z9.72549 F1000
G01 X22.055556 Y-9.388889 Z9.882353 F1000
G01 X22.166667 Y-9.388889 Z10 F1000
G01 X24.833333 Y-9.388889 Z10 F1000
G01 X24.944444 Y-9.388889 Z9.960784 F1000
G01 X25.055556 Y-9.388889 Z9.921569 F1000
G01 X25.166667 Y-9.388889 Z9.960784 F1000
G01 X25.277778 Y-9.388889 Z10 F1000
G01 X39.5 Y-9.388889 Z10 F1000
G01 X39.5 Y-9.5 Z10 F1000
G01 X39.5 Y-9.611111 Z10 F1000
G01 X39.5 Y-9.722222 Z10 F1000
G01 X39.5 Y-9.833333 Z10 F1000
G01 X39.5 Y-9.944444 Z10 F1000
G01 X25.833333 Y-9.944444 Z10 F1000
G01 X25.722222 Y-9.944444 Z9.960784 F1000
G01 X25.611111 Y-9.944444 Z9.960784 F1000
G01 X25.5 Y-9.944444 Z9.921569 F1000
G01 X25.388889 Y-9.944444 Z9.882353 F1000
G01 X25.277778 Y-9.944444 Z9.882353 F1000
G01 X25.166667 Y-9.944444 Z9.921569 F1000
G01 X25.055556 Y-9.944444 Z9.921569 F1000
G01 X24.944444 Y-9.944444 Z9.960784 F1000
G01 X24.833333 Y-9.944444 Z10 F1000
G01 X22.5 Y-9.944444 Z10 F1000
G01 X22.388889 Y-9.944444 Z9.960784 F1000
G01 X22.277778 Y-9.944444 Z9.921569 F1000
G01 X22.166667 Y-9.944444 Z9.882353 F1000
G01 X22.055556 Y-9.944444 Z8.27451 F1000
G01 X21.833333 Y-9.944444 Z8.27451 F1000
G01 X21.722222 Y-9.944444 Z8.078431 F1000
G01 X21.611111 Y-9.944444 Z8.078431 F1000
G01 X21.5 Y-9.944444 Z8.196078 F1000
G01 X20.944444 Y-9.944444 Z8.196078 F1000
G01 X20.833333 Y-9.944444 Z8.235294 F1000
G01 X20.722222 Y-9.944444 Z8.235294 F1000
G01 X20.611111 Y-9.944444 Z8.431373 F1000
G01 X20.388889 Y-9.944444 Z8.431373 F1000
G01 X20.277778 Y-9.944444 Z9.607843 F1000
G01 X20.166667 Y-9.944444 Z9.843137 F1000
G01 X20.055556 Y-9.944444 Z9.882353 F1000
G01 X19.944444 Y-9.944444 Z9.921569 F1000
G01 X19.833333 Y-9.944444 Z9.921569 F1000
G01 X19.722222 Y-9.944444 Z9.960784 F1000
G01 X19.611111 Y-9.944444 Z10 F1000
G01 X17.722222 Y-9.944444 Z10 F1000
G01 X17.611111 Y-9.944444 Z9.960784 F1000
G01 X17.5 Y-9.944444 Z9.921569 F1000
G01 X17.055556 Y-9.944444 Z9.921569 F1000
G01 X16.944444 Y-9.944444 Z9.960784 F1000
G01 X16.833333 Y-9.944444 Z9.960784 F1000
G01 X16.722222 Y-9.944444 Z10 F1000
G01 X15.055556 Y-9.944444 Z10 F1000
G01 X14.944444 Y-9.944444 Z9.843137 F1000
G01 X14.833333 Y-9.944444 Z4.823529 F1000
G01 X14.166667 Y-9.944444 Z4.823529 F1000
G01 X14.055556 Y-9.944444 Z9.921569 F1000
G01 X13.944444 Y-9.944444 Z10 F1000
G01 X0.388889 Y-9.944444 Z10 F1000
G01 X0.388889 Y-10.055556 Z10 F1000
G01 X0.388889 Y-10.166667 Z10 F1000
G01 X0.388889 Y-10.277778 Z10 F1000
G01 X0.388889 Y-10.388889 Z10 F1000
G01 X0.388889 Y-10.5 Z10 F1000
G01 X16.944444 Y-10.5 Z10 F1000
G01 X17.055556 Y-10.5 Z9.960784 F1000
G01 X17.166667 Y-10.5 Z10 F1000
G01 X19.277778 Y-10.5 Z10 F1000
G01 X19.388889 Y-10.5 Z9.960784 F1000
G01 X19.5 Y-10.5 Z9.921569 F1000
G01 X19.611111 Y-10.5 Z9.921569 F1000
G01 X19.722222 Y-10.5 Z9.882353 F1000
G01 X19.833333 Y-10.5 Z9.882353 F1000
G01 X19.944444 Y-10.5 Z8.509804 F1000
G01 X20.055556 Y-10.5 Z8.156863 F1000
G01 X20.388889 Y-10.5 Z8.156863 F1000
G01 X20.5 Y-10.5 Z8.078431 F1000
G01 X20.722222 Y-10.5 Z8.078431 F1000
G01 X20.833333 Y-10.5 Z8.039216 F1000
G01 X20.944444 Y-10.5 Z7.960784 F1000
G01 X21.722222 Y-10.5 Z7.960784 F1000
G01 X21.833333 Y-10.5 Z8.156863 F1000
G01 X22.166667 Y-10.5 Z8.156863 F1000
G01 X22.277778 Y-10.5 Z9.882353 F1000
G01 X22.388889 Y-10.5 Z9.960784 F1000
G01 X22.611111 Y-10.5 Z9.960784 F1000
G01 X22.722222 Y-10.5 Z10 F1000
G01 X24.944444 Y-10.5 Z10 F1000
G01 X25.055556 Y-10.5 Z9.960784 F1000
G01 X25.833333 Y-10.5 Z9.960784 F1000
G01 X25.944444 Y-10.5 Z10 F1000
G01 X39.5 Y-10.5 Z10 F1000
G01 X39.5 Y-10.611111 Z10 F1000
G01 X39.5 Y-10.722222 Z10 F1000
G01 X39.5 Y-10.833333 Z10 F1000
G01 X39.5 Y-10.944444 Z10 F1000
G01 X39.5 Y-11.055556 Z10 F1000
G01 X25.944444 Y-11.055556 Z10 F1000
G01 X25.833333 Y-11.055556 Z9.960784 F1000
G01 X25.055556 Y-11.055556 Z9.960784 F1000
G01 X24.944444 Y-11.055556 Z10 F1000
G01 X22.722222 Y-11.055556 Z10 F1000
G01 X22.611111 Y-11.055556 Z9.960784 F1000
G01 X22.388889 Y-11.055556 Z9.960784 F1000
G01 X22.277778 Y-11.055556 Z9.921569 F1000
G01 X22.166667 Y-11.055556 Z9.72549 F1000
G01 X22.055556 Y-11.055556 Z8.156863 F1000
G01 X21.833333 Y-11.055556 Z8.156863 F1000
G01 X21.722222 Y-11.055556 Z7.921569 F1000
G01 X21.277778 Y-11.055556 Z7.921569 F1000
G01 X21.166667 Y-11.055556 Z7.960784 F1000
G01 X20.944444 Y-11.055556 Z7.960784 F1000
G01 X20.833333 Y-11.055556 Z8.039216 F1000
G01 X20.5 Y-11.055556 Z8.039216 F1000
G01 X20.388889 Y-11.055556 Z8.117647 F1000
G01 X19.944444 Y-11.055556 Z8.117647 F1000
G01 X19.833333 Y-11.055556 Z8.352941 F1000
G01 X19.722222 Y-11.055556 Z8.352941 F1000
G01 X19.611111 Y-11.055556 Z9.803922 F1000
G01 X19.5 Y-11.055556 Z9.803922 F1000
G01 X19.388889 Y-11.055556 Z9.882353 F1000
G01 X19.277778 Y-11.055556 Z9.960784 F1000
G01 X19.166667 Y-11.055556 Z10 F1000
G01 X0.388889 Y-11.055556 Z10 F1000
G01 X0.388889 Y-11.166667 Z10 F1000
G01 X0.388889 Y-11.277778 Z10 F1000
G01 X0.388889 Y-11.388889 Z10 F1000
G01 X0.388889 Y-11.5 Z10 F1000
G01 X0.388889 Y-11.611111 Z10 F1000
G01 X16.5 Y-11.611111 Z10 F1000
G01 X16.611111 Y-11.611111 Z9.960784 F1000
G01 X16.833333 Y-11.611111 Z9.960784 F1000
G01 X16.944444 Y-11.611111 Z9.921569 F1000
G01 X17.055556 Y-11.611111 Z9.921569 F1000
G01 X17.166667 Y-11.611111 Z9.960784 F1000
G01 X17.611111 Y-11.611111 Z9.960784 F1000
G01 X17.722222 Y-11.611111 Z10 F1000
G01 X19.166667 Y-11.611111 Z10 F1000
G01 X19.277778 Y-11.611111 Z9.882353 F1000
G01 X19.388889 Y-11.611111 Z9.764706 F1000
G01 X19.5 Y-11.611111 Z8.627451 F1000
G01 X20.166667 Y-11.611111 Z8.627451 F1000
G01 X20.277778 Y-11.611111 Z8.784314 F1000
G01 X21.166667 Y-11.611111 Z8.784314 F1000
G01 X21.277778 Y-11.611111 Z8.431373 F1000
G01 X21.611111 Y-11.611111 Z8.431373 F1000
G01 X21.722222 Y-11.611111 Z8.313725 F1000
G01 X21.833333 Y-11.611111 Z8.156863 F1000
G01 X21.944444 Y-11.611111 Z8.156863 F1000
G01 X22.055556 Y-11.611111 Z9.843137 F1000
G01 X22.166667 Y-11.611111 Z9.882353 F1000
G01 X22.277778 Y-11.611111 Z9.921569 F1000
G01 X22.388889 Y-11.611111 Z10 F1000
G01 X24.722222 Y-11.611111 Z10 F1000
G01 X24.833333 Y-11.611111 Z9.960784 F1000
G01 X25.055556 Y-11.611111 Z9.960784 F1000
G01 X25.166667 Y-11.611111 Z9.921569 F1000
G01 X25.277778 Y-11.611111 Z9.843137 F1000
G01 X25.388889 Y-11.611111 Z9.764706 F1000
G01 X25.5 Y-11.611111 Z9.882353 F1000
G01 X25.611111 Y-11.611111 Z9.921569 F1000
G01 X25.722222 Y-11.611111 Z9.960784 F1000
G01 X25.833333 Y-11.611111 Z10 F1000
G01 X39.5 Y-11.611111 Z10 F1000
G01 X39.5 Y-11.722222 Z10 F1000
G01 X39.5 Y-11.833333 Z10 F1000
G01 X39.5 Y-11.944444 Z10 F1000
G01 X39.5 Y-12.055556 Z10 F1000
G01 X39.5 Y-12.166667 Z10 F1000
G01 X25.833333 Y-12.166667 Z10 F1000
G01 X25.722222 Y-12.166667 Z9.960784 F1000
G01 X25.611111 Y-12.166667 Z9.960784 F1000
G01 X25.5 Y-12.166667 Z9.921569 F1000
G01 X25.388889 Y-12.166667 Z9.803922 F1000
G01 X25.277778 Y-12.166667 Z8.196078 F1000
G01 X25.166667 Y-12.166667 Z8.196078 F1000
G01 X25.055556 Y-12.166667 Z8.470588 F1000
G01 X24.944444 Y-12.166667 Z9.843137 F1000
G01 X24.833333 Y-12.166667 Z9.960784 F1000
G01 X24.722222 Y-12.166667 Z10 F1000
G01 X22.388889 Y-12.166667 Z10 F1000
G01 X22.277778 Y-12.166667 Z9.960784 F1000
G01 X22.055556 Y-12.166667 Z9.960784 F1000
G01 X21.944444 Y-12.166667 Z9.882353 F1000
G01 X21.833333 Y-12.166667 Z9.294118 F1000
G01 X21.722222 Y-12.166667 Z8.313725 F1000
G01 X21.611111 Y-12.166667 Z8.431373 F1000
G01 X21.5 Y-12.166667 Z8.470588 F1000
G01 X21.388889 Y-12.166667 Z8.705882 F1000
G01 X21.277778 Y-12.166667 Z8.705882 F1000
G01 X21.166667 Y-12.166667 Z8.784314 F1000
G01 X20.611111 Y-12.166667 Z8.784314 F1000
G01 X20.5 Y-12.166667 Z10 F1000
G01 X19.611111 Y-12.166667 Z10 F1000
G01 X19.5 Y-12.166667 Z8.627451 F1000
G01 X19.277778 Y-12.166667 Z8.627451 F1000
G01 X19.166667 Y-12.166667 Z9.882353 F1000
G01 X19.055556 Y-12.166667 Z9.960784 F1000
G01 X17.944444 Y-12.166667 Z9.960784 F1000
G01 X17.833333 Y-12.166667 Z9.882353 F1000
G01 X17.722222 Y-12.166667 Z9.764706 F1000
G01 X17.611111 Y-12.166667 Z9.686275 F1000
G01 X17.5 Y-12.166667 Z9.254902 F1000
G01 X17.388889 Y-12.166667 Z7.098039 F1000
G01 X17.055556 Y-12.166667 Z7.098039 F1000
G01 X16.944444 Y-12.166667 Z7.45098 F1000
G01 X16.833333 Y-12.166667 Z9.72549 F1000
G01 X16.722222 Y-12.166667 Z9.72549 F1000
G01 X16.611111 Y-12.166667 Z9.921569 F1000
G01 X16.5 Y-12.166667 Z10 F1000
G01 X0.388889 Y-12.166667 Z10 F1000
G01 X0.388889 Y-12.277778 Z10 F1000
G01 X0.388889 Y-12.388889 Z10 F1000
G01 X0.388889 Y-12.5 Z10 F1000
G01 X0.388889 Y-12.611111 Z10 F1000
G01 X0.388889 Y-12.722222 Z10 F1000
G01 X16.5 Y-12.722222 Z10 F1000
G01 X16.611111 Y-12.722222 Z9.921569 F1000
G01 X16.722222 Y-12.722222 Z9.686275 F1000
G01 X16.833333 Y-12.722222 Z7.019608 F1000
G01 X17.166667 Y-12.722222 Z7.019608 F1000
G01 X17.277778 Y-12.722222 Z7.058824 F1000
G01 X17.722222 Y-12.722222 Z7.058824 F1000
G01 X17.833333 Y-12.722222 Z9.333333 F1000
G01 X17.944444 Y-12.722222 Z9.764706 F1000
G01 X18.055556 Y-12.722222 Z9.843137 F1000
G01 X18.166667 Y-12.722222 Z9.882353 F1000
G01 X19.055556 Y-12.722222 Z9.882353 F1000
G01 X19.166667 Y-12.722222 Z8.509804 F1000
G01 X19.5 Y-12.722222 Z8.509804 F1000
G01 X19.611111 Y-12.722222 Z10 F1000
G01 X20.5 Y-12.722222 Z10 F1000
G01 X20.611111 Y-12.722222 Z8.509804 F1000
G01 X21.388889 Y-12.722222 Z8.509804 F1000
G01 X21.5 Y-12.722222 Z8.470588 F1000
G01 X21.611111 Y-12.722222 Z9.686275 F1000
G01 X21.722222 Y-12.722222 Z9.921569 F1000
G01 X21.833333 Y-12.722222 Z9.921569 F1000
G01 X21.944444 Y-12.722222 Z9.960784 F1000
G01 X22.055556 Y-12.722222 Z10 F1000
G01 X24.277778 Y-12.722222 Z10 F1000
G01 X24.388889 Y-12.722222 Z9.960784 F1000
G01 X24.5 Y-12.722222 Z9.921569 F1000
G01 X24.611111 Y-12.722222 Z9.921569 F1000
G01 X24.722222 Y-12.722222 Z9.411765 F1000
G01 X24.833333 Y-12.722222 Z8.470588 F1000
G01 X25.055556 Y-12.722222 Z8.470588 F1000
G01 X25.166667 Y-12.722222 Z8.588235 F1000
G01 X25.277778 Y-12.722222 Z9.843137 F1000
G01 X25.388889 Y-12.722222 Z9.882353 F1000
G01 X25.5 Y-12.722222 Z9.921569 F1000
G01 X25.611111 Y-12.722222 Z9.960784 F1000
G01 X25.722222 Y-12.722222 Z9.960784 F1000
G01 X25.833333 Y-12.722222 Z10 F1000
G01 X34.277778 Y-12.722222 Z10 F1000
G01 X34.388889 Y-12.722222 Z9.960784 F1000
G01 X34.833333 Y-12.722222 Z9.960784 F1000
G01 X34.944444 Y-12.722222 Z10 F1000
G01 X39.5 Y-12.722222 Z10 F1000
G01 X39.5 Y-12.833333 Z10 F1000
G01 X39.5 Y-12.944444 Z10 F1000
G01 X39.5 Y-13.055556 Z10 F1000
G01 X39.5 Y-13.166667 Z10 F1000
G01 X39.5 Y-13.277778 Z10 F1000
G01 X34.722222 Y-13.277778 Z10 F1000
G01 X34.611111 Y-13.277778 Z9.960784 F1000
G01 X34.388889 Y-13.277778 Z9.960784 F1000
G01 X34.277778 Y-13.277778 Z10 F1000
G01 X25.5 Y-13.277778 Z10 F1000
G01 X25.388889 Y-13.277778 Z9.960784 F1000
G01 X25.277778 Y-13.277778 Z9.960784 F1000
G01 X25.166667 Y-13.277778 Z9.921569 F1000
G01 X25.055556 Y-13.277778 Z9.882353 F1000
G01 X24.944444 Y-13.277778 Z8.941176 F1000
G01 X24.611111 Y-13.277778 Z8.941176 F1000
G01 X24.5 Y-13.277778 Z9.294118 F1000
G01 X24.388889 Y-13.277778 Z9.921569 F1000
G01 X24.277778 Y-13.277778 Z10 F1000
G01 X21.722222 Y-13.277778 Z10 F1000
G01 X21.611111 Y-13.277778 Z9.960784 F1000
G01 X21.388889 Y-13.277778 Z9.960784 F1000
G01 X21.277778 Y-13.277778 Z9.843137 F1000
G01 X21.166667 Y-13.277778 Z8.627451 F1000
G01 X20.388889 Y-13.277778 Z8.627451 F1000
G01 X20.277778 Y-13.277778 Z8.039216 F1000
G01 X20.166667 Y-13.277778 Z3.098039 F1000
G01 X20.055556 Y-13.277778 Z0.431373 F1000
G01 X19.944444 Y-13.277778 Z2.784314 F1000
G01 X19.833333 Y-13.277778 Z7.72549 F1000
G01 X19.722222 Y-13.277778 Z8.27451 F1000
G01 X19.611111 Y-13.277778 Z8.627451 F1000
G01 X19.166667 Y-13.277778 Z8.627451 F1000
G01 X19.055556 Y-13.277778 Z9.372549 F1000
G01 X18.944444 Y-13.277778 Z9.45098 F1000
G01 X18.055556 Y-13.277778 Z9.45098 F1000
G01 X17.944444 Y-13.277778 Z6.941176 F1000
G01 X17.722222 Y-13.277778 Z6.941176 F1000
G01 X17.611111 Y-13.277778 Z6.901961 F1000
G01 X17.5 Y-13.277778 Z6.980392 F1000
G01 X17.388889 Y-13.277778 Z6.980392 F1000
G01 X17.277778 Y-13.277778 Z7.019608 F1000
G01 X16.944444 Y-13.277778 Z7.019608 F1000
G01 X16.833333 Y-13.277778 Z9.333333 F1000
G01 X16.722222 Y-13.277778 Z9.803922 F1000
G01 X16.611111 Y-13.277778 Z10 F1000
G01 X0.388889 Y-13.277778 Z10 F1000
G01 X0.388889 Y-13.388889 Z10 F1000
G01 X0.388889 Y-13.5 Z10 F1000
G01 X0.388889 Y-13.611111 Z10 F1000
G01 X0.388889 Y-13.722222 Z10 F1000
G01 X0.388889 Y-13.833333 Z10 F1000
G01 X16.611111 Y-13.833333 Z10 F1000
G01 X16.722222 Y-13.833333 Z9.960784 F1000
G01 X16.833333 Y-13.833333 Z9.843137 F1000
G01 X16.944444 Y-13.833333 Z9.607843 F1000
G01 X17.055556 Y-13.833333 Z7.019608 F1000
G01 X17.277778 Y-13.833333 Z7.019608 F1000
G01 X17.388889 Y-13.833333 Z6.941176 F1000
G01 X17.833333 Y-13.833333 Z6.941176 F1000
G01 X17.944444 Y-13.833333 Z6.901961 F1000
G01 X18.055556 Y-13.833333 Z7.019608 F1000
G01 X18.277778 Y-13.833333 Z7.019608 F1000
G01 X18.388889 Y-13.833333 Z7.058824 F1000
G01 X18.5 Y-13.833333 Z8.27451 F1000
G01 X18.611111 Y-13.833333 Z8.27451 F1000
G01 X18.722222 Y-13.833333 Z8.627451 F1000
G01 X19.611111 Y-13.833333 Z8.627451 F1000
G01 X19.722222 Y-13.833333 Z6.352941 F1000
G01 X19.833333 Y-13.833333 Z3.803922 F1000
G01 X19.944444 Y-13.833333 Z6.235294 F1000
G01 X20.055556 Y-13.833333 Z8.666667 F1000
G01 X20.944444 Y-13.833333 Z8.666667 F1000
G01 X21.055556 Y-13.833333 Z9.764706 F1000
G01 X21.166667 Y-13.833333 Z9.803922 F1000
G01 X21.277778 Y-13.833333 Z9.843137 F1000
G01 X21.388889 Y-13.833333 Z9.960784 F1000
G01 X21.611111 Y-13.833333 Z9.960784 F1000
G01 X21.722222 Y-13.833333 Z10 F1000
G01 X24.055556 Y-13.833333 Z10 F1000
G01 X24.166667 Y-13.833333 Z9.921569 F1000
G01 X24.277778 Y-13.833333 Z9.764706 F1000
G01 X24.388889 Y-13.833333 Z8.941176 F1000
G01 X24.611111 Y-13.833333 Z8.941176 F1000
G01 X24.722222 Y-13.833333 Z10 F1000
G01 X34.166667 Y-13.833333 Z10 F1000
G01 X34.277778 Y-13.833333 Z9.960784 F1000
G01 X34.611111 Y-13.833333 Z9.960784 F1000
G01 X34.722222 Y-13.833333 Z10 F1000
G01 X39.5 Y-13.833333 Z10 F1000
G01 X39.5 Y-13.944444 Z10 F1000
G01 X39.5 Y-14.055556 Z10 F1000
G01 X39.5 Y-14.166667 Z10 F1000
G01 X39.5 Y-14.277778 Z10 F1000
G01 X39.5 Y-14.388889 Z10 F1000
G01 X34.722222 Y-14.388889 Z10 F1000
G01 X34.611111 Y-14.388889 Z9.960784 F1000
G01 X34.5 Y-14.388889 Z10 F1000
G01 X24.722222 Y-14.388889 Z10 F1000
G01 X24.611111 Y-14.388889 Z8.627451 F1000
G01 X24.277778 Y-14.388889 Z8.627451 F1000
G01 X24.166667 Y-14.388889 Z9.921569 F1000
G01 X24.055556 Y-14.388889 Z10 F1000
G01 X23.055556 Y-14.388889 Z10 F1000
G01 X22.944444 Y-14.388889 Z9.843137 F1000
G01 X22.833333 Y-14.388889 Z9.72549 F1000
G01 X22.722222 Y-14.388889 Z9.647059 F1000
G01 X22.611111 Y-14.388889 Z9.568627 F1000
G01 X22.5 Y-14.388889 Z9.098039 F1000
G01 X22.388889 Y-14.388889 Z8.117647 F1000
G01 X22.277778 Y-14.388889 Z9.176471 F1000
G01 X22.166667 Y-14.388889 Z9.686275 F1000
G01 X22.055556 Y-14.388889 Z9.803922 F1000
G01 X21.166667 Y-14.388889 Z9.803922 F1000
G01 X21.055556 Y-14.388889 Z9.764706 F1000
G01 X20.944444 Y-14.388889 Z8.666667 F1000
G01 X20.055556 Y-14.388889 Z8.666667 F1000
G01 X19.944444 Y-14.388889 Z6.862745 F1000
G01 X19.833333 Y-14.388889 Z6.941176 F1000
G01 X19.277778 Y-14.388889 Z6.941176 F1000
G01 X19.166667 Y-14.388889 Z6.980392 F1000
G01 X18.277778 Y-14.388889 Z6.980392 F1000
G01 X18.166667 Y-14.388889 Z6.823529 F1000
G01 X18.055556 Y-14.388889 Z6.823529 F1000
G01 X17.944444 Y-14.388889 Z6.980392 F1000
G01 X17.166667 Y-14.388889 Z6.980392 F1000
G01 X17.055556 Y-14.388889 Z9.45098 F1000
G01 X16.944444 Y-14.388889 Z9.764706 F1000
G01 X16.833333 Y-14.388889 Z9.921569 F1000
G01 X16.722222 Y-14.388889 Z9.960784 F1000
G01 X16.611111 Y-14.388889 Z10 F1000
G01 X0.388889 Y-14.388889 Z10 F1000
G01 X0.388889 Y-14.5 Z10 F1000
G01 X0.388889 Y-14.611111 Z10 F1000
G01 X0.388889 Y-14.722222 Z10 F1000
G01 X0.388889 Y-14.833333 Z10 F1000
G01 X0.388889 Y-14.944444 Z10 F1000
G01 X16.611111 Y-14.944444 Z10 F1000
G01 X16.722222 Y-14.944444 Z9.960784 F1000
G01 X16.833333 Y-14.944444 Z9.921569 F1000
G01 X16.944444 Y-14.944444 Z9.921569 F1000
G01 X17.055556 Y-14.944444 Z9.843137 F1000
G01 X17.166667 Y-14.944444 Z9.176471 F1000
G01 X17.277778 Y-14.944444 Z7.098039 F1000
G01 X17.944444 Y-14.944444 Z7.098039 F1000
G01 X18.055556 Y-14.944444 Z6.823529 F1000
G01 X18.166667 Y-14.944444 Z6.823529 F1000
G01 X18.277778 Y-14.944444 Z6.980392 F1000
G01 X19.166667 Y-14.944444 Z6.980392 F1000
G01 X19.277778 Y-14.944444 Z6.941176 F1000
G01 X20.055556 Y-14.944444 Z6.941176 F1000
G01 X20.166667 Y-14.944444 Z6.862745 F1000
G01 X20.611111 Y-14.944444 Z6.862745 F1000
G01 X20.722222 Y-14.944444 Z6.901961 F1000
G01 X20.833333 Y-14.944444 Z7.098039 F1000
G01 X21.722222 Y-14.944444 Z7.098039 F1000
G01 X21.833333 Y-14.944444 Z6.745098 F1000
G01 X22.055556 Y-14.944444 Z6.745098 F1000
G01 X22.166667 Y-14.944444 Z6.705882 F1000
G01 X22.611111 Y-14.944444 Z6.705882 F1000
G01 X22.722222 Y-14.944444 Z7.098039 F1000
G01 X22.833333 Y-14.944444 Z7.098039 F1000
G01 X22.944444 Y-14.944444 Z7.215686 F1000
G01 X23.722222 Y-14.944444 Z7.215686 F1000
G01 X23.833333 Y-14.944444 Z8.509804 F1000
G01 X24.722222 Y-14.944444 Z8.509804 F1000
G01 X24.833333 Y-14.944444 Z9.333333 F1000
G01 X24.944444 Y-14.944444 Z9.803922 F1000
G01 X25.055556 Y-14.944444 Z9.843137 F1000
G01 X25.166667 Y-14.944444 Z9.960784 F1000
G01 X25.277778 Y-14.944444 Z10 F1000
G01 X39.5 Y-14.944444 Z10 F1000
G01 X39.5 Y-15.055556 Z10 F1000
G01 X39.5 Y-15.166667 Z10 F1000
G01 X39.5 Y-15.277778 Z10 F1000
G01 X39.5 Y-15.388889 Z10 F1000
G01 X39.5 Y-15.5 Z10 F1000
G01 X26.944444 Y-15.5 Z10 F1000
G01 X26.833333 Y-15.5 Z9.921569 F1000
G01 X26.277778 Y-15.5 Z9.921569 F1000
G01 X26.166667 Y-15.5 Z9.960784 F1000
G01 X25.277778 Y-15.5 Z9.960784 F1000
G01 X25.166667 Y-15.5 Z9.764706 F1000
G01 X25.055556 Y-15.5 Z9.764706 F1000
G01 X24.944444 Y-15.5 Z9.607843 F1000
G01 X24.833333 Y-15.5 Z9.137255 F1000
G01 X24.722222 Y-15.5 Z7.921569 F1000
G01 X24.611111 Y-15.5 Z7.019608 F1000
G01 X23.944444 Y-15.5 Z7.019608 F1000
G01 X23.833333 Y-15.5 Z6.901961 F1000
G01 X23.722222 Y-15.5 Z6.901961 F1000
G01 X23.611111 Y-15.5 Z6.862745 F1000
G01 X23.5 Y-15.5 Z6.823529 F1000
G01 X22.833333 Y-15.5 Z6.823529 F1000
G01 X22.722222 Y-15.5 Z6.745098 F1000
G01 X22.611111 Y-15.5 Z6.705882 F1000
G01 X22.5 Y-15.5 Z6.627451 F1000
G01 X21.833333 Y-15.5 Z6.627451 F1000
G01 X21.722222 Y-15.5 Z6.705882 F1000
G01 X21.055556 Y-15.5 Z6.705882 F1000
G01 X20.944444 Y-15.5 Z6.745098 F1000
G01 X20.833333 Y-15.5 Z6.823529 F1000
G01 X20.166667 Y-15.5 Z6.823529 F1000
G01 X20.055556 Y-15.5 Z6.941176 F1000
G01 X19.166667 Y-15.5 Z6.941176 F1000
G01 X19.055556 Y-15.5 Z6.823529 F1000
G01 X18.722222 Y-15.5 Z6.823529 F1000
G01 X18.611111 Y-15.5 Z6.784314 F1000
G01 X18.5 Y-15.5 Z6.235294 F1000
G01 X18.388889 Y-15.5 Z5.803922 F1000
G01 X18.166667 Y-15.5 Z5.803922 F1000
G01 X18.055556 Y-15.5 Z6.941176 F1000
G01 X17.944444 Y-15.5 Z7.098039 F1000
G01 X17.388889 Y-15.5 Z7.098039 F1000
G01 X17.277778 Y-15.5 Z7.215686 F1000
G01 X17.166667 Y-15.5 Z9.686275 F1000
G01 X17.055556 Y-15.5 Z9.882353 F1000
G01 X16.944444 Y-15.5 Z9.921569 F1000
G01 X16.833333 Y-15.5 Z9.921569 F1000
G01 X16.722222 Y-15.5 Z9.960784 F1000
G01 X16.611111 Y-15.5 Z10 F1000
G01 X0.388889 Y-15.5 Z10 F1000
G01 X0.388889 Y-15.611111 Z10 F1000
G01 X0.388889 Y-15.722222 Z10 F1000
G01 X0.388889 Y-15.833333 Z10 F1000
G01 X0.388889 Y-15.944444 Z10 F1000
G01 X0.388889 Y-16.055556 Z10 F1000
G01 X16.5 Y-16.055556 Z10 F1000
G01 X16.611111 Y-16.055556 Z9.960784 F1000
G01 X16.944444 Y-16.055556 Z9.960784 F1000
G01 X17.055556 Y-16.055556 Z9.921569 F1000
G01 X17.166667 Y-16.055556 Z9.882353 F1000
G01 X17.277778 Y-16.055556 Z8.705882 F1000
G01 X17.388889 Y-16.055556 Z6.980392 F1000
G01 X17.611111 Y-16.055556 Z6.980392 F1000
G01 X17.722222 Y-16.055556 Z6.941176 F1000
G01 X18.055556 Y-16.055556 Z6.941176 F1000
G01 X18.166667 Y-16.055556 Z4.078431 F1000
G01 X18.277778 Y-16.055556 Z3.333333 F1000
G01 X18.5 Y-16.055556 Z3.333333 F1000
G01 X18.611111 Y-16.055556 Z3.45098 F1000
G01 X18.722222 Y-16.055556 Z3.490196 F1000
G01 X18.833333 Y-16.055556 Z5.098039 F1000
G01 X18.944444 Y-16.055556 Z6.078431 F1000
G01 X19.277778 Y-16.055556 Z6.078431 F1000
G01 X19.388889 Y-16.055556 Z6.352941 F1000
G01 X19.5 Y-16.055556 Z6.705882 F1000
G01 X20.722222 Y-16.055556 Z6.705882 F1000
G01 X20.833333 Y-16.055556 Z6.862745 F1000
G01 X21.722222 Y-16.055556 Z6.862745 F1000
G01 X21.833333 Y-16.055556 Z6.627451 F1000
G01 X21.944444 Y-16.055556 Z6.588235 F1000
G01 X22.5 Y-16.055556 Z6.588235 F1000
G01 X22.611111 Y-16.055556 Z6.627451 F1000
G01 X22.722222 Y-16.055556 Z6.745098 F1000
G01 X22.833333 Y-16.055556 Z6.823529 F1000
G01 X23.611111 Y-16.055556 Z6.823529 F1000
G01 X23.722222 Y-16.055556 Z6.901961 F1000
G01 X23.833333 Y-16.055556 Z6.901961 F1000
G01 X23.944444 Y-16.055556 Z7.019608 F1000
G01 X24.722222 Y-16.055556 Z7.019608 F1000
G01 X24.833333 Y-16.055556 Z7.058824 F1000
G01 X25.722222 Y-16.055556 Z7.058824 F1000
G01 X25.833333 Y-16.055556 Z7.019608 F1000
G01 X26.055556 Y-16.055556 Z7.019608 F1000
G01 X26.166667 Y-16.055556 Z6.862745 F1000
G01 X26.277778 Y-16.055556 Z6.941176 F1000
G01 X27.166667 Y-16.055556 Z6.941176 F1000
G01 X27.277778 Y-16.055556 Z6.862745 F1000
G01 X27.5 Y-16.055556 Z6.862745 F1000
G01 X27.611111 Y-16.055556 Z8.431373 F1000
G01 X27.722222 Y-16.055556 Z9.45098 F1000
G01 X27.833333 Y-16.055556 Z9.647059 F1000
G01 X27.944444 Y-16.055556 Z9.647059 F1000
G01 X28.055556 Y-16.055556 Z9.686275 F1000
G01 X28.166667 Y-16.055556 Z9.803922 F1000
G01 X28.388889 Y-16.055556 Z9.803922 F1000
G01 X28.5 Y-16.055556 Z9.843137 F1000
G01 X28.611111 Y-16.055556 Z9.921569 F1000
G01 X28.722222 Y-16.055556 Z9.960784 F1000
G01 X28.833333 Y-16.055556 Z9.960784 F1000
G01 X28.944444 Y-16.055556 Z10 F1000
G01 X39.5 Y-16.055556 Z10 F1000
G01 X39.5 Y-16.166667 Z10 F1000
G01 X39.5 Y-16.277778 Z10 F1000
G01 X39.5 Y-16.388889 Z10 F1000
G01 X39.5 Y-16.5 Z10 F1000
G01 X39.5 Y-16.611111 Z10 F1000
G01 X33.611111 Y-16.611111 Z10 F1000
G01 X33.5 Y-16.611111 Z9.960784 F1000
G01 X33.388889 Y-16.611111 Z9.960784 F1000
G01 X33.277778 Y-16.611111 Z10 F1000
G01 X28.944444 Y-16.611111 Z10 F1000
G01 X28.833333 Y-16.611111 Z9.960784 F1000
G01 X28.722222 Y-16.611111 Z9.921569 F1000
G01 X28.611111 Y-16.611111 Z9.843137 F1000
G01 X28.5 Y-16.611111 Z9.843137 F1000
G01 X28.388889 Y-16.611111 Z9.72549 F1000
G01 X28.277778 Y-16.611111 Z8.627451 F1000
G01 X28.166667 Y-16.611111 Z6.941176 F1000
G01 X27.944444 Y-16.611111 Z6.941176 F1000
G01 X27.833333 Y-16.611111 Z6.784314 F1000
G01 X27.722222 Y-16.611111 Z6.705882 F1000
G01 X27.5 Y-16.611111 Z6.705882 F1000
G01 X27.388889 Y-16.611111 Z6.627451 F1000
G01 X26.944444 Y-16.611111 Z6.627451 F1000
G01 X26.833333 Y-16.611111 Z6.784314 F1000
G01 X26.722222 Y-16.611111 Z6.862745 F1000
G01 X26.388889 Y-16.611111 Z6.862745 F1000
G01 X26.277778 Y-16.611111 Z7.607843 F1000
G01 X26.166667 Y-16.611111 Z9.137255 F1000
G01 X26.055556 Y-16.611111 Z9.490196 F1000
G01 X25.944444 Y-16.611111 Z9.764706 F1000
G01 X25.833333 Y-16.611111 Z9.843137 F1000
G01 X25.722222 Y-16.611111 Z9.921569 F1000
G01 X25.5 Y-16.611111 Z9.921569 F1000
G01 X25.388889 Y-16.611111 Z10 F1000
G01 X24.5 Y-16.611111 Z10 F1000
G01 X24.388889 Y-16.611111 Z9.921569 F1000
G01 X24.166667 Y-16.611111 Z9.921569 F1000
G01 X24.055556 Y-16.611111 Z9.882353 F1000
G01 X23.944444 Y-16.611111 Z9.882353 F1000
G01 X23.833333 Y-16.611111 Z9.843137 F1000
G01 X23.722222 Y-16.611111 Z9.843137 F1000
G01 X23.611111 Y-16.611111 Z9.803922 F1000
G01 X23.5 Y-16.611111 Z9.607843 F1000
G01 X23.388889 Y-16.611111 Z9.215686 F1000
G01 X23.277778 Y-16.611111 Z7.333333 F1000
G01 X23.166667 Y-16.611111 Z7.333333 F1000
G01 X23.055556 Y-16.611111 Z6.705882 F1000
G01 X22.944444 Y-16.611111 Z6.352941 F1000
G01 X22.833333 Y-16.611111 Z6.352941 F1000
G01 X22.722222 Y-16.611111 Z6.156863 F1000
G01 X22.5 Y-16.611111 Z6.156863 F1000
G01 X22.388889 Y-16.611111 Z6.117647 F1000
G01 X22.277778 Y-16.611111 Z6.117647 F1000
G01 X22.166667 Y-16.611111 Z6.235294 F1000
G01 X22.055556 Y-16.611111 Z6.27451 F1000
G01 X21.944444 Y-16.611111 Z6.313725 F1000
G01 X21.833333 Y-16.611111 Z6.392157 F1000
G01 X21.722222 Y-16.611111 Z6.862745 F1000
G01 X20.833333 Y-16.611111 Z6.862745 F1000
G01 X20.722222 Y-16.611111 Z6.627451 F1000
G01 X20.611111 Y-16.611111 Z6.235294 F1000
G01 X20.055556 Y-16.611111 Z6.235294 F1000
G01 X19.944444 Y-16.611111 Z5.803922 F1000
G01 X19.833333 Y-16.611111 Z4.54902 F1000
G01 X19.722222 Y-16.611111 Z4.078431 F1000
G01 X19.611111 Y-16.611111 Z3.843137 F1000
G01 X19.5 Y-16.611111 Z3.764706 F1000
G01 X19.388889 Y-16.611111 Z3.568627 F1000
G01 X19.277778 Y-16.611111 Z3.490196 F1000
G01 X19.166667 Y-16.611111 Z3.490196 F1000
G01 X19.055556 Y-16.611111 Z3.45098 F1000
G01 X18.944444 Y-16.611111 Z3.490196 F1000
G01 X18.833333 Y-16.611111 Z3.568627 F1000
G01 X18.277778 Y-16.611111 Z3.568627 F1000
G01 X18.166667 Y-16.611111 Z4.078431 F1000
G01 X18.055556 Y-16.611111 Z6.862745 F1000
G01 X17.388889 Y-16.611111 Z6.862745 F1000
G01 X17.277778 Y-16.611111 Z8.745098 F1000
G01 X17.166667 Y-16.611111 Z9.882353 F1000
G01 X17.055556 Y-16.611111 Z9.960784 F1000
G01 X16.944444 Y-16.611111 Z10 F1000
G01 X0.388889 Y-16.611111 Z10 F1000
G01 X0.388889 Y-16.722222 Z10 F1000
G01 X0.388889 Y-16.833333 Z10 F1000
G01 X0.388889 Y-16.944444 Z10 F1000
G01 X0.388889 Y-17.055556 Z10 F1000
G01 X0.388889 Y-17.166667 Z10 F1000
G01 X16.944444 Y-17.166667 Z10 F1000
G01 X17.055556 Y-17.166667 Z9.960784 F1000
G01 X17.166667 Y-17.166667 Z9.882353 F1000
G01 X17.277778 Y-17.166667 Z9.098039 F1000
G01 X17.388889 Y-17.166667 Z6.941176 F1000
G01 X17.722222 Y-17.166667 Z6.941176 F1000
G01 X17.833333 Y-17.166667 Z6.862745 F1000
G01 X18.055556 Y-17.166667 Z6.862745 F1000
G01 X18.166667 Y-17.166667 Z3.921569 F1000
G01 X18.5 Y-17.166667 Z3.921569 F1000
G01 X18.611111 Y-17.166667 Z3.72549 F1000
G01 X19.277778 Y-17.166667 Z3.72549 F1000
G01 X19.388889 Y-17.166667 Z3.764706 F1000
G01 X19.5 Y-17.166667 Z3.764706 F1000
G01 X19.611111 Y-17.166667 Z3.843137 F1000
G01 X19.722222 Y-17.166667 Z3.921569 F1000
G01 X19.833333 Y-17.166667 Z4.54902 F1000
G01 X19.944444 Y-17.166667 Z5.803922 F1000
G01 X20.055556 Y-17.166667 Z6.235294 F1000
G01 X20.944444 Y-17.166667 Z6.235294 F1000
G01 X21.055556 Y-17.166667 Z6.156863 F1000
G01 X21.166667 Y-17.166667 Z5.882353 F1000
G01 X21.277778 Y-17.166667 Z5.176471 F1000
G01 X21.388889 Y-17.166667 Z4.588235 F1000
G01 X21.5 Y-17.166667 Z3.921569 F1000
G01 X21.611111 Y-17.166667 Z3.882353 F1000
G01 X21.722222 Y-17.166667 Z3.803922 F1000
G01 X21.833333 Y-17.166667 Z3.843137 F1000
G01 X22.166667 Y-17.166667 Z3.843137 F1000
G01 X22.277778 Y-17.166667 Z4.392157 F1000
G01 X22.388889 Y-17.166667 Z4.54902 F1000
G01 X22.5 Y-17.166667 Z4.784314 F1000
G01 X22.611111 Y-17.166667 Z5.490196 F1000
G01 X22.722222 Y-17.166667 Z6.627451 F1000
G01 X22.833333 Y-17.166667 Z6.784314 F1000
G01 X22.944444 Y-17.166667 Z6.941176 F1000
G01 X23.055556 Y-17.166667 Z7.058824 F1000
G01 X23.166667 Y-17.166667 Z9.568627 F1000
G01 X23.277778 Y-17.166667 Z9.803922 F1000
G01 X23.388889 Y-17.166667 Z9.882353 F1000
G01 X23.5 Y-17.166667 Z9.960784 F1000
G01 X23.611111 Y-17.166667 Z10 F1000
G01 X26.833333 Y-17.166667 Z10 F1000
G01 X26.944444 Y-17.166667 Z9.960784 F1000
G01 X27.166667 Y-17.166667 Z9.960784 F1000
G01 X27.277778 Y-17.166667 Z9.921569 F1000
G01 X27.722222 Y-17.166667 Z9.921569 F1000
G01 X27.833333 Y-17.166667 Z9.960784 F1000
G01 X28.166667 Y-17.166667 Z9.960784 F1000
G01 X28.277778 Y-17.166667 Z10 F1000
G01 X32.833333 Y-17.166667 Z10 F1000
G01 X32.944444 Y-17.166667 Z9.960784 F1000
G01 X33.166667 Y-17.166667 Z9.960784 F1000
G01 X33.277778 Y-17.166667 Z9.921569 F1000
G01 X33.388889 Y-17.166667 Z9.960784 F1000
G01 X33.5 Y-17.166667 Z9.960784 F1000
G01 X33.611111 Y-17.166667 Z10 F1000
G01 X35.944444 Y-17.166667 Z10 F1000
G01 X36.055556 Y-17.166667 Z9.960784 F1000
G01 X36.166667 Y-17.166667 Z10 F1000
G01 X39.5 Y-17.166667 Z10 F1000
G01 X39.5 Y-17.277778 Z10 F1000
G01 X39.5 Y-17.388889 Z10 F1000
G01 X39.5 Y-17.5 Z10 F1000
G01 X39.5 Y-17.611111 Z10 F1000
G01 X39.5 Y-17.722222 Z10 F1000
G01 X33.611111 Y-17.722222 Z10 F1000
G01 X33.5 Y-17.722222 Z9.960784 F1000
G01 X32.611111 Y-17.722222 Z9.960784 F1000
G01 X32.5 Y-17.722222 Z10 F1000
G01 X23.5 Y-17.722222 Z10 F1000
G01 X23.388889 Y-17.722222 Z9.960784 F1000
G01 X23.277778 Y-17.722222 Z9.882353 F1000
G01 X23.166667 Y-17.722222 Z9.803922 F1000
G01 X23.055556 Y-17.722222 Z9.764706 F1000
G01 X22.944444 Y-17.722222 Z9.686275 F1000
G01 X22.833333 Y-17.722222 Z9.647059 F1000
G01 X22.722222 Y-17.722222 Z6.705882 F1000
G01 X22.388889 Y-17.722222 Z6.705882 F1000
G01 X22.277778 Y-17.722222 Z5.490196 F1000
G01 X22.166667 Y-17.722222 Z5.411765 F1000
G01 X22.055556 Y-17.722222 Z4.823529 F1000
G01 X21.944444 Y-17.722222 Z4.823529 F1000
G01 X21.833333 Y-17.722222 Z4.235294 F1000
G01 X21.5 Y-17.722222 Z4.235294 F1000
G01 X21.388889 Y-17.722222 Z4.039216 F1000
G01 X21.055556 Y-17.722222 Z4.039216 F1000
G01 X20.944444 Y-17.722222 Z4.431373 F1000
G01 X20.833333 Y-17.722222 Z4.54902 F1000
G01 X19.944444 Y-17.722222 Z4.54902 F1000
G01 X19.833333 Y-17.722222 Z3.960784 F1000
G01 X18.611111 Y-17.722222 Z3.960784 F1000
G01 X18.5 Y-17.722222 Z4 F1000
G01 X18.166667 Y-17.722222 Z4 F1000
G01 X18.055556 Y-17.722222 Z7.058824 F1000
G01 X17.388889 Y-17.722222 Z7.058824 F1000
G01 X17.277778 Y-17.722222 Z9.72549 F1000
G01 X17.166667 Y-17.722222 Z10 F1000
G01 X0.388889 Y-17.722222 Z10 F1000
G01 X0.388889 Y-17.833333 Z10 F1000
G01 X0.388889 Y-17.944444 Z10 F1000
G01 X0.388889 Y-18.055556 Z10 F1000
G01 X0.388889 Y-18.166667 Z10 F1000
G01 X0.388889 Y-18.277778 Z10 F1000
G01 X17.166667 Y-18.277778 Z10 F1000
G01 X17.277778 Y-18.277778 Z9.72549 F1000
G01 X17.388889 Y-18.277778 Z7.098039 F1000
G01 X18.055556 Y-18.277778 Z7.098039 F1000
G01 X18.166667 Y-18.277778 Z4.627451 F1000
G01 X18.277778 Y-18.277778 Z4.392157 F1000
G01 X19.055556 Y-18.277778 Z4.392157 F1000
G01 X19.166667 Y-18.277778 Z4.27451 F1000
G01 X19.833333 Y-18.277778 Z4.27451 F1000
G01 X19.944444 Y-18.277778 Z4.235294 F1000
G01 X20.833333 Y-18.277778 Z4.235294 F1000
G01 X20.944444 Y-18.277778 Z4.470588 F1000
G01 X21.055556 Y-18.277778 Z4.470588 F1000
G01 X21.166667 Y-18.277778 Z4.666667 F1000
G01 X21.5 Y-18.277778 Z4.666667 F1000
G01 X21.611111 Y-18.277778 Z6.431373 F1000
G01 X21.722222 Y-18.277778 Z7.215686 F1000
G01 X22.388889 Y-18.277778 Z7.215686 F1000
G01 X22.5 Y-18.277778 Z9.72549 F1000
G01 X22.611111 Y-18.277778 Z9.843137 F1000
G01 X22.722222 Y-18.277778 Z9.921569 F1000
G01 X22.833333 Y-18.277778 Z9.960784 F1000
G01 X23.055556 Y-18.277778 Z9.960784 F1000
G01 X23.166667 Y-18.277778 Z10 F1000
G01 X31.5 Y-18.277778 Z10 F1000
G01 X31.611111 Y-18.277778 Z9.960784 F1000
G01 X32.277778 Y-18.277778 Z9.960784 F1000
G01 X32.388889 Y-18.277778 Z9.921569 F1000
G01 X32.5 Y-18.277778 Z9.764706 F1000
G01 X32.611111 Y-18.277778 Z9.764706 F1000
G01 X32.722222 Y-18.277778 Z9.960784 F1000
G01 X32.833333 Y-18.277778 Z9.960784 F1000
G01 X32.944444 Y-18.277778 Z10 F1000
G01 X39.5 Y-18.277778 Z10 F1000
G01 X39.5 Y-18.388889 Z10 F1000
G01 X39.5 Y-18.5 Z10 F1000
G01 X39.5 Y-18.611111 Z10 F1000
G01 X39.5 Y-18.722222 Z9.960784 F1000
G01 X39.5 Y-18.833333 Z9.960784 F1000
G01 X38.944444 Y-18.833333 Z9.960784 F1000
G01 X38.833333 Y-18.833333 Z10 F1000
G01 X32.944444 Y-18.833333 Z10 F1000
G01 X32.833333 Y-18.833333 Z9.960784 F1000
G01 X32.611111 Y-18.833333 Z9.960784 F1000
G01 X32.5 Y-18.833333 Z9.882353 F1000
G01 X32.388889 Y-18.833333 Z8.117647 F1000
G01 X31.944444 Y-18.833333 Z8.117647 F1000
G01 X31.833333 Y-18.833333 Z9.137255 F1000
G01 X31.722222 Y-18.833333 Z9.72549 F1000
G01 X31.611111 Y-18.833333 Z9.843137 F1000
G01 X31.5 Y-18.833333 Z9.882353 F1000
G01 X31.388889 Y-18.833333 Z9.921569 F1000
G01 X31.277778 Y-18.833333 Z9.921569 F1000
G01 X31.166667 Y-18.833333 Z10 F1000
G01 X23.055556 Y-18.833333 Z10 F1000
G01 X22.944444 Y-18.833333 Z9.960784 F1000
G01 X22.277778 Y-18.833333 Z9.960784 F1000
G01 X22.166667 Y-18.833333 Z9.764706 F1000
G01 X22.055556 Y-18.833333 Z9.764706 F1000
G01 X21.944444 Y-18.833333 Z7.215686 F1000
G01 X21.722222 Y-18.833333 Z7.215686 F1000
G01 X21.611111 Y-18.833333 Z7.176471 F1000
G01 X21.388889 Y-18.833333 Z7.176471 F1000
G01 X21.277778 Y-18.833333 Z7.098039 F1000
G01 X21.166667 Y-18.833333 Z7.019608 F1000
G01 X21.055556 Y-18.833333 Z5.607843 F1000
G01 X20.944444 Y-18.833333 Z4.705882 F1000
G01 X20.388889 Y-18.833333 Z4.705882 F1000
G01 X20.277778 Y-18.833333 Z4.54902 F1000
G01 X19.722222 Y-18.833333 Z4.54902 F1000
G01 X19.611111 Y-18.833333 Z4.745098 F1000
G01 X19.5 Y-18.833333 Z4.823529 F1000
G01 X18.611111 Y-18.833333 Z4.823529 F1000
G01 X18.5 Y-18.833333 Z6.196078 F1000
G01 X18.388889 Y-18.833333 Z7.254902 F1000
G01 X17.5 Y-18.833333 Z7.254902 F1000
G01 X17.388889 Y-18.833333 Z7.098039 F1000
G01 X17.166667 Y-18.833333 Z7.098039 F1000
G01 X17.055556 Y-18.833333 Z9.921569 F1000
G01 X16.944444 Y-18.833333 Z9.921569 F1000
G01 X16.833333 Y-18.833333 Z9.960784 F1000
G01 X16.277778 Y-18.833333 Z9.960784 F1000
G01 X16.166667 Y-18.833333 Z10 F1000
G01 X0.388889 Y-18.833333 Z10 F1000
G01 X0.388889 Y-18.944444 Z10 F1000
G01 X0.388889 Y-19.055556 Z10 F1000
G01 X0.388889 Y-19.166667 Z10 F1000
G01 X0.388889 Y-19.277778 Z10 F1000
G01 X0.388889 Y-19.388889 Z10 F1000
G01 X15.166667 Y-19.388889 Z10 F1000
G01 X15.277778 Y-19.388889 Z9.960784 F1000
G01 X16.388889 Y-19.388889 Z9.960784 F1000
G01 X16.5 Y-19.388889 Z9.921569 F1000
G01 X16.611111 Y-19.388889 Z9.921569 F1000
G01 X16.722222 Y-19.388889 Z9.882353 F1000
G01 X16.833333 Y-19.388889 Z8.27451 F1000
G01 X16.944444 Y-19.388889 Z5.529412 F1000
G01 X17.055556 Y-19.388889 Z6.392157 F1000
G01 X17.166667 Y-19.388889 Z7.019608 F1000
G01 X17.388889 Y-19.388889 Z7.019608 F1000
G01 X17.5 Y-19.388889 Z7.254902 F1000
G01 X18.388889 Y-19.388889 Z7.254902 F1000
G01 X18.5 Y-19.388889 Z7.176471 F1000
G01 X19.611111 Y-19.388889 Z7.176471 F1000
G01 X19.722222 Y-19.388889 Z6.901961 F1000
G01 X19.833333 Y-19.388889 Z6.862745 F1000
G01 X20.277778 Y-19.388889 Z6.862745 F1000
G01 X20.388889 Y-19.388889 Z7.098039 F1000
G01 X20.833333 Y-19.388889 Z7.098039 F1000
G01 X20.944444 Y-19.388889 Z7.372549 F1000
G01 X21.388889 Y-19.388889 Z7.372549 F1000
G01 X21.5 Y-19.388889 Z8.27451 F1000
G01 X21.611111 Y-19.388889 Z9.882353 F1000
G01 X21.722222 Y-19.388889 Z9.960784 F1000
G01 X22.166667 Y-19.388889 Z9.960784 F1000
G01 X22.277778 Y-19.388889 Z10 F1000
G01 X30.166667 Y-19.388889 Z10 F1000
G01 X30.277778 Y-19.388889 Z9.960784 F1000
G01 X30.388889 Y-19.388889 Z9.921569 F1000
G01 X30.5 Y-19.388889 Z9.921569 F1000
G01 X30.611111 Y-19.388889 Z9.803922 F1000
G01 X30.722222 Y-19.388889 Z8.666667 F1000
G01 X30.833333 Y-19.388889 Z7.803922 F1000
G01 X30.944444 Y-19.388889 Z7.803922 F1000
G01 X31.055556 Y-19.388889 Z7.882353 F1000
G01 X31.166667 Y-19.388889 Z7.960784 F1000
G01 X32.055556 Y-19.388889 Z7.960784 F1000
G01 X32.166667 Y-19.388889 Z7.803922 F1000
G01 X32.277778 Y-19.388889 Z7.803922 F1000
G01 X32.388889 Y-19.388889 Z9.333333 F1000
G01 X32.5 Y-19.388889 Z9.921569 F1000
G01 X32.611111 Y-19.388889 Z9.960784 F1000
G01 X32.944444 Y-19.388889 Z9.960784 F1000
G01 X33.055556 Y-19.388889 Z10 F1000
G01 X38.166667 Y-19.388889 Z10 F1000
G01 X38.277778 Y-19.388889 Z9.960784 F1000
G01 X39.5 Y-19.388889 Z9.960784 F1000
G01 X39.5 Y-19.5 Z9.803922 F1000
G01 X39.5 Y-19.611111 Z9.843137 F1000
G01 X39.5 Y-19.722222 Z9.843137 F1000
G01 X39.5 Y-19.833333 Z9.843137 F1000
G01 X39.5 Y-19.944444 Z9.843137 F1000
G01 X39.055556 Y-19.944444 Z9.843137 F1000
G01 X38.944444 Y-19.944444 Z9.803922 F1000
G01 X38.833333 Y-19.944444 Z9.803922 F1000
G01 X38.722222 Y-19.944444 Z9.72549 F1000
G01 X38.611111 Y-19.944444 Z9.72549 F1000
G01 X38.5 Y-19.944444 Z9.607843 F1000
G01 X38.388889 Y-19.944444 Z9.215686 F1000
G01 X38.277778 Y-19.944444 Z8.862745 F1000
G01 X38.166667 Y-19.944444 Z9.137255 F1000
G01 X38.055556 Y-19.944444 Z9.411765 F1000
G01 X37.944444 Y-19.944444 Z9.647059 F1000
G01 X37.833333 Y-19.944444 Z9.803922 F1000
G01 X37.722222 Y-19.944444 Z9.960784 F1000
G01 X37.277778 Y-19.944444 Z9.960784 F1000
G01 X37.166667 Y-19.944444 Z10 F1000
G01 X35.166667 Y-19.944444 Z10 F1000
G01 X35.055556 Y-19.944444 Z9.960784 F1000
G01 X34.388889 Y-19.944444 Z9.960784 F1000
G01 X34.277778 Y-19.944444 Z10 F1000
G01 X33.388889 Y-19.944444 Z10 F1000
G01 X33.277778 Y-19.944444 Z9.960784 F1000
G01 X32.722222 Y-19.944444 Z9.960784 F1000
G01 X32.611111 Y-19.944444 Z9.882353 F1000
G01 X32.5 Y-19.944444 Z9.843137 F1000
G01 X32.388889 Y-19.944444 Z9.333333 F1000
G01 X32.277778 Y-19.944444 Z9.294118 F1000
G01 X32.166667 Y-19.944444 Z8.784314 F1000
G01 X32.055556 Y-19.944444 Z6.823529 F1000
G01 X31.944444 Y-19.944444 Z7.882353 F1000
G01 X31.055556 Y-19.944444 Z7.882353 F1000
G01 X30.944444 Y-19.944444 Z7.843137 F1000
G01 X30.166667 Y-19.944444 Z7.843137 F1000
G01 X30.055556 Y-19.944444 Z7.45098 F1000
G01 X29.944444 Y-19.944444 Z5.019608 F1000
G01 X29.833333 Y-19.944444 Z4.470588 F1000
G01 X29.722222 Y-19.944444 Z4.588235 F1000
G01 X29.611111 Y-19.944444 Z4.588235 F1000
G01 X29.5 Y-19.944444 Z7.372549 F1000
G01 X29.388889 Y-19.944444 Z9.411765 F1000
G01 X29.277778 Y-19.944444 Z9.843137 F1000
G01 X29.055556 Y-19.944444 Z9.843137 F1000
G01 X28.944444 Y-19.944444 Z9.960784 F1000
G01 X28.833333 Y-19.944444 Z10 F1000
G01 X21.944444 Y-19.944444 Z10 F1000
G01 X21.833333 Y-19.944444 Z9.960784 F1000
G01 X21.722222 Y-19.944444 Z9.960784 F1000
G01 X21.611111 Y-19.944444 Z9.921569 F1000
G01 X21.5 Y-19.944444 Z9.176471 F1000
G01 X21.388889 Y-19.944444 Z7.372549 F1000
G01 X20.944444 Y-19.944444 Z7.372549 F1000
G01 X20.833333 Y-19.944444 Z7.098039 F1000
G01 X20.388889 Y-19.944444 Z7.098039 F1000
G01 X20.277778 Y-19.944444 Z6.901961 F1000
G01 X20.166667 Y-19.944444 Z6.862745 F1000
G01 X19.833333 Y-19.944444 Z6.862745 F1000
G01 X19.722222 Y-19.944444 Z6.901961 F1000
G01 X19.611111 Y-19.944444 Z7.176471 F1000
G01 X19.388889 Y-19.944444 Z7.176471 F1000
G01 X19.277778 Y-19.944444 Z7.215686 F1000
G01 X18.944444 Y-19.944444 Z7.215686 F1000
G01 X18.833333 Y-19.944444 Z7.254902 F1000
G01 X18.722222 Y-19.944444 Z7.764706 F1000
G01 X17.833333 Y-19.944444 Z7.764706 F1000
G01 X17.722222 Y-19.944444 Z6.627451 F1000
G01 X17.611111 Y-19.944444 Z6.156863 F1000
G01 X17.5 Y-19.944444 Z5.960784 F1000
G01 X17.166667 Y-19.944444 Z5.960784 F1000
G01 X17.055556 Y-19.944444 Z5.294118 F1000
G01 X16.944444 Y-19.944444 Z4.54902 F1000
G01 X16.833333 Y-19.944444 Z4.54902 F1000
G01 X16.722222 Y-19.944444 Z4.588235 F1000
G01 X16.611111 Y-19.944444 Z4.627451 F1000
G01 X16.166667 Y-19.944444 Z4.627451 F1000
G01 X16.055556 Y-19.944444 Z5.490196 F1000
G01 X15.944444 Y-19.944444 Z8.745098 F1000
G01 X15.833333 Y-19.944444 Z9.843137 F1000
G01 X15.722222 Y-19.944444 Z9.882353 F1000
G01 X15.611111 Y-19.944444 Z9.921569 F1000
G01 X15.5 Y-19.944444 Z9.960784 F1000
G01 X15.055556 Y-19.944444 Z9.960784 F1000
G01 X14.944444 Y-19.944444 Z10 F1000
G01 X0.388889 Y-19.944444 Z10 F1000
G01 X0.388889 Y-20.055556 Z10 F1000
G01 X0.388889 Y-20.166667 Z10 F1000
G01 X0.388889 Y-20.277778 Z10 F1000
G01 X0.388889 Y-20.388889 Z10 F1000
G01 X0.388889 Y-20.5 Z10 F1000
G01 X11.055556 Y-20.5 Z10 F1000
G01 X11.166667 Y-20.5 Z9.960784 F1000
G01 X11.277778 Y-20.5 Z9.960784 F1000
G01 X11.388889 Y-20.5 Z10 F1000
G01 X12.944444 Y-20.5 Z10 F1000
G01 X13.055556 Y-20.5 Z9.960784 F1000
G01 X13.388889 Y-20.5 Z9.960784 F1000
G01 X13.5 Y-20.5 Z9.921569 F1000
G01 X13.722222 Y-20.5 Z9.921569 F1000
G01 X13.833333 Y-20.5 Z9.843137 F1000
G01 X13.944444 Y-20.5 Z9.803922 F1000
G01 X14.5 Y-20.5 Z9.803922 F1000
G01 X14.611111 Y-20.5 Z9.764706 F1000
G01 X14.722222 Y-20.5 Z8.509804 F1000
G01 X14.833333 Y-20.5 Z7.764706 F1000
G01 X14.944444 Y-20.5 Z7.803922 F1000
G01 X15.833333 Y-20.5 Z7.803922 F1000
G01 X15.944444 Y-20.5 Z6.470588 F1000
G01 X16.055556 Y-20.5 Z4.588235 F1000
G01 X16.722222 Y-20.5 Z4.588235 F1000
G01 X16.833333 Y-20.5 Z4.54902 F1000
G01 X17.611111 Y-20.5 Z4.54902 F1000
G01 X17.722222 Y-20.5 Z6.509804 F1000
G01 X17.833333 Y-20.5 Z7.764706 F1000
G01 X18.722222 Y-20.5 Z7.764706 F1000
G01 X18.833333 Y-20.5 Z7.686275 F1000
G01 X19.055556 Y-20.5 Z7.686275 F1000
G01 X19.166667 Y-20.5 Z7.529412 F1000
G01 X19.388889 Y-20.5 Z7.529412 F1000
G01 X19.5 Y-20.5 Z7.72549 F1000
G01 X19.611111 Y-20.5 Z9.686275 F1000
G01 X19.722222 Y-20.5 Z9.843137 F1000
G01 X20.611111 Y-20.5 Z9.843137 F1000
G01 X20.722222 Y-20.5 Z7.921569 F1000
G01 X21.277778 Y-20.5 Z7.921569 F1000
G01 X21.388889 Y-20.5 Z6.039216 F1000
G01 X21.5 Y-20.5 Z6.27451 F1000
G01 X21.611111 Y-20.5 Z9.921569 F1000
G01 X21.833333 Y-20.5 Z9.921569 F1000
G01 X21.944444 Y-20.5 Z9.960784 F1000
G01 X23.055556 Y-20.5 Z9.960784 F1000
G01 X23.166667 Y-20.5 Z9.921569 F1000
G01 X23.277778 Y-20.5 Z9.921569 F1000
G01 X23.388889 Y-20.5 Z9.960784 F1000
G01 X23.5 Y-20.5 Z10 F1000
G01 X26.5 Y-20.5 Z10 F1000
G01 X26.611111 Y-20.5 Z9.960784 F1000
G01 X26.944444 Y-20.5 Z9.960784 F1000
G01 X27.055556 Y-20.5 Z9.921569 F1000
G01 X27.5 Y-20.5 Z9.921569 F1000
G01 X27.611111 Y-20.5 Z9.686275 F1000
G01 X27.722222 Y-20.5 Z8.509804 F1000
G01 X27.833333 Y-20.5 Z6.745098 F1000
G01 X27.944444 Y-20.5 Z5.45098 F1000
G01 X28.055556 Y-20.5 Z4.470588 F1000
G01 X28.722222 Y-20.5 Z4.470588 F1000
G01 X28.833333 Y-20.5 Z4.431373 F1000
G01 X29.055556 Y-20.5 Z4.431373 F1000
G01 X29.166667 Y-20.5 Z4.54902 F1000
G01 X29.722222 Y-20.5 Z4.54902 F1000
G01 X29.833333 Y-20.5 Z7.215686 F1000
G01 X29.944444 Y-20.5 Z7.764706 F1000
G01 X30.055556 Y-20.5 Z7.764706 F1000
G01 X30.166667 Y-20.5 Z7.843137 F1000
G01 X31.611111 Y-20.5 Z7.843137 F1000
G01 X31.722222 Y-20.5 Z7.568627 F1000
G01 X31.833333 Y-20.5 Z7.568627 F1000
G01 X31.944444 Y-20.5 Z4.705882 F1000
G01 X32.055556 Y-20.5 Z8.705882 F1000
G01 X32.166667 Y-20.5 Z9.254902 F1000
G01 X32.277778 Y-20.5 Z9.294118 F1000
G01 X33.166667 Y-20.5 Z9.294118 F1000
G01 X33.277778 Y-20.5 Z8.823529 F1000
G01 X33.722222 Y-20.5 Z8.823529 F1000
G01 X33.833333 Y-20.5 Z8.784314 F1000
G01 X34.166667 Y-20.5 Z8.784314 F1000
G01 X34.277778 Y-20.5 Z8.862745 F1000
G01 X34.833333 Y-20.5 Z8.862745 F1000
G01 X34.944444 Y-20.5 Z8.941176 F1000
G01 X35.055556 Y-20.5 Z9.019608 F1000
G01 X35.944444 Y-20.5 Z9.019608 F1000
G01 X36.055556 Y-20.5 Z9.098039 F1000
G01 X36.833333 Y-20.5 Z9.098039 F1000
G01 X36.944444 Y-20.5 Z9.411765 F1000
G01 X37.055556 Y-20.5 Z9.686275 F1000
G01 X37.166667 Y-20.5 Z9.764706 F1000
G01 X37.722222 Y-20.5 Z9.764706 F1000
G01 X37.833333 Y-20.5 Z9.803922 F1000
G01 X38.388889 Y-20.5 Z9.803922 F1000
G01 X38.5 Y-20.5 Z9.843137 F1000
G01 X38.611111 Y-20.5 Z9.843137 F1000
G01 X38.722222 Y-20.5 Z9.960784 F1000
G01 X39.166667 Y-20.5 Z9.960784 F1000
G01 X39.277778 Y-20.5 Z10 F1000
G01 X39.5 Y-20.5 Z10 F1000
G01 X39.5 Y-20.611111 Z10 F1000
G01 X39.5 Y-20.722222 Z10 F1000
G01 X39.5 Y-20.833333 Z10 F1000
G01 X39.5 Y-20.944444 Z10 F1000
G01 X39.5 Y-21.055556 Z10 F1000
G01 X37.055556 Y-21.055556 Z10 F1000
G01 X36.944444 Y-21.055556 Z9.882353 F1000
G01 X36.833333 Y-21.055556 Z9.72549 F1000
G01 X36.277778 Y-21.055556 Z9.72549 F1000
G01 X36.166667 Y-21.055556 Z9.686275 F1000
G01 X36.055556 Y-21.055556 Z9.647059 F1000
G01 X35.944444 Y-21.055556 Z9.411765 F1000
G01 X35.611111 Y-21.055556 Z9.411765 F1000
G01 X35.5 Y-21.055556 Z9.686275 F1000
G01 X35.388889 Y-21.055556 Z9.843137 F1000
G01 X34.277778 Y-21.055556 Z9.843137 F1000
G01 X34.166667 Y-21.055556 Z9.45098 F1000
G01 X34.055556 Y-21.055556 Z9.098039 F1000
G01 X33.833333 Y-21.055556 Z9.098039 F1000
G01 X33.722222 Y-21.055556 Z9.137255 F1000
G01 X33.5 Y-21.055556 Z9.137255 F1000
G01 X33.388889 Y-21.055556 Z9.176471 F1000
G01 X33.166667 Y-21.055556 Z9.176471 F1000
G01 X33.055556 Y-21.055556 Z9.254902 F1000
G01 X32.944444 Y-21.055556 Z9.45098 F1000
G01 X32.055556 Y-21.055556 Z9.45098 F1000
G01 X31.944444 Y-21.055556 Z6.196078 F1000
G01 X31.833333 Y-21.055556 Z4.627451 F1000
G01 X31.722222 Y-21.055556 Z5.333333 F1000
G01 X31.611111 Y-21.055556 Z7.568627 F1000
G01 X31.5 Y-21.055556 Z7.764706 F1000
G01 X31.277778 Y-21.055556 Z7.764706 F1000
G01 X31.166667 Y-21.055556 Z7.843137 F1000
G01 X30.277778 Y-21.055556 Z7.843137 F1000
G01 X30.166667 Y-21.055556 Z7.764706 F1000
G01 X29.944444 Y-21.055556 Z7.764706 F1000
G01 X29.833333 Y-21.055556 Z7.72549 F1000
G01 X29.722222 Y-21.055556 Z7.72549 F1000
G01 X29.611111 Y-21.055556 Z5.372549 F1000
G01 X29.5 Y-21.055556 Z4.588235 F1000
G01 X29.166667 Y-21.055556 Z4.588235 F1000
G01 X29.055556 Y-21.055556 Z4.470588 F1000
G01 X28.388889 Y-21.055556 Z4.470588 F1000
G01 X28.277778 Y-21.055556 Z4.392157 F1000
G01 X28.166667 Y-21.055556 Z4.313725 F1000
G01 X28.055556 Y-21.055556 Z4.313725 F1000
G01 X27.944444 Y-21.055556 Z4.392157 F1000
G01 X27.722222 Y-21.055556 Z4.392157 F1000
G01 X27.611111 Y-21.055556 Z4.431373 F1000
G01 X27.166667 Y-21.055556 Z4.431373 F1000
G01 X27.055556 Y-21.055556 Z4.54902 F1000
G01 X26.277778 Y-21.055556 Z4.54902 F1000
G01 X26.166667 Y-21.055556 Z4.588235 F1000
G01 X25.166667 Y-21.055556 Z4.588235 F1000
G01 X25.055556 Y-21.055556 Z4.509804 F1000
G01 X24.944444 Y-21.055556 Z6.784314 F1000
G01 X24.833333 Y-21.055556 Z7.333333 F1000
G01 X24.722222 Y-21.055556 Z8.078431 F1000
G01 X23.833333 Y-21.055556 Z8.078431 F1000
G01 X23.722222 Y-21.055556 Z7.882353 F1000
G01 X23.166667 Y-21.055556 Z7.882353 F1000
G01 X23.055556 Y-21.055556 Z7.72549 F1000
G01 X22.833333 Y-21.055556 Z7.72549 F1000
G01 X22.722222 Y-21.055556 Z7.411765 F1000
G01 X22.611111 Y-21.055556 Z7.411765 F1000
G01 X22.5 Y-21.055556 Z7.215686 F1000
G01 X22.388889 Y-21.055556 Z7.215686 F1000
G01 X22.277778 Y-21.055556 Z5.490196 F1000
G01 X22.166667 Y-21.055556 Z3.647059 F1000
G01 X22.055556 Y-21.055556 Z3.647059 F1000
G01 X21.944444 Y-21.055556 Z3.490196 F1000
G01 X21.833333 Y-21.055556 Z3.490196 F1000
G01 X21.722222 Y-21.055556 Z3.647059 F1000
G01 X21.5 Y-21.055556 Z3.647059 F1000
G01 X21.388889 Y-21.055556 Z3.72549 F1000
G01 X21.277778 Y-21.055556 Z8.54902 F1000
G01 X20.722222 Y-21.055556 Z8.54902 F1000
G01 X20.611111 Y-21.055556 Z9.607843 F1000
G01 X20.5 Y-21.055556 Z9.686275 F1000
G01 X19.611111 Y-21.055556 Z9.686275 F1000
G01 X19.5 Y-21.055556 Z8.196078 F1000
G01 X19.388889 Y-21.055556 Z8.470588 F1000
G01 X18.5 Y-21.055556 Z8.470588 F1000
G01 X18.388889 Y-21.055556 Z7.921569 F1000
G01 X18.277778 Y-21.055556 Z7.921569 F1000
G01 X18.166667 Y-21.055556 Z7.686275 F1000
G01 X18.055556 Y-21.055556 Z7.647059 F1000
G01 X17.944444 Y-21.055556 Z7.647059 F1000
G01 X17.833333 Y-21.055556 Z4.666667 F1000
G01 X16.722222 Y-21.055556 Z4.666667 F1000
G01 X16.611111 Y-21.055556 Z6.823529 F1000
G01 X16.5 Y-21.055556 Z7.529412 F1000
G01 X16.388889 Y-21.055556 Z7.843137 F1000
G01 X15.944444 Y-21.055556 Z7.843137 F1000
G01 X15.833333 Y-21.055556 Z8.039216 F1000
G01 X14.944444 Y-21.055556 Z8.039216 F1000
G01 X14.833333 Y-21.055556 Z7.803922 F1000
G01 X14.722222 Y-21.055556 Z7.803922 F1000
G01 X14.611111 Y-21.055556 Z8 F1000
G01 X13.722222 Y-21.055556 Z8 F1000
G01 X13.611111 Y-21.055556 Z7.882353 F1000
G01 X13.388889 Y-21.055556 Z7.882353 F1000
G01 X13.277778 Y-21.055556 Z8.745098 F1000
G01 X13.166667 Y-21.055556 Z9.568627 F1000
G01 X13.055556 Y-21.055556 Z9.686275 F1000
G01 X12.944444 Y-21.055556 Z9.686275 F1000
G01 X12.833333 Y-21.055556 Z9.764706 F1000
G01 X12.722222 Y-21.055556 Z9.803922 F1000
G01 X12.611111 Y-21.055556 Z9.843137 F1000
G01 X12.5 Y-21.055556 Z9.882353 F1000
G01 X12.388889 Y-21.055556 Z9.960784 F1000
G01 X12.277778 Y-21.055556 Z10 F1000
G01 X11.388889 Y-21.055556 Z10 F1000
G01 X11.277778 Y-21.055556 Z9.960784 F1000
G01 X11.166667 Y-21.055556 Z9.960784 F1000
G01 X11.055556 Y-21.055556 Z10 F1000
G01 X0.388889 Y-21.055556 Z10 F1000
G01 X0.388889 Y-21.166667 Z10 F1000
G01 X0.388889 Y-21.277778 Z10 F1000
G01 X0.388889 Y-21.388889 Z10 F1000
G01 X0.388889 Y-21.5 Z10 F1000
G01 X0.388889 Y-21.611111 Z10 F1000
G01 X9.277778 Y-21.611111 Z10 F1000
G01 X9.388889 Y-21.611111 Z9.960784 F1000
G01 X9.5 Y-21.611111 Z10 F1000
G01 X10.833333 Y-21.611111 Z10 F1000
G01 X10.944444 Y-21.611111 Z9.921569 F1000
G01 X11.166667 Y-21.611111 Z9.921569 F1000
G01 X11.277778 Y-21.611111 Z9.764706 F1000
G01 X11.388889 Y-21.611111 Z8.666667 F1000
G01 X11.5 Y-21.611111 Z6.745098 F1000
G01 X11.611111 Y-21.611111 Z4.666667 F1000
G01 X11.722222 Y-21.611111 Z4.470588 F1000
G01 X11.944444 Y-21.611111 Z4.470588 F1000
G01 X12.055556 Y-21.611111 Z4.54902 F1000
G01 X12.944444 Y-21.611111 Z4.54902 F1000
G01 X13.055556 Y-21.611111 Z4.509804 F1000
G01 X13.277778 Y-21.611111 Z4.509804 F1000
G01 X13.388889 Y-21.611111 Z4.54902 F1000
G01 X13.5 Y-21.611111 Z4.54902 F1000
G01 X13.611111 Y-21.611111 Z4.627451 F1000
G01 X13.722222 Y-21.611111 Z4.823529 F1000
G01 X13.833333 Y-21.611111 Z4.823529 F1000
G01 X13.944444 Y-21.611111 Z5.372549 F1000
G01 X14.055556 Y-21.611111 Z6.431373 F1000
G01 X14.166667 Y-21.611111 Z7.019608 F1000
G01 X14.277778 Y-21.611111 Z7.254902 F1000
G01 X14.388889 Y-21.611111 Z7.411765 F1000
G01 X14.5 Y-21.611111 Z7.490196 F1000
G01 X14.611111 Y-21.611111 Z7.72549 F1000
G01 X14.722222 Y-21.611111 Z7.803922 F1000
G01 X14.833333 Y-21.611111 Z7.803922 F1000
G01 X14.944444 Y-21.611111 Z8.039216 F1000
G01 X15.611111 Y-21.611111 Z8.039216 F1000
G01 X15.722222 Y-21.611111 Z8.117647 F1000
G01 X16.611111 Y-21.611111 Z8.117647 F1000
G01 X16.722222 Y-21.611111 Z7.960784 F1000
G01 X16.833333 Y-21.611111 Z6.627451 F1000
G01 X16.944444 Y-21.611111 Z5.882353 F1000
G01 X17.055556 Y-21.611111 Z5.529412 F1000
G01 X17.166667 Y-21.611111 Z5.058824 F1000
G01 X18.055556 Y-21.611111 Z5.058824 F1000
G01 X18.166667 Y-21.611111 Z4.705882 F1000
G01 X18.277778 Y-21.611111 Z7.019608 F1000
G01 X18.388889 Y-21.611111 Z7.568627 F1000
G01 X18.5 Y-21.611111 Z8.470588 F1000
G01 X19.388889 Y-21.611111 Z8.470588 F1000
G01 X19.5 Y-21.611111 Z8.431373 F1000
G01 X19.611111 Y-21.611111 Z8.980392 F1000
G01 X20.5 Y-21.611111 Z8.980392 F1000
G01 X20.611111 Y-21.611111 Z8.784314 F1000
G01 X21.166667 Y-21.611111 Z8.784314 F1000
G01 X21.277778 Y-21.611111 Z8.54902 F1000
G01 X21.388889 Y-21.611111 Z4.54902 F1000
G01 X21.611111 Y-21.611111 Z4.54902 F1000
G01 X21.722222 Y-21.611111 Z4.705882 F1000
G01 X21.833333 Y-21.611111 Z6.313725 F1000
G01 X21.944444 Y-21.611111 Z8.313725 F1000
G01 X22.833333 Y-21.611111 Z8.313725 F1000
G01 X22.944444 Y-21.611111 Z8 F1000
G01 X23.055556 Y-21.611111 Z7.960784 F1000
G01 X23.166667 Y-21.611111 Z7.960784 F1000
G01 X23.277778 Y-21.611111 Z7.882353 F1000
G01 X24.055556 Y-21.611111 Z7.882353 F1000
G01 X24.166667 Y-21.611111 Z7.803922 F1000
G01 X24.388889 Y-21.611111 Z7.803922 F1000
G01 X24.5 Y-21.611111 Z7.098039 F1000
G01 X24.611111 Y-21.611111 Z4.627451 F1000
G01 X24.722222 Y-21.611111 Z4.470588 F1000
G01 X24.944444 Y-21.611111 Z4.470588 F1000
G01 X25.055556 Y-21.611111 Z4.509804 F1000
G01 X25.166667 Y-21.611111 Z4.588235 F1000
G01 X26.166667 Y-21.611111 Z4.588235 F1000
G01 X26.277778 Y-21.611111 Z4.392157 F1000
G01 X26.611111 Y-21.611111 Z4.392157 F1000
G01 X26.722222 Y-21.611111 Z4.352941 F1000
G01 X26.833333 Y-21.611111 Z4.392157 F1000
G01 X27.944444 Y-21.611111 Z4.392157 F1000
G01 X28.055556 Y-21.611111 Z4.313725 F1000
G01 X28.166667 Y-21.611111 Z4.313725 F1000
G01 X28.277778 Y-21.611111 Z4.392157 F1000
G01 X28.388889 Y-21.611111 Z4.470588 F1000
G01 X29.055556 Y-21.611111 Z4.470588 F1000
G01 X29.166667 Y-21.611111 Z4.54902 F1000
G01 X29.388889 Y-21.611111 Z4.54902 F1000
G01 X29.5 Y-21.611111 Z6.431373 F1000
G01 X29.611111 Y-21.611111 Z8.039216 F1000
G01 X30.5 Y-21.611111 Z8.039216 F1000
G01 X30.611111 Y-21.611111 Z7.843137 F1000
G01 X30.722222 Y-21.611111 Z7.843137 F1000
G01 X30.833333 Y-21.611111 Z7.72549 F1000
G01 X31.055556 Y-21.611111 Z7.72549 F1000
G01 X31.166667 Y-21.611111 Z7.686275 F1000
G01 X31.277778 Y-21.611111 Z7.686275 F1000
G01 X31.388889 Y-21.611111 Z7.647059 F1000
G01 X31.5 Y-21.611111 Z6.705882 F1000
G01 X31.611111 Y-21.611111 Z4.627451 F1000
G01 X31.833333 Y-21.611111 Z4.627451 F1000
G01 X31.944444 Y-21.611111 Z8.823529 F1000
G01 X32.055556 Y-21.611111 Z9.45098 F1000
G01 X32.833333 Y-21.611111 Z9.45098 F1000
G01 X32.944444 Y-21.611111 Z9.529412 F1000
G01 X33.055556 Y-21.611111 Z9.568627 F1000
G01 X33.388889 Y-21.611111 Z9.568627 F1000
G01 X33.5 Y-21.611111 Z9.72549 F1000
G01 X33.944444 Y-21.611111 Z9.72549 F1000
G01 X34.055556 Y-21.611111 Z9.764706 F1000
G01 X34.166667 Y-21.611111 Z9.764706 F1000
G01 X34.277778 Y-21.611111 Z9.843137 F1000
G01 X34.5 Y-21.611111 Z9.843137 F1000
G01 X34.611111 Y-21.611111 Z9.921569 F1000
G01 X34.722222 Y-21.611111 Z9.921569 F1000
G01 X34.833333 Y-21.611111 Z10 F1000
G01 X35.722222 Y-21.611111 Z10 F1000
G01 X35.833333 Y-21.611111 Z9.960784 F1000
G01 X36.833333 Y-21.611111 Z9.960784 F1000
G01 X36.944444 Y-21.611111 Z10 F1000
G01 X39.5 Y-21.611111 Z10 F1000
G01 X39.5 Y-21.722222 Z10 F1000
G01 X39.5 Y-21.833333 Z10 F1000
G01 X39.5 Y-21.944444 Z10 F1000
G01 X39.5 Y-22.055556 Z10 F1000
G01 X39.5 Y-22.166667 Z10 F1000
G01 X34.611111 Y-22.166667 Z10 F1000
G01 X34.5 Y-22.166667 Z9.921569 F1000
G01 X34.388889 Y-22.166667 Z9.72549 F1000
G01 X33.611111 Y-22.166667 Z9.72549 F1000
G01 X33.5 Y-22.166667 Z9.764706 F1000
G01 X32.388889 Y-22.166667 Z9.764706 F1000
G01 X32.277778 Y-22.166667 Z9.72549 F1000
G01 X32.055556 Y-22.166667 Z9.72549 F1000
G01 X31.944444 Y-22.166667 Z8.862745 F1000
G01 X31.833333 Y-22.166667 Z3.294118 F1000
G01 X31.722222 Y-22.166667 Z3.294118 F1000
G01 X31.611111 Y-22.166667 Z3.803922 F1000
G01 X31.5 Y-22.166667 Z3.803922 F1000
G01 X31.388889 Y-22.166667 Z6.27451 F1000
G01 X31.277778 Y-22.166667 Z7.607843 F1000
G01 X31.166667 Y-22.166667 Z7.607843 F1000
G01 X31.055556 Y-22.166667 Z7.686275 F1000
G01 X30.944444 Y-22.166667 Z7.72549 F1000
G01 X30.833333 Y-22.166667 Z7.72549 F1000
G01 X30.722222 Y-22.166667 Z7.843137 F1000
G01 X30.611111 Y-22.166667 Z7.843137 F1000
G01 X30.5 Y-22.166667 Z8.039216 F1000
G01 X29.611111 Y-22.166667 Z8.039216 F1000
G01 X29.5 Y-22.166667 Z6.941176 F1000
G01 X29.388889 Y-22.166667 Z4.54902 F1000
G01 X28.5 Y-22.166667 Z4.54902 F1000
G01 X28.388889 Y-22.166667 Z4.509804 F1000
G01 X28.055556 Y-22.166667 Z4.509804 F1000
G01 X27.944444 Y-22.166667 Z4.431373 F1000
G01 X27.833333 Y-22.166667 Z4.392157 F1000
G01 X27.722222 Y-22.166667 Z4.352941 F1000
G01 X27.611111 Y-22.166667 Z4.313725 F1000
G01 X26.277778 Y-22.166667 Z4.313725 F1000
G01 X26.166667 Y-22.166667 Z4.235294 F1000
G01 X25.5 Y-22.166667 Z4.235294 F1000
G01 X25.388889 Y-22.166667 Z4.313725 F1000
G01 X25.277778 Y-22.166667 Z4.470588 F1000
G01 X24.5 Y-22.166667 Z4.470588 F1000
G01 X24.388889 Y-22.166667 Z4.54902 F1000
G01 X24.166667 Y-22.166667 Z4.54902 F1000
G01 X24.055556 Y-22.166667 Z4.705882 F1000
G01 X23.944444 Y-22.166667 Z4.705882 F1000
G01 X23.833333 Y-22.166667 Z6.039216 F1000
G01 X23.722222 Y-22.166667 Z7.764706 F1000
G01 X23.5 Y-22.166667 Z7.764706 F1000
G01 X23.388889 Y-22.166667 Z7.803922 F1000
G01 X23.277778 Y-22.166667 Z7.803922 F1000
G01 X23.166667 Y-22.166667 Z7.960784 F1000
G01 X23.055556 Y-22.166667 Z7.960784 F1000
G01 X22.944444 Y-22.166667 Z8 F1000
G01 X22.833333 Y-22.166667 Z8.313725 F1000
G01 X22.611111 Y-22.166667 Z8.313725 F1000
G01 X22.5 Y-22.166667 Z8.509804 F1000
G01 X21.611111 Y-22.166667 Z8.509804 F1000
G01 X21.5 Y-22.166667 Z5.607843 F1000
G01 X21.388889 Y-22.166667 Z4.54902 F1000
G01 X21.277778 Y-22.166667 Z6.980392 F1000
G01 X21.166667 Y-22.166667 Z8.784314 F1000
G01 X21.055556 Y-22.166667 Z9.019608 F1000
G01 X20.166667 Y-22.166667 Z9.019608 F1000
G01 X20.055556 Y-22.166667 Z8.823529 F1000
G01 X19.944444 Y-22.166667 Z8.745098 F1000
G01 X19.166667 Y-22.166667 Z8.745098 F1000
G01 X19.055556 Y-22.166667 Z8.627451 F1000
G01 X18.944444 Y-22.166667 Z8.431373 F1000
G01 X18.722222 Y-22.166667 Z8.431373 F1000
G01 X18.611111 Y-22.166667 Z4.470588 F1000
G01 X18.277778 Y-22.166667 Z4.470588 F1000
G01 X18.166667 Y-22.166667 Z5.098039 F1000
G01 X17.388889 Y-22.166667 Z5.098039 F1000
G01 X17.277778 Y-22.166667 Z6.078431 F1000
G01 X17.166667 Y-22.166667 Z7.176471 F1000
G01 X16.833333 Y-22.166667 Z7.176471 F1000
G01 X16.722222 Y-22.166667 Z7.960784 F1000
G01 X15.833333 Y-22.166667 Z7.960784 F1000
G01 X15.722222 Y-22.166667 Z7.764706 F1000
G01 X15.611111 Y-22.166667 Z7.647059 F1000
G01 X15.277778 Y-22.166667 Z7.647059 F1000
G01 X15.166667 Y-22.166667 Z6.313725 F1000
G01 X15.055556 Y-22.166667 Z4.666667 F1000
G01 X14.611111 Y-22.166667 Z4.666667 F1000
G01 X14.5 Y-22.166667 Z4.588235 F1000
G01 X13.833333 Y-22.166667 Z4.588235 F1000
G01 X13.722222 Y-22.166667 Z4.54902 F1000
G01 X12.944444 Y-22.166667 Z4.54902 F1000
G01 X12.833333 Y-22.166667 Z4.431373 F1000
G01 X12.055556 Y-22.166667 Z4.431373 F1000
G01 X11.944444 Y-22.166667 Z4.470588 F1000
G01 X11.166667 Y-22.166667 Z4.470588 F1000
G01 X11.055556 Y-22.166667 Z4.54902 F1000
G01 X9.722222 Y-22.166667 Z4.54902 F1000
G01 X9.611111 Y-22.166667 Z5.137255 F1000
G01 X9.5 Y-22.166667 Z7.294118 F1000
G01 X9.388889 Y-22.166667 Z8.941176 F1000
G01 X9.277778 Y-22.166667 Z9.882353 F1000
G01 X9.166667 Y-22.166667 Z9.921569 F1000
G01 X8.611111 Y-22.166667 Z9.921569 F1000
G01 X8.5 Y-22.166667 Z9.960784 F1000
G01 X8.388889 Y-22.166667 Z10 F1000
G01 X0.388889 Y-22.166667 Z10 F1000
G01 X0.388889 Y-22.277778 Z10 F1000
G01 X0.388889 Y-22.388889 Z10 F1000
G01 X0.388889 Y-22.5 Z10 F1000
G01 X0.388889 Y-22.611111 Z10 F1000
G01 X0.388889 Y-22.722222 Z10 F1000
G01 X7.166667 Y-22.722222 Z10 F1000
G01 X7.277778 Y-22.722222 Z9.960784 F1000
G01 X7.388889 Y-22.722222 Z9.921569 F1000
G01 X7.5 Y-22.722222 Z9.882353 F1000
G01 X7.611111 Y-22.722222 Z9.803922 F1000
G01 X7.722222 Y-22.722222 Z9.803922 F1000
G01 X7.833333 Y-22.722222 Z9.098039 F1000
G01 X7.944444 Y-22.722222 Z6.509804 F1000
G01 X8.055556 Y-22.722222 Z4.823529 F1000
G01 X8.166667 Y-22.722222 Z4.823529 F1000
G01 X8.277778 Y-22.722222 Z4.666667 F1000
G01 X8.388889 Y-22.722222 Z4.666667 F1000
G01 X8.5 Y-22.722222 Z4.470588 F1000
G01 X9.277778 Y-22.722222 Z4.470588 F1000
G01 X9.388889 Y-22.722222 Z4.588235 F1000
G01 X10.277778 Y-22.722222 Z4.588235 F1000
G01 X10.388889 Y-22.722222 Z4.392157 F1000
G01 X11.055556 Y-22.722222 Z4.392157 F1000
G01 X11.166667 Y-22.722222 Z4.54902 F1000
G01 X12.055556 Y-22.722222 Z4.54902 F1000
G01 X12.166667 Y-22.722222 Z4.431373 F1000
G01 X12.833333 Y-22.722222 Z4.431373 F1000
G01 X12.944444 Y-22.722222 Z4.54902 F1000
G01 X13.833333 Y-22.722222 Z4.54902 F1000
G01 X13.944444 Y-22.722222 Z4.470588 F1000
G01 X14.055556 Y-22.722222 Z4.431373 F1000
G01 X14.388889 Y-22.722222 Z4.431373 F1000
G01 X14.5 Y-22.722222 Z4.392157 F1000
G01 X14.611111 Y-22.722222 Z4.352941 F1000
G01 X14.722222 Y-22.722222 Z4.352941 F1000
G01 X14.833333 Y-22.722222 Z4.313725 F1000
G01 X14.944444 Y-22.722222 Z4.313725 F1000
G01 X15.055556 Y-22.722222 Z4.196078 F1000
G01 X15.166667 Y-22.722222 Z3.921569 F1000
G01 X15.277778 Y-22.722222 Z3.529412 F1000
G01 X15.388889 Y-22.722222 Z3.176471 F1000
G01 X15.5 Y-22.722222 Z3.019608 F1000
G01 X15.611111 Y-22.722222 Z3.72549 F1000
G01 X15.722222 Y-22.722222 Z3.72549 F1000
G01 X15.833333 Y-22.722222 Z4.431373 F1000
G01 X15.944444 Y-22.722222 Z5.529412 F1000
G01 X16.055556 Y-22.722222 Z6.156863 F1000
G01 X16.166667 Y-22.722222 Z6.313725 F1000
G01 X16.277778 Y-22.722222 Z7.176471 F1000
G01 X17.166667 Y-22.722222 Z7.176471 F1000
G01 X17.277778 Y-22.722222 Z6.078431 F1000
G01 X17.388889 Y-22.722222 Z4.784314 F1000
G01 X18.166667 Y-22.722222 Z4.784314 F1000
G01 X18.277778 Y-22.722222 Z4.470588 F1000
G01 X18.388889 Y-22.722222 Z4.705882 F1000
G01 X18.833333 Y-22.722222 Z4.705882 F1000
G01 X18.944444 Y-22.722222 Z5.058824 F1000
G01 X19.055556 Y-22.722222 Z8.627451 F1000
G01 X19.166667 Y-22.722222 Z8.745098 F1000
G01 X19.277778 Y-22.722222 Z8.745098 F1000
G01 X19.388889 Y-22.722222 Z9.058824 F1000
G01 X19.611111 Y-22.722222 Z9.058824 F1000
G01 X19.722222 Y-22.722222 Z9.098039 F1000
G01 X19.833333 Y-22.722222 Z9.254902 F1000
G01 X20.722222 Y-22.722222 Z9.254902 F1000
G01 X20.833333 Y-22.722222 Z9.176471 F1000
G01 X20.944444 Y-22.722222 Z9.019608 F1000
G01 X21.055556 Y-22.722222 Z9.019608 F1000
G01 X21.166667 Y-22.722222 Z6.509804 F1000
G01 X21.277778 Y-22.722222 Z5.019608 F1000
G01 X21.388889 Y-22.722222 Z5.019608 F1000
G01 X21.5 Y-22.722222 Z5.607843 F1000
G01 X21.611111 Y-22.722222 Z8.509804 F1000
G01 X22.5 Y-22.722222 Z8.509804 F1000
G01 X22.611111 Y-22.722222 Z8.078431 F1000
G01 X22.722222 Y-22.722222 Z8.078431 F1000
G01 X22.833333 Y-22.722222 Z7.960784 F1000
G01 X22.944444 Y-22.722222 Z7.843137 F1000
G01 X23.055556 Y-22.722222 Z7.686275 F1000
G01 X23.166667 Y-22.722222 Z7.686275 F1000
G01 X23.277778 Y-22.722222 Z5.294118 F1000
G01 X23.388889 Y-22.722222 Z4.588235 F1000
G01 X23.5 Y-22.722222 Z4.588235 F1000
G01 X23.611111 Y-22.722222 Z4.352941 F1000
G01 X23.722222 Y-22.722222 Z4.392157 F1000
G01 X24.166667 Y-22.722222 Z4.392157 F1000
G01 X24.277778 Y-22.722222 Z4.431373 F1000
G01 X25.277778 Y-22.722222 Z4.431373 F1000
G01 X25.388889 Y-22.722222 Z4.313725 F1000
G01 X25.611111 Y-22.722222 Z4.313725 F1000
G01 X25.722222 Y-22.722222 Z4.392157 F1000
G01 X25.833333 Y-22.722222 Z4.509804 F1000
G01 X26.722222 Y-22.722222 Z4.509804 F1000
G01 X26.833333 Y-22.722222 Z4.470588 F1000
G01 X26.944444 Y-22.722222 Z4.392157 F1000
G01 X27.055556 Y-22.722222 Z4.431373 F1000
G01 X27.944444 Y-22.722222 Z4.431373 F1000
G01 X28.055556 Y-22.722222 Z4.509804 F1000
G01 X28.388889 Y-22.722222 Z4.509804 F1000
G01 X28.5 Y-22.722222 Z4.54902 F1000
G01 X29.277778 Y-22.722222 Z4.54902 F1000
G01 X29.388889 Y-22.722222 Z5.843137 F1000
G01 X29.5 Y-22.722222 Z6.392157 F1000
G01 X30.611111 Y-22.722222 Z6.392157 F1000
G01 X30.722222 Y-22.722222 Z6.313725 F1000
G01 X31.166667 Y-22.722222 Z6.313725 F1000
G01 X31.277778 Y-22.722222 Z5.921569 F1000
G01 X31.388889 Y-22.722222 Z3.764706 F1000
G01 X31.5 Y-22.722222 Z3.568627 F1000
G01 X31.611111 Y-22.722222 Z3.372549 F1000
G01 X31.833333 Y-22.722222 Z3.372549 F1000
G01 X31.944444 Y-22.722222 Z8.862745 F1000
G01 X32.055556 Y-22.722222 Z9.72549 F1000
G01 X32.277778 Y-22.722222 Z9.72549 F1000
G01 X32.388889 Y-22.722222 Z9.764706 F1000
G01 X33.5 Y-22.722222 Z9.764706 F1000
G01 X33.611111 Y-22.722222 Z9.529412 F1000
G01 X33.722222 Y-22.722222 Z8.196078 F1000
G01 X33.833333 Y-22.722222 Z6.235294 F1000
G01 X33.944444 Y-22.722222 Z4.705882 F1000
G01 X34.055556 Y-22.722222 Z4.078431 F1000
G01 X34.166667 Y-22.722222 Z8.313725 F1000
G01 X34.277778 Y-22.722222 Z9.960784 F1000
G01 X34.388889 Y-22.722222 Z10 F1000
G01 X39.5 Y-22.722222 Z10 F1000
G01 X39.5 Y-22.833333 Z10 F1000
G01 X39.5 Y-22.944444 Z10 F1000
G01 X39.5 Y-23.055556 Z10 F1000
G01 X39.5 Y-23.166667 Z10 F1000
G01 X39.5 Y-23.277778 Z10 F1000
G01 X34.277778 Y-23.277778 Z10 F1000
G01 X34.166667 Y-23.277778 Z9.960784 F1000
G01 X34.055556 Y-23.277778 Z9.960784 F1000
G01 X33.944444 Y-23.277778 Z9.882353 F1000
G01 X33.833333 Y-23.277778 Z9.764706 F1000
G01 X33.722222 Y-23.277778 Z5.882353 F1000
G01 X33.611111 Y-23.277778 Z3.019608 F1000
G01 X33.5 Y-23.277778 Z3.019608 F1000
G01 X33.388889 Y-23.277778 Z2.666667 F1000
G01 X32.944444 Y-23.277778 Z2.666667 F1000
G01 X32.833333 Y-23.277778 Z3.098039 F1000
G01 X32.722222 Y-23.277778 Z3.137255 F1000
G01 X32.611111 Y-23.277778 Z3.294118 F1000
G01 X31.611111 Y-23.277778 Z3.294118 F1000
G01 X31.5 Y-23.277778 Z3.568627 F1000
G01 X31.388889 Y-23.277778 Z5.568627 F1000
G01 X31.277778 Y-23.277778 Z6.705882 F1000
G01 X31.166667 Y-23.277778 Z6.823529 F1000
G01 X30.833333 Y-23.277778 Z6.823529 F1000
G01 X30.722222 Y-23.277778 Z6.980392 F1000
G01 X29.833333 Y-23.277778 Z6.980392 F1000
G01 X29.722222 Y-23.277778 Z6.784314 F1000
G01 X29.5 Y-23.277778 Z6.784314 F1000
G01 X29.388889 Y-23.277778 Z5.882353 F1000
G01 X29.277778 Y-23.277778 Z3.803922 F1000
G01 X29.166667 Y-23.277778 Z3.803922 F1000
G01 X29.055556 Y-23.277778 Z3.176471 F1000
G01 X28.944444 Y-23.277778 Z3.294118 F1000
G01 X28.833333 Y-23.277778 Z3.294118 F1000
G01 X28.722222 Y-23.277778 Z3.45098 F1000
G01 X28.611111 Y-23.277778 Z3.686275 F1000
G01 X28.5 Y-23.277778 Z3.921569 F1000
G01 X28.388889 Y-23.277778 Z4.156863 F1000
G01 X28.277778 Y-23.277778 Z4.27451 F1000
G01 X28.166667 Y-23.277778 Z4.352941 F1000
G01 X28.055556 Y-23.277778 Z4.392157 F1000
G01 X27.944444 Y-23.277778 Z4.431373 F1000
G01 X27.055556 Y-23.277778 Z4.431373 F1000
G01 X26.944444 Y-23.277778 Z4.392157 F1000
G01 X26.833333 Y-23.277778 Z4.470588 F1000
G01 X26.722222 Y-23.277778 Z4.509804 F1000
G01 X25.833333 Y-23.277778 Z4.509804 F1000
G01 X25.722222 Y-23.277778 Z4.392157 F1000
G01 X25.611111 Y-23.277778 Z4.431373 F1000
G01 X25.5 Y-23.277778 Z4.470588 F1000
G01 X25.388889 Y-23.277778 Z4.509804 F1000
G01 X24.5 Y-23.277778 Z4.509804 F1000
G01 X24.388889 Y-23.277778 Z4.431373 F1000
G01 X23.277778 Y-23.277778 Z4.431373 F1000
G01 X23.166667 Y-23.277778 Z4.470588 F1000
G01 X23.055556 Y-23.277778 Z4.54902 F1000
G01 X22.944444 Y-23.277778 Z4.54902 F1000
G01 X22.833333 Y-23.277778 Z4.745098 F1000
G01 X22.722222 Y-23.277778 Z7.529412 F1000
G01 X21.833333 Y-23.277778 Z7.529412 F1000
G01 X21.722222 Y-23.277778 Z5.764706 F1000
G01 X21.611111 Y-23.277778 Z5.019608 F1000
G01 X21.055556 Y-23.277778 Z5.019608 F1000
G01 X20.944444 Y-23.277778 Z6.392157 F1000
G01 X20.833333 Y-23.277778 Z9.176471 F1000
G01 X20.722222 Y-23.277778 Z9.254902 F1000
G01 X20.611111 Y-23.277778 Z9.372549 F1000
G01 X20.5 Y-23.277778 Z9.882353 F1000
G01 X20.388889 Y-23.277778 Z9.882353 F1000
G01 X20.277778 Y-23.277778 Z9.921569 F1000
G01 X19.388889 Y-23.277778 Z9.921569 F1000
G01 X19.277778 Y-23.277778 Z8.705882 F1000
G01 X19.166667 Y-23.277778 Z7.019608 F1000
G01 X19.055556 Y-23.277778 Z4.980392 F1000
G01 X18.388889 Y-23.277778 Z4.980392 F1000
G01 X18.277778 Y-23.277778 Z4.117647 F1000
G01 X18.166667 Y-23.277778 Z4.54902 F1000
G01 X18.055556 Y-23.277778 Z4.745098 F1000
G01 X17.388889 Y-23.277778 Z4.745098 F1000
G01 X17.277778 Y-23.277778 Z4.784314 F1000
G01 X16.388889 Y-23.277778 Z4.784314 F1000
G01 X16.277778 Y-23.277778 Z4.27451 F1000
G01 X16.166667 Y-23.277778 Z2.980392 F1000
G01 X14.944444 Y-23.277778 Z2.980392 F1000
G01 X14.833333 Y-23.277778 Z3.098039 F1000
G01 X14.722222 Y-23.277778 Z3.137255 F1000
G01 X13.833333 Y-23.277778 Z3.137255 F1000
G01 X13.722222 Y-23.277778 Z3.215686 F1000
G01 X12.833333 Y-23.277778 Z3.215686 F1000
G01 X12.722222 Y-23.277778 Z3.176471 F1000
G01 X12.611111 Y-23.277778 Z3.333333 F1000
G01 X12.5 Y-23.277778 Z3.45098 F1000
G01 X12.388889 Y-23.277778 Z3.568627 F1000
G01 X12.277778 Y-23.277778 Z3.686275 F1000
G01 X12.166667 Y-23.277778 Z3.803922 F1000
G01 X12.055556 Y-23.277778 Z3.921569 F1000
G01 X11.944444 Y-23.277778 Z4.078431 F1000
G01 X11.833333 Y-23.277778 Z4.196078 F1000
G01 X11.722222 Y-23.277778 Z4.27451 F1000
G01 X11.611111 Y-23.277778 Z4.352941 F1000
G01 X11.5 Y-23.277778 Z4.392157 F1000
G01 X10.722222 Y-23.277778 Z4.392157 F1000
G01 X10.611111 Y-23.277778 Z4.470588 F1000
G01 X10.5 Y-23.277778 Z4.627451 F1000
G01 X10.388889 Y-23.277778 Z4.941176 F1000
G01 X9.5 Y-23.277778 Z4.941176 F1000
G01 X9.388889 Y-23.277778 Z4.588235 F1000
G01 X9.277778 Y-23.277778 Z4.313725 F1000
G01 X8.611111 Y-23.277778 Z4.313725 F1000
G01 X8.5 Y-23.277778 Z4.352941 F1000
G01 X8.388889 Y-23.277778 Z4.431373 F1000
G01 X7.833333 Y-23.277778 Z4.431373 F1000
G01 X7.722222 Y-23.277778 Z4.470588 F1000
G01 X7.611111 Y-23.277778 Z4.823529 F1000
G01 X7.055556 Y-23.277778 Z4.823529 F1000
G01 X6.944444 Y-23.277778 Z6.392157 F1000
G01 X6.833333 Y-23.277778 Z9.764706 F1000
G01 X6.722222 Y-23.277778 Z9.882353 F1000
G01 X6.611111 Y-23.277778 Z9.960784 F1000
G01 X6.5 Y-23.277778 Z10 F1000
G01 X0.388889 Y-23.277778 Z10 F1000
G01 X0.388889 Y-23.388889 Z10 F1000
G01 X0.388889 Y-23.5 Z10 F1000
G01 X0.388889 Y-23.611111 Z10 F1000
G01 X0.388889 Y-23.722222 Z10 F1000
G01 X0.388889 Y-23.833333 Z10 F1000
G01 X6.055556 Y-23.833333 Z10 F1000
G01 X6.166667 Y-23.833333 Z9.882353 F1000
G01 X6.277778 Y-23.833333 Z9.882353 F1000
G01 X6.388889 Y-23.833333 Z5.529412 F1000
G01 X6.5 Y-23.833333 Z4.745098 F1000
G01 X6.611111 Y-23.833333 Z4.745098 F1000
G01 X6.722222 Y-23.833333 Z4.54902 F1000
G01 X6.833333 Y-23.833333 Z4.509804 F1000
G01 X7.277778 Y-23.833333 Z4.509804 F1000
G01 X7.388889 Y-23.833333 Z4.470588 F1000
G01 X7.5 Y-23.833333 Z4.392157 F1000
G01 X7.611111 Y-23.833333 Z4.27451 F1000
G01 X7.722222 Y-23.833333 Z4.235294 F1000
G01 X8.277778 Y-23.833333 Z4.235294 F1000
G01 X8.388889 Y-23.833333 Z4.27451 F1000
G01 X8.5 Y-23.833333 Z4.313725 F1000
G01 X8.833333 Y-23.833333 Z4.313725 F1000
G01 X8.944444 Y-23.833333 Z4.352941 F1000
G01 X9.055556 Y-23.833333 Z4.352941 F1000
G01 X9.166667 Y-23.833333 Z4.392157 F1000
G01 X9.388889 Y-23.833333 Z4.392157 F1000
G01 X9.5 Y-23.833333 Z4.941176 F1000
G01 X10.388889 Y-23.833333 Z4.941176 F1000
G01 X10.5 Y-23.833333 Z4.705882 F1000
G01 X11.166667 Y-23.833333 Z4.705882 F1000
G01 X11.277778 Y-23.833333 Z4 F1000
G01 X11.388889 Y-23.833333 Z3.568627 F1000
G01 X11.833333 Y-23.833333 Z3.568627 F1000
G01 X11.944444 Y-23.833333 Z3.45098 F1000
G01 X12.055556 Y-23.833333 Z3.411765 F1000
G01 X12.277778 Y-23.833333 Z3.411765 F1000
G01 X12.388889 Y-23.833333 Z3.333333 F1000
G01 X12.722222 Y-23.833333 Z3.333333 F1000
G01 X12.833333 Y-23.833333 Z3.294118 F1000
G01 X12.944444 Y-23.833333 Z3.490196 F1000
G01 X13.722222 Y-23.833333 Z3.490196 F1000
G01 X13.833333 Y-23.833333 Z3.568627 F1000
G01 X13.944444 Y-23.833333 Z3.764706 F1000
G01 X14.055556 Y-23.833333 Z3.803922 F1000
G01 X14.944444 Y-23.833333 Z3.803922 F1000
G01 X15.055556 Y-23.833333 Z3.568627 F1000
G01 X15.277778 Y-23.833333 Z3.568627 F1000
G01 X15.388889 Y-23.833333 Z3.960784 F1000
G01 X15.5 Y-23.833333 Z4.745098 F1000
G01 X15.611111 Y-23.833333 Z5.254902 F1000
G01 X15.722222 Y-23.833333 Z5.686275 F1000
G01 X15.833333 Y-23.833333 Z6.235294 F1000
G01 X15.944444 Y-23.833333 Z6.666667 F1000
G01 X16.055556 Y-23.833333 Z6.901961 F1000
G01 X16.166667 Y-23.833333 Z6.941176 F1000
G01 X17.055556 Y-23.833333 Z6.941176 F1000
G01 X17.166667 Y-23.833333 Z6.705882 F1000
G01 X17.277778 Y-23.833333 Z6.509804 F1000
G01 X17.388889 Y-23.833333 Z6.117647 F1000
G01 X17.5 Y-23.833333 Z6.117647 F1000
G01 X17.611111 Y-23.833333 Z5.960784 F1000
G01 X17.722222 Y-23.833333 Z5.137255 F1000
G01 X17.833333 Y-23.833333 Z4.745098 F1000
G01 X17.944444 Y-23.833333 Z4.745098 F1000
G01 X18.055556 Y-23.833333 Z3.764706 F1000
G01 X18.166667 Y-23.833333 Z3.137255 F1000
G01 X18.277778 Y-23.833333 Z3.45098 F1000
G01 X18.388889 Y-23.833333 Z4.627451 F1000
G01 X18.5 Y-23.833333 Z4.705882 F1000
G01 X18.722222 Y-23.833333 Z4.705882 F1000
G01 X18.833333 Y-23.833333 Z4.980392 F1000
G01 X19.166667 Y-23.833333 Z4.980392 F1000
G01 X19.277778 Y-23.833333 Z8.509804 F1000
G01 X19.388889 Y-23.833333 Z9.921569 F1000
G01 X20.277778 Y-23.833333 Z9.921569 F1000
G01 X20.388889 Y-23.833333 Z9.882353 F1000
G01 X20.5 Y-23.833333 Z9.882353 F1000
G01 X20.611111 Y-23.833333 Z8.078431 F1000
G01 X20.722222 Y-23.833333 Z4.980392 F1000
G01 X21.611111 Y-23.833333 Z4.980392 F1000
G01 X21.722222 Y-23.833333 Z4.901961 F1000
G01 X22.166667 Y-23.833333 Z4.901961 F1000
G01 X22.277778 Y-23.833333 Z4.54902 F1000
G01 X22.388889 Y-23.833333 Z4.470588 F1000
G01 X23.166667 Y-23.833333 Z4.470588 F1000
G01 X23.277778 Y-23.833333 Z4.431373 F1000
G01 X24.388889 Y-23.833333 Z4.431373 F1000
G01 X24.5 Y-23.833333 Z4.509804 F1000
G01 X25.388889 Y-23.833333 Z4.509804 F1000
G01 X25.5 Y-23.833333 Z4.470588 F1000
G01 X25.611111 Y-23.833333 Z4.431373 F1000
G01 X25.722222 Y-23.833333 Z4.313725 F1000
G01 X25.833333 Y-23.833333 Z4.196078 F1000
G01 X25.944444 Y-23.833333 Z4.117647 F1000
G01 X26.055556 Y-23.833333 Z4.039216 F1000
G01 X26.166667 Y-23.833333 Z4 F1000
G01 X26.277778 Y-23.833333 Z3.647059 F1000
G01 X26.388889 Y-23.833333 Z3.529412 F1000
G01 X26.5 Y-23.833333 Z3.411765 F1000
G01 X26.611111 Y-23.833333 Z3.294118 F1000
G01 X26.722222 Y-23.833333 Z3.176471 F1000
G01 X27.277778 Y-23.833333 Z3.176471 F1000
G01 X27.388889 Y-23.833333 Z3.137255 F1000
G01 X27.5 Y-23.833333 Z3.137255 F1000
G01 X27.611111 Y-23.833333 Z3.098039 F1000
G01 X27.833333 Y-23.833333 Z3.098039 F1000
G01 X27.944444 Y-23.833333 Z3.137255 F1000
G01 X28.5 Y-23.833333 Z3.137255 F1000
G01 X28.611111 Y-23.833333 Z3.176471 F1000
G01 X28.833333 Y-23.833333 Z3.176471 F1000
G01 X28.944444 Y-23.833333 Z3.215686 F1000
G01 X29.055556 Y-23.833333 Z3.215686 F1000
G01 X29.166667 Y-23.833333 Z3.529412 F1000
G01 X29.277778 Y-23.833333 Z3.607843 F1000
G01 X29.388889 Y-23.833333 Z5.882353 F1000
G01 X29.5 Y-23.833333 Z6.901961 F1000
G01 X29.611111 Y-23.833333 Z7.176471 F1000
G01 X29.722222 Y-23.833333 Z7.176471 F1000
G01 X29.833333 Y-23.833333 Z7.254902 F1000
G01 X31.388889 Y-23.833333 Z7.254902 F1000
G01 X31.5 Y-23.833333 Z7.215686 F1000
G01 X31.611111 Y-23.833333 Z7.215686 F1000
G01 X31.722222 Y-23.833333 Z6.27451 F1000
G01 X31.833333 Y-23.833333 Z4.431373 F1000
G01 X31.944444 Y-23.833333 Z3.72549 F1000
G01 X32.055556 Y-23.833333 Z3.921569 F1000
G01 X32.5 Y-23.833333 Z3.921569 F1000
G01 X32.611111 Y-23.833333 Z4.862745 F1000
G01 X32.722222 Y-23.833333 Z8.431373 F1000
G01 X32.833333 Y-23.833333 Z9.921569 F1000
G01 X32.944444 Y-23.833333 Z10 F1000
G01 X39.5 Y-23.833333 Z10 F1000
G01 X39.5 Y-23.944444 Z10 F1000
G01 X39.5 Y-24.055556 Z10 F1000
G01 X39.5 Y-24.166667 Z10 F1000
G01 X39.5 Y-24.277778 Z10 F1000
G01 X39.5 Y-24.388889 Z10 F1000
G01 X32.944444 Y-24.388889 Z10 F1000
G01 X32.833333 Y-24.388889 Z9.960784 F1000
G01 X32.388889 Y-24.388889 Z9.960784 F1000
G01 X32.277778 Y-24.388889 Z9.921569 F1000
G01 X32.166667 Y-24.388889 Z9.882353 F1000
G01 X32.055556 Y-24.388889 Z9.843137 F1000
G01 X31.944444 Y-24.388889 Z9.803922 F1000
G01 X31.833333 Y-24.388889 Z9.686275 F1000
G01 X31.722222 Y-24.388889 Z9.686275 F1000
G01 X31.611111 Y-24.388889 Z9.568627 F1000
G01 X31.5 Y-24.388889 Z8.705882 F1000
G01 X31.388889 Y-24.388889 Z7.921569 F1000
G01 X31.166667 Y-24.388889 Z7.921569 F1000
G01 X31.055556 Y-24.388889 Z7.960784 F1000
G01 X30.166667 Y-24.388889 Z7.960784 F1000
G01 X30.055556 Y-24.388889 Z7.764706 F1000
G01 X29.944444 Y-24.388889 Z7.686275 F1000
G01 X29.722222 Y-24.388889 Z7.686275 F1000
G01 X29.611111 Y-24.388889 Z7.176471 F1000
G01 X29.5 Y-24.388889 Z6.901961 F1000
G01 X29.388889 Y-24.388889 Z5.529412 F1000
G01 X29.277778 Y-24.388889 Z3.529412 F1000
G01 X29.166667 Y-24.388889 Z3.529412 F1000
G01 X29.055556 Y-24.388889 Z3.254902 F1000
G01 X28.388889 Y-24.388889 Z3.254902 F1000
G01 X28.277778 Y-24.388889 Z3.176471 F1000
G01 X27.722222 Y-24.388889 Z3.176471 F1000
G01 X27.611111 Y-24.388889 Z3.137255 F1000
G01 X27.277778 Y-24.388889 Z3.137255 F1000
G01 X27.166667 Y-24.388889 Z3.098039 F1000
G01 X25.388889 Y-24.388889 Z3.098039 F1000
G01 X25.277778 Y-24.388889 Z3.058824 F1000
G01 X24.055556 Y-24.388889 Z3.058824 F1000
G01 X23.944444 Y-24.388889 Z3.019608 F1000
G01 X23.611111 Y-24.388889 Z3.019608 F1000
G01 X23.5 Y-24.388889 Z2.980392 F1000
G01 X22.944444 Y-24.388889 Z2.980392 F1000
G01 X22.833333 Y-24.388889 Z3.019608 F1000
G01 X22.611111 Y-24.388889 Z3.019608 F1000
G01 X22.5 Y-24.388889 Z3.333333 F1000
G01 X22.388889 Y-24.388889 Z3.333333 F1000
G01 X22.277778 Y-24.388889 Z4.54902 F1000
G01 X22.166667 Y-24.388889 Z4.901961 F1000
G01 X21.277778 Y-24.388889 Z4.901961 F1000
G01 X21.166667 Y-24.388889 Z4.823529 F1000
G01 X21.055556 Y-24.388889 Z4.784314 F1000
G01 X20.944444 Y-24.388889 Z4.862745 F1000
G01 X20.166667 Y-24.388889 Z4.862745 F1000
G01 X20.055556 Y-24.388889 Z4.941176 F1000
G01 X19.833333 Y-24.388889 Z4.941176 F1000
G01 X19.722222 Y-24.388889 Z4.980392 F1000
G01 X18.944444 Y-24.388889 Z4.980392 F1000
G01 X18.833333 Y-24.388889 Z5.372549 F1000
G01 X18.722222 Y-24.388889 Z6.235294 F1000
G01 X18.611111 Y-24.388889 Z6.980392 F1000
G01 X18.5 Y-24.388889 Z8.156863 F1000
G01 X18.388889 Y-24.388889 Z9.490196 F1000
G01 X18.277778 Y-24.388889 Z9.843137 F1000
G01 X18.166667 Y-24.388889 Z9.921569 F1000
G01 X18.055556 Y-24.388889 Z9.921569 F1000
G01 X17.944444 Y-24.388889 Z10 F1000
G01 X15.388889 Y-24.388889 Z10 F1000
G01 X15.277778 Y-24.388889 Z9.960784 F1000
G01 X15.166667 Y-24.388889 Z9.960784 F1000
G01 X15.055556 Y-24.388889 Z9.921569 F1000
G01 X14.833333 Y-24.388889 Z9.921569 F1000
G01 X14.722222 Y-24.388889 Z9.803922 F1000
G01 X14.611111 Y-24.388889 Z8.784314 F1000
G01 X14.5 Y-24.388889 Z8.039216 F1000
G01 X14.388889 Y-24.388889 Z7.176471 F1000
G01 X14.277778 Y-24.388889 Z6.470588 F1000
G01 X14.166667 Y-24.388889 Z5.45098 F1000
G01 X14.055556 Y-24.388889 Z4.784314 F1000
G01 X13.166667 Y-24.388889 Z4.784314 F1000
G01 X13.055556 Y-24.388889 Z4.627451 F1000
G01 X12.944444 Y-24.388889 Z4.627451 F1000
G01 X12.833333 Y-24.388889 Z4.509804 F1000
G01 X12.722222 Y-24.388889 Z4.352941 F1000
G01 X12.611111 Y-24.388889 Z4.078431 F1000
G01 X12.5 Y-24.388889 Z4.784314 F1000
G01 X12.388889 Y-24.388889 Z5.215686 F1000
G01 X12.277778 Y-24.388889 Z5.921569 F1000
G01 X12.166667 Y-24.388889 Z7.019608 F1000
G01 X12.055556 Y-24.388889 Z7.882353 F1000
G01 X10.388889 Y-24.388889 Z7.882353 F1000
G01 X10.277778 Y-24.388889 Z7.843137 F1000
G01 X10.166667 Y-24.388889 Z7.647059 F1000
G01 X10.055556 Y-24.388889 Z7.137255 F1000
G01 X9.944444 Y-24.388889 Z6.54902 F1000
G01 X9.833333 Y-24.388889 Z6.039216 F1000
G01 X9.722222 Y-24.388889 Z5.529412 F1000
G01 X9.611111 Y-24.388889 Z4.941176 F1000
G01 X9.5 Y-24.388889 Z4.627451 F1000
G01 X9.388889 Y-24.388889 Z4.54902 F1000
G01 X9.277778 Y-24.388889 Z4.392157 F1000
G01 X9.166667 Y-24.388889 Z4.392157 F1000
G01 X9.055556 Y-24.388889 Z4.352941 F1000
G01 X8.944444 Y-24.388889 Z4.352941 F1000
G01 X8.833333 Y-24.388889 Z4.313725 F1000
G01 X8.5 Y-24.388889 Z4.313725 F1000
G01 X8.388889 Y-24.388889 Z4.27451 F1000
G01 X7.5 Y-24.388889 Z4.27451 F1000
G01 X7.388889 Y-24.388889 Z4.352941 F1000
G01 X6.722222 Y-24.388889 Z4.352941 F1000
G01 X6.611111 Y-24.388889 Z4.431373 F1000
G01 X6.5 Y-24.388889 Z4.627451 F1000
G01 X6.166667 Y-24.388889 Z4.627451 F1000
G01 X6.055556 Y-24.388889 Z7.764706 F1000
G01 X5.944444 Y-24.388889 Z9.882353 F1000
G01 X5.833333 Y-24.388889 Z9.921569 F1000
G01 X5.722222 Y-24.388889 Z10 F1000
G01 X0.388889 Y-24.388889 Z10 F1000
G01 X0.388889 Y-24.5 Z10 F1000
G01 X0.388889 Y-24.611111 Z10 F1000
G01 X0.388889 Y-24.722222 Z10 F1000
G01 X0.388889 Y-24.833333 Z10 F1000
G01 X0.388889 Y-24.944444 Z10 F1000
G01 X5.388889 Y-24.944444 Z10 F1000
G01 X5.5 Y-24.944444 Z9.960784 F1000
G01 X5.611111 Y-24.944444 Z9.921569 F1000
G01 X5.722222 Y-24.944444 Z9.921569 F1000
G01 X5.833333 Y-24.944444 Z9.882353 F1000
G01 X5.944444 Y-24.944444 Z5.960784 F1000
G01 X6.055556 Y-24.944444 Z4.509804 F1000
G01 X6.722222 Y-24.944444 Z4.509804 F1000
G01 X6.833333 Y-24.944444 Z4.431373 F1000
G01 X7.055556 Y-24.944444 Z4.431373 F1000
G01 X7.166667 Y-24.944444 Z4.392157 F1000
G01 X7.277778 Y-24.944444 Z4.352941 F1000
G01 X7.388889 Y-24.944444 Z4.352941 F1000
G01 X7.5 Y-24.944444 Z4.27451 F1000
G01 X7.611111 Y-24.944444 Z4.431373 F1000
G01 X8.388889 Y-24.944444 Z4.431373 F1000
G01 X8.5 Y-24.944444 Z4.705882 F1000
G01 X8.611111 Y-24.944444 Z4.941176 F1000
G01 X8.722222 Y-24.944444 Z6.313725 F1000
G01 X8.833333 Y-24.944444 Z7.372549 F1000
G01 X8.944444 Y-24.944444 Z7.764706 F1000
G01 X9.722222 Y-24.944444 Z7.764706 F1000
G01 X9.833333 Y-24.944444 Z7.843137 F1000
G01 X9.944444 Y-24.944444 Z7.921569 F1000
G01 X10.833333 Y-24.944444 Z7.921569 F1000
G01 X10.944444 Y-24.944444 Z7.882353 F1000
G01 X12.055556 Y-24.944444 Z7.882353 F1000
G01 X12.166667 Y-24.944444 Z7.843137 F1000
G01 X12.277778 Y-24.944444 Z7.803922 F1000
G01 X12.388889 Y-24.944444 Z6.901961 F1000
G01 X12.5 Y-24.944444 Z5.960784 F1000
G01 X12.611111 Y-24.944444 Z5.411765 F1000
G01 X12.722222 Y-24.944444 Z5.333333 F1000
G01 X12.833333 Y-24.944444 Z5.333333 F1000
G01 X12.944444 Y-24.944444 Z4.745098 F1000
G01 X13.055556 Y-24.944444 Z4.745098 F1000
G01 X13.166667 Y-24.944444 Z5.72549 F1000
G01 X13.277778 Y-24.944444 Z6.235294 F1000
G01 X13.388889 Y-24.944444 Z7.215686 F1000
G01 X13.5 Y-24.944444 Z8.862745 F1000
G01 X13.611111 Y-24.944444 Z9.764706 F1000
G01 X13.722222 Y-24.944444 Z9.843137 F1000
G01 X13.833333 Y-24.944444 Z9.882353 F1000
