%
(Header)
(Generated by gcodetools from Inkscape.)
(Using default header. To add your own header create file "header" in the output dir.)
M3
(Header end.)
G21 (All units in mm)

(Start cutting path id: path1286)
(Change tool to Default tool)

G00 Z5.000000
G00 X66.523808 Y187.476200


G03 X60.854166 Y187.854180 Z1.000000 I-0.186516 J-1.164849
G03 X60.665180 Y187.665212 Z1.000000 I0.094383 J-0.283378
G02 X60.476190 Y187.476200 Z1.000000 I-0.283465 J0.094442
G02 X59.552897 Y187.458068 Z1.000000 I-0.490736 J1.472163
G03 X58.586308 Y187.476200 Z1.000000 I-0.516870 J-1.780780
G03 X58.206030 Y187.295139 Z1.000000 I0.257642 J-1.030996
G02 X57.830357 Y187.098220 Z1.000000 I-0.793899 J1.057756
G02 X57.642433 Y187.094623 Z1.000000 I-0.099729 J0.299508
G03 X57.452381 Y187.098220 Z1.000000 I-0.101673 J-0.349427
G03 X56.886325 Y186.905407 Z1.000000 I0.870271 J-3.482228
G02 X56.318451 Y186.720250 Z1.000000 I-1.240175 J2.840196
G02 X55.182781 Y186.538638 Z1.000000 I-2.077089 J9.346976
G03 X54.050593 Y186.342270 Z1.000000 I0.771851 J-7.812297
G03 X52.882736 Y185.741509 Z1.000000 I0.698143 J-2.792678
G02 X51.782739 Y185.208340 Z1.000000 I-1.577207 J1.852682
G02 X50.835269 Y185.219584 Z1.000000 I-0.447261 J2.236406
G03 X49.892857 Y185.208340 Z1.000000 I-0.447520 J-1.990778
G03 X49.127989 Y184.857938 Z1.000000 I0.555731 J-2.223054
G02 X48.380951 Y184.452390 Z1.000000 I-2.100906 J2.979153
G03 X46.883717 Y183.841656 Z1.000000 I44.149664 J-110.374932
G02 X45.357142 Y183.318460 Z1.000000 I-4.849850 J11.662127
G02 X44.792477 Y183.308672 Z1.000000 I-0.301576 J1.105245
G03 X44.223214 Y183.318460 Z1.000000 I-0.307094 J-1.301537
G03 X43.845171 Y183.157220 Z1.000000 I0.247905 J-1.105036
G02 X42.711309 Y182.562510 Z1.000000 I-3.456048 J5.210979
G02 X42.144345 Y182.373520 Z1.000000 I-1.889984 J4.724960
G03 X41.577381 Y182.184530 Z1.000000 I1.323020 J-4.913950
G03 X41.205006 Y181.976703 Z1.000000 I0.617735 J-1.544348
G02 X40.821427 Y181.806560 Z1.000000 I-0.572038 J0.772178
G02 X40.245323 Y181.835999 Z1.000000 I-0.230014 J1.150490
G03 X39.687500 Y181.806560 Z1.000000 I-0.238857 J-0.773701
G03 X38.920722 Y181.261658 Z1.000000 I0.876753 J-2.045704
G02 X38.175594 Y180.672630 Z1.000000 I-2.176491 J1.987478
G02 X37.244515 Y180.265493 Z1.000000 I-2.604457 J4.687912
G03 X36.285715 Y179.916680 Z1.000000 I5.040720 J-15.347826
G02 X35.338396 Y179.544430 Z1.000000 I-30.996552 J77.489904
G03 X34.395833 Y179.160720 Z1.000000 I10.018415 J-25.959244
G03 X34.018845 Y178.969352 Z1.000000 I1.284632 J-2.997682
G02 X33.639881 Y178.782750 Z1.000000 I-1.398120 J2.361288
G02 X32.632644 Y178.428578 Z1.000000 I-4.679501 J11.698789
G03 X31.750000 Y178.026800 Z1.000000 I1.078401 J-3.539487
G03 X30.616071 Y177.270845 Z1.000000 I12.284923 J-19.655749
G02 X29.482142 Y176.514890 Z1.000000 I-13.418852 J18.899794
G02 X29.099045 Y176.333369 Z1.000000 I-0.969601 J1.551302
G03 X28.726190 Y176.136910 Z1.000000 I0.427823 J-1.264002
G03 X28.356049 Y175.747290 Z1.000000 I0.966770 J-1.289062
G02 X27.970239 Y175.380960 Z1.000000 I-1.015580 J0.683258
G02 X27.408883 Y175.181752 Z1.000000 I-0.773568 J1.289327
G03 X26.836309 Y175.002990 Z1.000000 I0.264040 J-1.852080
G03 X26.634559 Y174.831694 Z1.000000 I0.248785 J-0.497472
G02 X26.458333 Y174.625010 Z1.000000 I-1.387167 J1.004276
G03 X26.092817 Y174.232667 Z1.000000 I5.357689 J-5.357774
G02 X25.702381 Y173.869060 Z1.000000 I-1.898366 J1.647015
G02 X25.324405 Y173.680070 Z1.000000 I-0.708692 J0.944904
G03 X24.946428 Y173.491080 Z1.000000 I0.330716 J-1.133894
G03 X24.568453 Y173.113105 Z1.000000 I1.133821 J-1.511799
G02 X24.190476 Y172.735130 Z1.000000 I-1.511791 J1.133820
G02 X23.802356 Y172.557833 Z1.000000 I-0.599991 J0.799972
G03 X23.434524 Y172.357150 Z1.000000 I0.157372 J-0.725889
G03 X22.653582 Y171.434578 Z1.000000 I5.157592 J-5.157628
G02 X21.922619 Y170.467270 Z1.000000 I-17.870479 J12.744304
G03 X21.171353 Y169.518505 Z1.000000 I94.535445 J-75.628356
G02 X20.410714 Y168.577390 Z1.000000 I-31.757832 J24.889745
G02 X20.215952 Y168.392716 Z1.000000 I-0.881384 J0.734495
G03 X20.032738 Y168.199410 Z1.000000 I0.469381 J-0.628352
G03 X19.860299 Y167.807868 Z1.000000 I1.033081 J-0.688724
G02 X19.654762 Y167.443460 Z1.000000 I-0.756411 J0.186469
G02 X19.259114 Y167.268963 Z1.000000 I-0.422760 J0.422763
G03 X18.898809 Y167.065490 Z1.000000 I0.020769 J-0.457522
G03 X18.873643 Y166.699819 Z1.000000 I0.307285 J-0.204849
G02 X18.898809 Y166.309540 Z1.000000 I-0.467367 J-0.226087
G02 X18.726728 Y166.112274 Z1.000000 I-0.322257 J0.107425
G03 X18.520833 Y165.931560 Z1.000000 I0.233433 J-0.473610
G03 X18.238998 Y165.199900 Z1.000000 I1.492571 J-0.995049
G02 X18.142857 Y164.797630 Z1.000000 I-2.347904 J0.348517
G02 X17.953869 Y164.419655 Z1.000000 I-1.417397 J0.472466
G03 X17.764881 Y164.041680 Z1.000000 I1.228409 J-0.850441
G03 X17.749650 Y163.855158 Z1.000000 I0.373073 J-0.124347
G02 X17.764881 Y163.663700 Z1.000000 I-1.195725 J-0.191458
G01 X17.764881 Y162.529770 Z1.000000
G01 X17.764881 Y160.261910 Z1.000000
G01 X17.764881 Y157.994060 Z1.000000
G02 X17.749650 Y157.802595 Z1.000000 I-1.211051 J0.000000
G03 X17.764881 Y157.616080 Z1.000000 I0.388294 J-0.062171
G03 X18.274068 Y156.691559 Z1.000000 I2.770964 J0.923651
G02 X18.898809 Y155.726200 Z1.000000 I-4.029039 J-3.292260
G02 X18.892936 Y155.533807 Z1.000000 I-0.181477 J-0.090747
G03 X18.898809 Y155.348220 Z1.000000 I0.152153 J-0.088072
G03 X19.270640 Y154.965905 Z1.000000 I1.216044 J0.810722
G02 X19.654762 Y154.592270 Z1.000000 I-0.997778 J-1.410053
G02 X19.848593 Y154.217722 Z1.000000 I-1.021198 J-0.765903
G03 X20.032738 Y153.836320 Z1.000000 I1.463154 J0.471275
G03 X20.218654 Y153.645162 Z1.000000 I0.608067 J0.405405
G02 X20.410714 Y153.458340 Z1.000000 I-0.498900 J-0.705021
G02 X21.267848 Y152.265932 Z1.000000 I-29.004051 J-21.753140
G03 X22.300595 Y151.190490 Z1.000000 I3.803387 J2.618798
G03 X22.688715 Y151.013193 Z1.000000 I0.599988 J0.799963
G02 X23.056547 Y150.812510 Z1.000000 I-0.157371 J-0.725889
G02 X23.234902 Y150.422271 Z1.000000 I-0.434424 J-0.434426
G03 X23.434524 Y150.056560 Z1.000000 I0.500989 J0.036126
G03 X23.992567 Y149.854309 Z1.000000 I0.610875 J0.814509
G02 X24.568452 Y149.678580 Z1.000000 I-0.064596 J-1.243178
G02 X24.966752 Y149.326636 Z1.000000 I-0.750185 J-1.250346
G03 X25.324405 Y148.922630 Z1.000000 I3.497569 J2.735972
G02 X26.064189 Y148.331057 Z1.000000 I-9.160947 J-12.214466
G03 X26.836309 Y147.788700 Z1.000000 I3.287179 J3.858960
G03 X27.394996 Y147.582880 Z1.000000 I0.892946 J1.562675
G02 X27.970239 Y147.410720 Z1.000000 I-0.537133 J-2.841861
G02 X29.671129 Y146.654770 Z1.000000 I-15.277283 J-36.665448
G03 X31.372024 Y145.898820 Z1.000000 I16.977874 J35.908865
G03 X31.929489 Y145.676790 Z1.000000 I7.319335 J17.566261
G03 X32.505951 Y145.520840 Z1.000000 I1.072836 J2.822284
G03 X33.078430 Y145.543062 Z1.000000 I0.232489 J1.395816
G02 X33.639881 Y145.520840 Z1.000000 I0.242403 J-0.979334
G02 X34.212007 Y145.156450 Z1.000000 I-0.441507 J-1.324549
G03 X34.773809 Y144.764890 Z1.000000 I1.228249 J1.163453
G03 X38.568447 Y144.085730 Z1.000000 I3.362230 J7.845250
G02 X40.443451 Y144.008940 Z1.000000 I0.519579 J-10.242890
G03 X41.969879 Y143.771824 Z1.000000 I2.064327 J8.257325
G02 X43.467260 Y143.630960 Z1.000000 I-1.555422 J-24.563068
G02 X44.221994 Y143.428463 Z1.000000 I-0.352521 J-2.821640
G03 X44.979166 Y143.252990 Z1.000000 I0.882924 J2.088503
G03 X47.623981 Y143.216256 Z1.000000 I1.763210 J31.719275
G02 X50.270833 Y143.252990 Z1.000000 I2.646852 J-95.341382
G03 X54.596305 Y143.305498 Z1.000000 I-0.000000 J178.187548
G03 X58.964284 Y143.630960 Z1.000000 I-1.061659 J43.722079
G03 X60.855780 Y143.997206 Z1.000000 I-1.787231 J14.297747
G02 X62.744048 Y144.386910 Z1.000000 I4.506623 J-17.066781
G02 X64.637908 Y144.553152 Z1.000000 I2.300410 J-15.336021
G03 X66.523808 Y144.764890 Z1.000000 I-0.291006 J11.096400
G03 X67.468750 Y145.142865 Z1.000000 I-0.548047 J2.740292
G02 X68.413690 Y145.520840 Z1.000000 I1.492988 J-2.362315
G02 X69.358629 Y145.520844 Z1.000000 I0.472471 J-2.362300
G03 X70.303572 Y145.520840 Z1.000000 I0.472489 J2.362409
G03 X71.253411 Y145.878608 Z1.000000 I-0.614020 J3.069915
G02 X72.193451 Y146.276800 Z1.000000 I2.088903 J-3.622712
G02 X75.227282 Y147.000353 Z1.000000 I9.701187 J-33.954562
G03 X78.241072 Y147.788700 Z1.000000 I-4.465731 J23.227069
G03 X79.194281 Y148.333915 Z1.000000 I-0.883527 J2.650552
G02 X80.130951 Y148.922630 Z1.000000 I2.336988 J-2.678744
G02 X83.142367 Y150.087188 Z1.000000 I17.722419 J-41.352317
G03 X86.178571 Y151.190490 Z1.000000 I-34.216885 J98.891627
G03 X91.077382 Y153.200324 Z1.000000 I-37.184009 J97.608236
G03 X94.116071 Y154.592270 Z1.000000 I-45.279516 J102.860248
G03 X95.070568 Y155.140957 Z1.000000 I-3.064701 J6.435922
G02 X96.005950 Y155.726200 Z1.000000 I7.791032 J-11.412134
G02 X99.019152 Y157.446209 Z1.000000 I1895.378943 J-3316.924705
G02 X102.053570 Y159.127990 Z1.000000 I70.736997 J-124.051581
G02 X103.949918 Y160.061275 Z1.000000 I13.694709 J-25.433118
G03 X105.833330 Y161.017870 Z1.000000 I-8.772356 J19.604036
G03 X106.597872 Y161.570941 Z1.000000 I-2.189599 J3.831781
G02 X107.345240 Y162.151800 Z1.000000 I4.362406 J-4.841699
G02 X109.991070 Y163.852690 Z1.000000 I52.357132 J-78.536148
G03 X112.636900 Y165.553580 Z1.000000 I-49.711302 J80.237038
G03 X113.392855 Y166.120545 Z1.000000 I-4.724805 J7.087208
G02 X114.148810 Y166.687510 Z1.000000 I5.480760 J-6.520243
G03 X116.508003 Y168.428431 Z1.000000 I-17.044019 J25.566028
G03 X121.708330 Y172.735130 Z1.000000 I-259.489706 J318.626113
G02 X122.465620 Y173.300516 Z1.000000 I5.199616 J-6.174624
G03 X123.220240 Y173.869060 Z1.000000 I-4.133210 J6.271012
G03 X123.797665 Y174.424719 Z1.000000 I-4.532219 J5.287611
G02 X124.354170 Y175.002990 Z1.000000 I15.351911 J-14.217135
G02 X126.080777 Y176.679622 Z1.000000 I57.951820 J-57.951820
G03 X127.755950 Y178.404770 Z1.000000 I-18.725715 J19.859158
G03 X129.076385 Y180.107888 Z1.000000 I-12.003888 J10.670098
G02 X130.401780 Y181.806560 Z1.000000 I12.737398 J-8.571992
G02 X130.775468 Y181.999610 Z1.000000 I0.442425 J-0.398203
G03 X131.157740 Y182.184530 Z1.000000 I-0.074616 J0.641831
G03 X131.367562 Y182.546242 Z1.000000 I-0.575618 J0.575618
G02 X131.535710 Y182.940490 Z1.000000 I1.511257 J-0.411574
G02 X131.909873 Y183.509807 Z1.000000 I7.125002 J-4.275038
G03 X132.291660 Y184.074410 Z1.000000 I-9.939610 J7.132594
G02 X134.144770 Y186.982858 Z1.000000 I2623.189796 J-1669.314102
G03 X135.693450 Y190.122030 Z1.000000 I-13.497730 J8.610572
G03 X135.714923 Y190.682990 Z1.000000 I-0.863339 J0.313939
G02 X135.693450 Y191.255960 Z1.000000 I1.186947 J0.331371
G02 X135.863622 Y191.639546 Z1.000000 I0.942821 J-0.188728
G03 X136.071430 Y192.011910 Z1.000000 I-1.336881 J0.990251
G03 X136.260416 Y192.578882 Z1.000000 I-4.724527 J1.889785
G02 X136.449400 Y193.145840 Z1.000000 I4.913007 J-1.322677
G02 X136.644256 Y193.521673 Z1.000000 I2.012523 J-0.804994
G03 X136.827380 Y193.901800 Z1.000000 I-1.394754 J0.906086
G03 X136.946817 Y195.630059 Z1.000000 I-3.284546 J1.095246
G02 X136.827380 Y196.925600 Z1.000000 I6.966687 J1.295541
G01 X136.827380 Y198.815486 Z1.000000
G01 X136.827380 Y199.571438 Z1.000000
G02 X136.842597 Y199.762903 Z1.000000 I1.212149 J-0.000000
G03 X136.827380 Y199.949414 Z1.000000 I-0.388639 J0.062168
G03 X136.427985 Y200.628454 Z1.000000 I-1.793189 J-0.597732
G02 X136.071430 Y201.083344 Z1.000000 I2.777219 J2.544046
G02 X135.731110 Y201.715174 Z1.000000 I3.183156 J2.122096
G03 X135.315470 Y202.217271 Z1.000000 I-1.045026 J-0.441997
G03 X134.923928 Y202.389711 Z1.000000 I-0.688727 J-1.033086
G02 X134.559520 Y202.595247 Z1.000000 I0.186471 J0.756415
G02 X134.568818 Y202.795584 Z1.000000 I0.095922 J0.095932
G03 X134.559520 Y202.973223 Z1.000000 I-0.070820 J0.085356
G03 X134.002086 Y203.178627 Z1.000000 I-0.707724 J-1.061558
G02 X133.425590 Y203.351201 Z1.000000 I0.206150 J1.737858
G02 X132.842501 Y203.703080 Z1.000000 I1.921846 J3.843692
G02 X132.291660 Y204.107153 Z1.000000 I18.778257 J26.176393
G02 X132.113148 Y204.316119 Z1.000000 I0.377272 J0.503020
G03 X131.913690 Y204.485129 Z1.000000 I-0.310565 J-0.164314
G03 X131.538839 Y204.496881 Z1.000000 I-0.207088 J-0.621289
G02 X131.157740 Y204.485129 Z1.000000 I-0.215846 J0.814477
G02 X129.645828 Y205.052096 Z1.000000 I0.985435 J4.927196
G03 X128.133930 Y205.619056 Z1.000000 I-2.497316 J-4.360176
G03 X127.190377 Y205.626674 Z1.000000 I-0.491656 J-2.458260
G02 X126.244050 Y205.619056 Z1.000000 I-0.494937 J2.700732
G02 X124.994981 Y205.967952 Z1.000000 I0.996024 J5.976142
G03 X123.220240 Y206.375010 Z1.000000 I-2.197189 J-5.507177
G03 X121.520425 Y206.405335 Z1.000000 I-1.133209 J-15.864792
G02 X119.818450 Y206.375010 Z1.000000 I-1.701975 J47.745944
G01 X117.172620 Y206.375010 Z1.000000
G01 X109.235120 Y206.375010 Z1.000000
G02 X108.288734 Y206.401159 Z1.000000 I0.000000 J17.139191
G03 X107.345240 Y206.375010 Z1.000000 I-0.314499 J-5.686928
G03 X106.584647 Y206.211843 Z1.000000 I0.427456 J-3.846881
G02 X105.833330 Y205.997035 Z1.000000 I-3.580358 J11.101404
G02 X102.996554 Y205.831479 Z1.000000 I-11.423273 J171.349091
G03 X100.163690 Y205.619056 Z1.000000 I2.861250 J-57.153259
G03 X98.279239 Y205.122784 Z1.000000 I0.616812 J-6.168132
G02 X96.383926 Y204.485129 Z1.000000 I-4.449375 J10.089395
G02 X93.373312 Y203.848754 Z1.000000 I-14.013662 J58.857327
G02 X90.336308 Y203.351201 Z1.000000 I-13.657696 J73.847440
G02 X89.387244 Y203.372901 Z1.000000 I-0.409275 J2.864917
G03 X88.446426 Y203.351201 Z1.000000 I-0.419674 J-2.210539
G03 X83.335758 Y201.752263 Z1.000000 I8.933934 J-37.522490
G02 X80.508926 Y200.705368 Z1.000000 I-30.480113 J77.962618
G02 X77.669987 Y199.771901 Z1.000000 I-25.977490 J74.221185
G03 X74.839284 Y198.815486 Z1.000000 I16.187355 J-52.576978
G03 X74.085534 Y198.431231 Z1.000000 I1.237422 J-3.358710
G02 X73.327381 Y198.059535 Z1.000000 I-1.756855 J2.624427
G02 X72.378375 Y197.881806 Z1.000000 I-1.120907 J3.362689
G03 X71.437499 Y197.681556 Z1.000000 I0.145340 J-2.993366
G03 X68.955217 Y196.605008 Z1.000000 I12.798722 J-32.911089
G03 X66.523808 Y195.413700 Z1.000000 I72.708918 J-151.472707
G03 X62.434195 Y193.129032 Z1.000000 I22.872743 J-45.745367
G03 X58.586308 Y190.500010 Z1.000000 I27.854956 J-44.899485
G03 X57.452381 Y189.555071 Z1.000000 I8.646665 J-11.528818
G02 X56.318451 Y188.610130 Z1.000000 I-9.780441 J10.583715
G02 X55.930331 Y188.432833 Z1.000000 I-0.599983 J0.799954
G03 X55.562499 Y188.232150 Z1.000000 I0.157368 J-0.725883
G03 X55.368794 Y187.858620 Z1.000000 I0.492272 J-0.492272
G02 X55.184523 Y187.476200 Z1.000000 I-0.763079 J0.132088
G02 X53.857186 Y186.157168 Z1.000000 I-11.305734 J10.049552
G03 X52.538690 Y184.830370 Z1.000000 I9.057237 J-10.319089
G03 X51.594908 Y183.688338 Z1.000000 I23.868503 J-20.686056
G03 X49.514881 Y180.672630 Z1.000000 I22.718861 J-17.895086
G03 X48.604530 Y178.522339 Z1.000000 I7.177571 J-4.306557
G02 X48.002975 Y176.514890 Z1.000000 I-33.088462 J8.821488
G01 X47.624999 Y175.380960 Z1.000000
G02 X47.418013 Y174.818780 Z1.000000 I-9.160287 J3.053478
G03 X47.247024 Y174.247040 Z1.000000 I2.972690 J-1.200476
G03 X47.228356 Y173.870898 Z1.000000 I1.253794 J-0.250759
G02 X47.247024 Y173.491080 Z1.000000 I-3.854630 J-0.379818
G01 X47.247024 Y170.089300 Z1.000000
G01 X47.247024 Y166.687510 Z1.000000
G01 X47.247024 Y165.553580 Z1.000000
G02 X47.223603 Y164.984686 Z1.000000 I-6.920774 J0.000000
G03 X47.247024 Y164.419650 Z1.000000 I2.283554 J-0.188348
G03 X47.419431 Y163.848954 Z1.000000 I2.299215 J0.383203
G02 X47.624999 Y163.285720 Z1.000000 I-3.820357 J-1.713476
G03 X48.260235 Y161.479513 Z1.000000 I15.380147 J4.394330
G03 X49.514881 Y158.750010 Z1.000000 I42.235207 J17.760768
G03 X49.904125 Y157.999281 Z1.000000 I25.757163 J12.878531
G02 X50.270833 Y157.238110 Z1.000000 I-8.449572 J-4.539648
G02 X50.424352 Y156.649887 Z1.000000 I-1.874613 J-0.803395
G03 X50.648809 Y156.104180 Z1.000000 I1.045191 J0.110888
G03 X51.213010 Y155.723949 Z1.000000 I0.890123 J0.712091
G02 X51.782739 Y155.348220 Z1.000000 I-0.337743 J-1.131942
G02 X52.169389 Y154.599133 Z1.000000 I-1.495440 J-1.246220
G03 X52.538690 Y153.836320 Z1.000000 I2.140083 J0.565278
G03 X54.724066 Y151.293891 Z1.000000 I20.175326 J15.131500
G03 X57.074405 Y148.922630 Z1.000000 I268.821732 J264.099456
G03 X60.861985 Y145.453646 Z1.000000 I41.399692 J41.399674
G03 X65.011905 Y142.497040 Z1.000000 I20.840924 J24.861787
G03 X65.765677 Y142.304318 Z1.000000 I0.699650 J1.166031
G02 X66.523808 Y142.119060 Z1.000000 I0.056302 J-1.413472
G02 X67.101967 Y141.569563 Z1.000000 I-0.829601 J-1.451781
G03 X67.657738 Y140.985130 Z1.000000 I1.794959 J1.150454
G03 X68.394362 Y140.574169 Z1.000000 I2.205800 J3.088113
G02 X69.169642 Y140.229180 Z1.000000 I-7.765064 J-18.493727
G02 X71.613048 Y139.064768 Z1.000000 I-118.306190 J-251.400076
G03 X74.083332 Y137.961320 Z1.000000 I19.939801 J41.322286
G03 X74.833193 Y137.755358 Z1.000000 I1.211049 J2.941141
G02 X75.595238 Y137.583340 Z1.000000 I-0.741032 J-5.056733
G02 X77.302421 Y137.035319 Z1.000000 I-21.754334 J-70.701739
G02 X78.997023 Y136.449410 Z1.000000 I-28.024082 J-83.796522
G02 X81.516194 Y135.533868 Z1.000000 I-80.990984 J-226.775374
G03 X85.800593 Y134.181560 Z1.000000 I16.096990 J43.535585
G03 X86.930633 Y133.975756 Z1.000000 I1.895667 J7.203496
G02 X88.068451 Y133.803580 Z1.000000 I-1.253084 J-12.126635
G02 X88.826439 Y133.623640 Z1.000000 I-2.141634 J-10.707981
G03 X89.580356 Y133.425610 Z1.000000 I8.704042 J31.602911
G03 X92.226867 Y133.052250 Z1.000000 I108.070062 J756.473263
G02 X94.872023 Y132.669650 Z1.000000 I-35.164490 J-252.449526
G02 X96.007409 Y132.489444 Z1.000000 I-10.005559 J-66.706838
G02 X97.139880 Y132.291680 Z1.000000 I-13.638577 J-81.440897
G02 X98.081220 Y132.071482 Z1.000000 I-1.732882 J-9.530233
G03 X99.029760 Y131.913700 Z1.000000 I1.157989 J4.031424
G03 X101.863694 Y131.878283 Z1.000000 I1.889290 J37.776186
G02 X104.699400 Y131.913700 Z1.000000 I2.835706 J-113.505734
G01 X113.014880 Y131.913700 Z1.000000
G01 X120.952380 Y131.913700 Z1.000000
G02 X121.899702 Y131.880161 Z1.000000 I-0.000000 J-13.395647
G03 X122.842260 Y131.913700 Z1.000000 I0.314187 J4.431647
G03 X125.867288 Y132.472481 Z1.000000 I-5.338025 J37.365623
G02 X128.889880 Y133.047630 Z1.000000 I9.634737 J-42.403687
G02 X132.666574 Y133.509814 Z1.000000 I9.370114 J-60.905540
G03 X136.449400 Y134.181560 Z1.000000 I-2.057467 J22.573319
G03 X137.396495 Y134.551942 Z1.000000 I-1.170283 J4.388595
G02 X138.339280 Y134.937510 Z1.000000 I2.457617 J-4.663895
G02 X140.150659 Y135.326572 Z1.000000 I3.335745 J-11.119213
G03 X141.741070 Y135.693460 Z1.000000 I-1.129369 J8.526226
G03 X144.390903 Y136.626748 Z1.000000 I-26.306310 J78.918485
G02 X147.032740 Y137.583340 Z1.000000 I60.238931 J-162.236559
G02 X147.600693 Y137.769595 Z1.000000 I4.435735 J-12.566967
G03 X148.166660 Y137.961320 Z1.000000 I-2.696641 J8.891624
G03 X150.532889 Y139.003913 Z1.000000 I-8.074274 J21.531510
G02 X153.836310 Y140.607150 Z1.000000 I42.896698 J-84.182424
G02 X154.409282 Y140.784484 Z1.000000 I0.952879 J-2.064468
G03 X154.970240 Y140.985130 Z1.000000 I-0.284842 J1.680828
G03 X155.726184 Y141.552093 Z1.000000 I-1.889985 J3.307398
G02 X156.482140 Y142.119060 Z1.000000 I2.645881 J-2.740386
G02 X157.050743 Y142.305244 Z1.000000 I0.737259 J-1.290231
G03 X157.616070 Y142.497040 Z1.000000 I-0.160004 J1.400681
G03 X157.997531 Y142.869501 Z1.000000 I-0.593811 J0.989729
G02 X158.372020 Y143.252990 Z1.000000 I1.090161 J-0.689983
G02 X159.694940 Y144.008940 Z1.000000 I6.142121 J-9.213235
G03 X161.017860 Y144.764890 Z1.000000 I-4.819201 J9.969185
G03 X161.412646 Y145.122347 Z1.000000 I-1.003012 J1.504493
G02 X161.773810 Y145.520840 Z1.000000 I4.233625 J-3.474121
G02 X162.357328 Y146.072988 Z1.000000 I10.281666 J-10.281394
G03 X162.907740 Y146.654770 Z1.000000 I-3.223868 J3.601297
G03 X163.104229 Y147.027265 Z1.000000 I-0.873788 J0.698991
G02 X163.285710 Y147.410720 Z1.000000 I1.395041 J-0.425568
G02 X163.642270 Y147.865612 Z1.000000 I3.133911 J-2.089274
G03 X164.041660 Y148.544650 Z1.000000 I-1.393768 J1.276748
G03 X164.034990 Y148.736435 Z1.000000 I-0.260477 J0.086949
G02 X164.041660 Y148.922630 Z1.000000 I0.207666 J0.085777
G02 X164.240138 Y149.107692 Z1.000000 I0.347594 J-0.173830
G03 X164.419640 Y149.300610 Z1.000000 I-0.121902 J0.293392
G03 X164.419640 Y149.678585 Z1.000000 I-0.566844 J0.188987
G02 X164.419640 Y150.056560 Z1.000000 I0.566844 J0.188988
G02 X164.608653 Y150.245547 Z1.000000 I0.283602 J-0.094629
G03 X164.797620 Y150.434540 Z1.000000 I-0.094552 J0.283505
G03 X164.828090 Y150.807567 Z1.000000 I-0.745899 J0.248685
G02 X164.797620 Y151.190490 Z1.000000 I2.390914 J0.382923
G01 X164.797620 Y152.324410 Z1.000000
G02 X164.855084 Y152.899036 Z1.000000 I2.901772 J-0.000000
G03 X164.797620 Y153.836320 Z1.000000 I-1.786323 J0.360885
G03 X164.614492 Y154.216443 Z1.000000 I-1.578099 J-0.526092
G02 X164.419640 Y154.592270 Z1.000000 I1.817698 J1.180832
G02 X164.258478 Y155.173873 Z1.000000 I2.547945 J1.019164
G03 X164.041660 Y155.726200 Z1.000000 I-1.379509 J-0.222812
G03 X163.864012 Y155.735493 Z1.000000 I-0.092286 J-0.061536
G02 X163.663690 Y155.726200 Z1.000000 I-0.104395 J0.086623
G02 X163.641781 Y155.901673 Z1.000000 I0.101817 J0.101817
G03 X163.663690 Y156.104180 Z1.000000 I-0.210294 J0.125191
G03 X163.264296 Y156.783218 Z1.000000 I-1.793188 J-0.597734
G02 X162.907740 Y157.238110 Z1.000000 I2.777189 J2.544019
G02 X162.749902 Y157.647237 Z1.000000 I0.836619 J0.557770
G03 X162.529760 Y157.994060 Z1.000000 I-0.501325 J-0.074934
G03 X162.136510 Y157.975422 Z1.000000 I-0.183986 J-0.275986
G02 X161.773810 Y157.994060 Z1.000000 I-0.171021 J0.210317
G02 X161.755172 Y158.356760 Z1.000000 I0.191679 J0.191679
G03 X161.773810 Y158.750010 Z1.000000 I-0.257347 J0.209264
G03 X161.421542 Y158.962568 Z1.000000 I-0.401968 J-0.267990
G02 X161.017860 Y159.127990 Z1.000000 I0.079582 J0.769474
G02 X159.894225 Y160.269331 Z1.000000 I4.232312 J5.290425
G03 X158.750000 Y161.395840 Z1.000000 I-4.747249 J-3.677545
G03 X158.382059 Y161.601073 Z1.000000 I-0.941093 J-1.254754
G02 X157.994050 Y161.773820 Z1.000000 I1.733555 J4.415875
G03 X157.233812 Y162.143669 Z1.000000 I-17.411686 J-34.824062
G02 X156.482140 Y162.529770 Z1.000000 I5.546115 J11.722072
G03 X155.143174 Y163.259397 Z1.000000 I-45.326641 J-81.587219
G02 X153.836310 Y164.041680 Z1.000000 I7.384785 J13.819602
G02 X153.471860 Y164.445367 Z1.000000 I0.613436 J0.920169
G03 X153.080360 Y164.797630 Z1.000000 I-0.675017 J-0.356518
G03 X152.513387 Y164.797629 Z1.000000 I-0.283485 J-0.708711
G02 X151.946430 Y164.797630 Z1.000000 I-0.283477 J0.708682
G02 X151.558429 Y165.155399 Z1.000000 I0.275019 J0.687538
G03 X151.190470 Y165.553580 Z1.000000 I-0.864976 J-0.430217
G03 X150.637255 Y165.772458 Z1.000000 I-0.939221 J-1.565323
G02 X150.056550 Y165.931560 Z1.000000 I1.171743 J5.416032
G01 X148.922620 Y166.309540 Z1.000000
G03 X146.338176 Y167.165506 Z1.000000 I-224.181912 J-672.550076
G03 X144.008930 Y167.821440 Z1.000000 I-8.715155 J-26.484230
G03 X142.684909 Y168.005897 Z1.000000 I-1.654455 J-7.031496
G02 X141.363090 Y168.199410 Z1.000000 I0.307265 J6.710000
G02 X140.407513 Y168.544491 Z1.000000 I1.215152 J4.860536
G03 X139.473210 Y168.955370 Z1.000000 I-6.542825 J-13.610093
G03 X137.015142 Y169.325672 Z1.000000 I-60.489212 J-393.184681
G02 X134.559520 Y169.711320 Z1.000000 I19.337414 J131.142262
G02 X133.612126 Y169.887651 Z1.000000 I4.200496 J25.201780
G02 X132.669640 Y170.089300 Z1.000000 I12.290142 J59.746102
G02 X131.918092 Y170.310554 Z1.000000 I1.257210 J5.657499
G03 X131.157740 Y170.467270 Z1.000000 I-0.896241 J-2.425471
G03 X128.322915 Y170.467270 Z1.000000 I-1.417412 J-26.938974
G02 X125.488090 Y170.467270 Z1.000000 I-1.417413 J26.938974
G02 X124.726556 Y170.618994 Z1.000000 I0.142102 J2.700254
G03 X123.976190 Y170.845250 Z1.000000 I-2.735929 J-7.716153
G02 X121.898873 Y171.056668 Z1.000000 I8.779127 J96.571793
G03 X119.818450 Y171.223220 Z1.000000 I-3.617088 J-32.104795
G03 X117.929108 Y171.245692 Z1.000000 I-1.259562 J-26.463206
G02 X116.038690 Y171.223220 Z1.000000 I-1.890418 J79.502437
G01 X111.880950 Y171.223220 Z1.000000
G01 X105.455360 Y171.223220 Z1.000000
G02 X104.510178 Y171.233949 Z1.000000 I-0.000000 J41.638535
G03 X103.565470 Y171.223220 Z1.000000 I-0.314904 J-13.869061
G01 X97.139880 Y170.845250 Z1.000000
G02 X96.192798 Y170.868051 Z1.000000 I-0.309738 J6.815429
G03 X95.249999 Y170.845250 Z1.000000 I-0.375017 J-3.996817
G03 X92.218981 Y170.320366 Z1.000000 I7.356817 J-51.496931
G02 X89.202381 Y169.711320 Z1.000000 I-168.670843 J827.650636
G03 X88.449031 Y169.505562 Z1.000000 I1.107145 J-5.535639
G02 X87.690475 Y169.333340 Z1.000000 I-1.140855 J3.268280
G02 X86.739829 Y169.365071 Z1.000000 I-0.365966 J3.292162
G03 X85.800593 Y169.333340 Z1.000000 I-0.395622 J-2.206162
G03 X82.953388 Y168.432235 Z1.000000 I5.888664 J-23.554997
G02 X80.130951 Y167.443460 Z1.000000 I-17.310162 J44.888786
G03 X78.606107 Y166.959883 Z1.000000 I197.238385 J-624.589660
G03 X76.729166 Y166.309540 Z1.000000 I11.949789 J-37.521708
G01 X72.571427 Y164.797630 Z1.000000
G03 X72.019394 Y164.392093 Z1.000000 I4.168258 J-6.252487
G02 X71.437499 Y164.041680 Z1.000000 I-1.560394 J1.932835
G02 X70.681547 Y163.852686 Z1.000000 I-0.963827 J2.248855
G03 X69.925593 Y163.663700 Z1.000000 I0.207887 J-2.437998
G03 X69.341510 Y163.316490 Z1.000000 I1.021238 J-2.382827
G02 X68.791666 Y162.907750 Z1.000000 I-7.440205 J9.434497
G01 X66.145833 Y161.017870 Z1.000000
G03 X65.777736 Y160.628851 Z1.000000 I6.857519 J-6.857356
G02 X65.389881 Y160.261910 Z1.000000 I-2.400771 J2.149159
G03 X64.322588 Y159.318615 Z1.000000 I9.071460 J-11.339357
G03 X63.122023 Y157.994060 Z1.000000 I10.138658 J-10.395964
G02 X62.419159 Y157.348962 Z1.000000 I-2.436370 J1.949088
G03 X61.988093 Y156.860130 Z1.000000 I0.706850 J-1.057799
G03 X61.959853 Y156.491337 Z1.000000 I0.438049 J-0.219021
G02 X61.988093 Y156.104180 Z1.000000 I-0.783887 J-0.251786
G01 X61.610118 Y154.592270 Z1.000000
G02 X61.393949 Y154.420080 Z1.000000 I-0.868402 J0.868416
G03 X61.232142 Y154.214300 Z1.000000 I0.205781 J-0.328313
G03 X61.156532 Y153.350308 Z1.000000 I1.771095 J-0.590297
G02 X61.232142 Y152.324410 Z1.000000 I-6.922049 J-1.025898
G02 X61.191900 Y151.187623 Z1.000000 I-16.076488 J0.000000
G03 X61.232142 Y150.056560 Z1.000000 I5.318498 J-0.377021
G03 X61.394856 Y149.483393 Z1.000000 I2.196039 J0.313744
G02 X61.610118 Y148.922630 Z1.000000 I-6.149435 J-2.682306
G02 X61.790859 Y148.352644 Z1.000000 I-19.325293 J-6.441645
G03 X61.988093 Y147.788700 Z1.000000 I6.495156 J1.955156
G03 X62.350030 Y147.025543 Z1.000000 I6.294295 J2.517742
G02 X62.744048 Y146.276800 Z1.000000 I-17.829817 J-9.860805
G03 X63.215320 Y145.425653 Z1.000000 I10.355766 J5.177839
G03 X63.877975 Y144.386910 Z1.000000 I26.101348 J15.920355
G02 X64.229798 Y143.798509 Z1.000000 I-5.809519 J-3.873074
G03 X64.633927 Y143.252990 Z1.000000 I2.033899 J1.084292
G03 X65.563047 Y142.479942 Z1.000000 I4.679878 J4.679837
G02 X66.523808 Y141.741080 Z1.000000 I-6.476739 J-9.415940
G02 X66.908761 Y141.370640 Z1.000000 I-3.020966 J-3.524556
G03 X67.279760 Y140.985130 Z1.000000 I10.230487 J9.474135
G03 X67.860161 Y140.430435 Z1.000000 I12.535606 J12.535540
G02 X68.413690 Y139.851200 Z1.000000 I-3.977197 J-4.354793
G02 X68.780126 Y139.273699 Z1.000000 I-2.037116 J-1.697599
G03 X69.169642 Y138.717270 Z1.000000 I1.771506 J0.825553
G03 X69.718290 Y138.317674 Z1.000000 I1.545362 J1.545348
G02 X70.303572 Y137.961320 Z1.000000 I-2.132511 J-4.161285
G02 X71.585327 Y136.995280 Z1.000000 I-18.216551 J-25.503328
G03 X72.949405 Y136.071440 Z1.000000 I6.735378 J8.476014
G03 X73.713040 Y135.705889 Z1.000000 I2.892096 J5.061193
G02 X74.461308 Y135.315490 Z1.000000 I-1.441366 J-3.674921
G02 X75.973214 Y134.181559 Z1.000000 I-9.449437 J-14.174143
G03 X77.485117 Y133.047630 Z1.000000 I10.961453 J13.040342
G03 X78.227854 Y132.646875 Z1.000000 I2.514937 J3.772389
G02 X78.997023 Y132.291680 Z1.000000 I-5.337720 J-12.569168
G01 X84.288690 Y129.645840 Z1.000000
G02 X85.037437 Y129.251824 Z1.000000 I-9.108640 J-18.217568
G03 X85.800593 Y128.889890 Z1.000000 I3.280711 J5.931991
G03 X86.931137 Y128.503049 Z1.000000 I4.367927 J10.919846
G02 X88.068451 Y128.133940 Z1.000000 I-4.708821 J-16.445745
G02 X93.261928 Y126.138062 Z1.000000 I-52.442807 J-144.216401
G03 X99.407738 Y123.976200 Z1.000000 I26.158277 J64.546906
G03 X100.535784 Y123.764170 Z1.000000 I1.563602 J5.211974
G02 X101.675590 Y123.598220 Z1.000000 I-0.715754 J-8.913322
G02 X106.780215 Y122.473318 Z1.000000 I-68.817268 J-324.426170
G03 X111.880950 Y121.330370 Z1.000000 I133.950528 J585.839644
G03 X116.792610 Y120.350859 Z1.000000 I27.904833 J127.121788
G03 X119.818450 Y119.818460 Z1.000000 I79.060319 J440.466808
G02 X123.967283 Y118.999613 Z1.000000 I-14.889786 J-86.361507
G03 X128.133930 Y118.306560 Z1.000000 I8.474182 J38.075453
G03 X132.475668 Y118.057729 Z1.000000 I4.498043 J40.481405
G02 X136.827380 Y117.928580 Z1.000000 I-0.323424 J-84.278386
G02 X142.685934 Y117.549131 Z1.000000 I-17.736778 J-319.265819
G03 X148.544640 Y117.172630 Z1.000000 I22.370072 J302.327231
G03 X157.781108 Y116.811590 Z1.000000 I16.322072 J299.237978
G03 X167.065470 Y116.794650 Z1.000000 I5.030267 J212.693661
G03 X176.433070 Y117.388106 Z1.000000 I-2.169530 J108.475276
G02 X185.586310 Y118.306560 Z1.000000 I74.899031 J-700.368659
G02 X187.099883 Y118.291795 Z1.000000 I0.685539 J-7.310938
G03 X188.610120 Y118.306560 Z1.000000 I0.695293 J6.126536
G03 X196.960304 Y119.844419 Z1.000000 I-11.321356 J84.910717
G02 X205.241070 Y121.708340 Z1.000000 I94.546009 J-400.709402
G02 X209.024121 Y122.449520 Z1.000000 I22.916607 J-106.943315
G03 X212.800590 Y123.220250 Z1.000000 I-13.234945 J74.486857
G03 X213.938380 Y123.583289 Z1.000000 I-1.638120 J7.098460
G02 X215.068450 Y123.976200 Z1.000000 I4.050069 J-9.827020
G02 X219.224638 Y125.115613 Z1.000000 I55.197247 J-193.190713
G03 X223.383920 Y126.244060 Z1.000000 I-67.741895 J257.915711
G03 X227.007736 Y127.469520 Z1.000000 I-9.718619 J34.709738
G03 X230.565470 Y128.889890 Z1.000000 I-1072.990675 J2692.785712
G03 X232.091788 Y129.613761 Z1.000000 I-5.035071 J12.587799
G02 X233.589280 Y130.401800 Z1.000000 I19.719764 J-35.656143
G02 X235.202406 Y131.112169 Z1.000000 I8.074312 J-16.148625
G03 X238.502970 Y133.047630 Z1.000000 I-4.183785 J10.916634
G03 X239.067391 Y133.617713 Z1.000000 I-2.688366 J3.226117
G02 X239.636900 Y134.181560 Z1.000000 I2.943352 J-2.403369
G02 X240.443646 Y134.678286 Z1.000000 I2.414944 J-3.018683
G03 X241.904760 Y135.693460 Z1.000000 I-2.088054 J4.564342
G03 X242.110295 Y136.057867 Z1.000000 I-0.550877 J0.550877
G02 X242.282740 Y136.449410 Z1.000000 I1.205473 J-0.297172
G02 X242.875293 Y137.190515 Z1.000000 I4.570456 J-3.046883
G03 X243.416660 Y137.961320 Z1.000000 I-2.302809 J2.192868
G03 X243.547222 Y138.764879 Z1.000000 I-1.221812 J0.610906
G02 X243.416660 Y140.607150 Z1.000000 I12.932231 J1.842271
G02 X243.480863 Y141.268250 Z1.000000 I3.435774 J-0.000000
G03 X243.416660 Y141.741080 Z1.000000 I-0.725516 J0.142260
G03 X242.017455 Y143.181068 Z1.000000 I-2.968009 J-1.484167
G02 X241.904760 Y143.252990 Z1.000000 I0.418304 J0.779694
G03 X241.530212 Y143.446817 Z1.000000 I-0.765924 J-1.021263
G02 X241.148810 Y143.630960 Z1.000000 I0.471300 J1.463224
G02 X240.959819 Y143.819930 Z1.000000 I0.377605 J0.566637
G03 X240.770830 Y144.008940 Z1.000000 I-0.566961 J-0.377911
G03 X240.399462 Y144.209313 Z1.000000 I-1.257486 J-1.886269
G02 X240.014880 Y144.386910 Z1.000000 I2.668343 J6.283448
G01 X238.502970 Y145.142870 Z1.000000
G02 X238.134224 Y145.358734 Z1.000000 I1.449381 J2.898762
G03 X237.747020 Y145.520840 Z1.000000 I-0.595310 J-0.878462
G03 X237.180894 Y145.525415 Z1.000000 I-0.295007 J-1.475591
G02 X236.613090 Y145.520840 Z1.000000 I-0.296986 J1.621384
G02 X234.528555 Y146.272899 Z1.000000 I1.011470 J6.068520
G03 X233.589280 Y146.654770 Z1.000000 I-1.813000 J-3.113284
G03 X232.270964 Y146.865085 Z1.000000 I-1.867824 J-7.471123
G02 X230.943450 Y147.032750 Z1.000000 I0.880897 J12.313855
G03 X229.417022 Y147.269862 Z1.000000 I-2.064266 J-8.257085
G02 X227.919640 Y147.410720 Z1.000000 I1.555226 J24.562027
G02 X227.163684 Y147.599700 Z1.000000 I0.401218 J3.211434
G03 X226.407740 Y147.788700 Z1.000000 I-1.157449 J-3.023174
G03 X225.653248 Y147.812205 Z1.000000 I-0.502995 J-4.024602
G02 X224.895830 Y147.788700 Z1.000000 I-0.757418 J12.191408
G01 X219.226190 Y147.788700 Z1.000000
G02 X208.073160 Y147.813761 Z1.000000 I0.000000 J2481.795997
G03 X196.925590 Y147.410720 Z1.000000 I-0.617019 J-137.299089
G03 X195.600054 Y147.245101 Z1.000000 I1.077045 J-14.007419
G02 X194.279760 Y147.032750 Z1.000000 I-9.227887 J53.163901
G01 X186.720240 Y145.898820 Z1.000000
G03 X181.780654 Y145.160385 Z1.000000 I277.957877 J-1876.224272
G03 X175.380950 Y144.008940 Z1.000000 I17.133883 J-113.590116
G03 X171.598654 Y143.075759 Z1.000000 I11.221471 J-53.613626
G02 X167.821430 Y142.119060 Z1.000000 I-18.156229 J63.749204
G02 X166.497232 Y141.935580 Z1.000000 I-1.792322 J8.065216
G03 X165.175590 Y141.741080 Z1.000000 I0.423767 J-7.467107
G03 X161.765493 Y140.828151 Z1.000000 I15.825359 J-65.938419
G02 X158.372020 Y139.851200 Z1.000000 I-68.600429 J231.903861
G03 X154.282634 Y138.618005 Z1.000000 I28.969520 J-103.462570
G03 X148.922620 Y136.827390 Z1.000000 I90.124251 J-278.694822
G03 X146.832781 Y136.100559 Z1.000000 I136.271165 J-395.184677
G03 X144.764880 Y135.315490 Z1.000000 I14.366501 J-40.957920
G03 X142.672293 Y134.401439 Z1.000000 I18.393185 J-44.960907
G03 X140.607140 Y133.425610 Z1.000000 I79.055021 J-169.977731
G03 X135.274559 Y130.712250 Z1.000000 I55.893359 J-116.444292
G03 X130.023810 Y127.755960 Z1.000000 I75.412854 J-140.083993
G03 X126.371437 Y125.129506 Z1.000000 I12.452487 J-21.169293
G02 X123.220240 Y122.464300 Z1.000000 I-103.197838 J118.820093
G03 X121.245419 Y120.780917 Z1.000000 I48.591118 J-59.003567
G03 X119.818450 Y119.440490 Z1.000000 I20.718229 J-23.485626
G02 X119.229935 Y118.892213 Z1.000000 I-8.038984 J8.038984
G03 X118.684520 Y118.306560 Z1.000000 I2.470981 J-2.848003
G03 X116.725467 Y115.141898 Z1.000000 I16.712814 J-12.534605
G03 X116.038690 Y113.770840 Z1.000000 I940.547964 J-471.987150
G02 X115.070281 Y111.908011 Z1.000000 I-59.575106 J29.787553
G03 X114.526780 Y110.747040 Z1.000000 I9.842329 J-5.315322
G02 X114.318953 Y110.374662 Z1.000000 I-1.544356 J0.617730
G03 X114.148810 Y109.991080 Z1.000000 I0.772188 J-0.572041
G03 X114.148809 Y109.424123 Z1.000000 I1.417900 J-0.283481
G02 X114.148810 Y108.857150 Z1.000000 I-1.417957 J-0.283488
G02 X113.959801 Y108.479179 Z1.000000 I-0.787789 J0.157700
G03 X113.770830 Y108.101200 Z1.000000 I0.598566 J-0.535481
G03 X113.742838 Y107.537017 Z1.000000 I1.881282 J-0.376124
G02 X113.770830 Y106.967270 Z1.000000 I-5.784389 J-0.569747
G01 X113.770830 Y103.943460 Z1.000000
G02 X113.705473 Y102.635639 Z1.000000 I-13.117701 J-0.000000
G03 X113.770830 Y101.297630 Z1.000000 I4.499330 J-0.450825
G03 X113.964591 Y100.731547 Z1.000000 I2.220902 J0.443976
G02 X114.148810 Y100.163700 Z1.000000 I-1.805035 J-0.899390
G02 X114.144235 Y99.595903 Z1.000000 I-1.625906 J-0.270817
G03 X114.148810 Y99.029770 Z1.000000 I1.480176 J-0.271124
G03 X114.310935 Y98.642570 Z1.000000 I1.041234 J0.208435
G02 X114.526780 Y98.273820 Z1.000000 I-2.684807 J-1.819076
G03 X115.471725 Y96.572930 Z1.000000 I20.034578 J10.017462
G02 X116.416670 Y94.872040 Z1.000000 I-19.089633 J-11.718352
G02 X116.401466 Y94.672110 Z1.000000 I-0.174675 J-0.087260
G03 X116.416670 Y94.494060 Z1.000000 I0.113238 J-0.080005
G03 X116.983633 Y94.116080 Z1.000000 I1.228356 J1.228356
G02 X117.550590 Y93.738110 Z1.000000 I-0.661410 J-1.606376
G02 X117.751277 Y93.370271 Z1.000000 I-0.525156 J-0.525182
G03 X117.928570 Y92.982150 Z1.000000 I0.977206 J0.211832
G03 X118.292180 Y92.591721 Z1.000000 I2.010963 J1.508293
G02 X118.684520 Y92.226200 Z1.000000 I-4.965273 J-5.722921
G01 X119.440470 Y91.470250 Z1.000000
G02 X120.176667 Y90.692221 Z1.000000 I-13.713301 J-13.713301
G03 X120.952380 Y89.958350 Z1.000000 I4.801344 J4.298190
G03 X121.523043 Y89.584839 Z1.000000 I2.240761 J2.800813
G02 X122.086310 Y89.202390 Z1.000000 I-1.416281 J-2.691900
G02 X122.827584 Y88.427706 Z1.000000 I-3.536959 J-4.126414
G03 X123.598210 Y87.690490 Z1.000000 I2.945551 J2.307657
G03 X124.152803 Y87.480950 Z1.000000 I0.672720 J0.941803
G02 X124.732140 Y87.312510 Z1.000000 I-0.171316 J-1.669745
G02 X125.799785 Y86.622783 Z1.000000 I-0.100767 J-1.327160
G03 X126.622020 Y85.800610 Z1.000000 I1.809020 J0.986920
G03 X128.871414 Y84.543845 Z1.000000 I2.484563 J1.805545
G02 X131.157740 Y83.910720 Z1.000000 I-0.472312 J-6.150326
G02 X131.720435 Y83.523564 Z1.000000 I-1.102158 J-2.204371
G03 X132.291670 Y83.154770 Z1.000000 I1.370312 J1.495718
G03 X133.039314 Y82.942433 Z1.000000 I1.197619 J2.794445
G02 X133.803570 Y82.776800 Z1.000000 I-0.892677 J-5.964959
G02 X134.373491 Y82.597015 Z1.000000 I-3.011648 J-10.540218
G02 X134.937500 Y82.398820 Z1.000000 I-19.188205 J-55.505867
G02 X138.689751 Y81.016872 Z1.000000 I-68.214623 J-191.000639
G03 X142.497020 Y79.752990 Z1.000000 I16.862056 J44.428232
G03 X143.252055 Y79.560677 Z1.000000 I3.704694 J12.966558
G02 X144.008930 Y79.375010 Z1.000000 I-4.252326 J-18.970265
G02 X146.080058 Y78.774860 Z1.000000 I-12.957321 J-48.589780
G03 X148.166660 Y78.241080 Z1.000000 I6.070063 J19.383243
G03 X148.920823 Y78.230615 Z1.000000 I0.405283 J2.027194
G02 X149.678570 Y78.241080 Z1.000000 I0.412193 J-2.407445
G02 X150.249815 Y78.072175 Z1.000000 I-0.289885 J-2.030845
G03 X150.812500 Y77.863110 Z1.000000 I1.628286 J3.520685
G03 X151.565275 Y77.661419 Z1.000000 I6.481747 J22.686343
G03 X152.324400 Y77.485130 Z1.000000 I5.539009 J22.129102
G03 X154.215930 Y77.114540 Z1.000000 I11.457980 J53.470148
G02 X156.104160 Y76.729180 Z1.000000 I-6.617656 J-37.244691
G02 X156.669319 Y76.531078 Z1.000000 I-0.611653 J-2.650176
G03 X157.238090 Y76.351200 Z1.000000 I0.917310 J1.911361
G03 X157.803991 Y76.343476 Z1.000000 I0.308265 J1.850783
G02 X158.372020 Y76.351200 Z1.000000 I0.314963 J-2.272055
G02 X160.639880 Y75.973225 Z1.000000 I-2.330657 J-20.976601
G03 X162.907740 Y75.595250 Z1.000000 I4.598517 J20.598626
G03 X163.473831 Y75.579576 Z1.000000 I0.377394 J3.399807
G02 X164.041660 Y75.595250 Z1.000000 I0.567829 J-10.277932
G02 X165.109235 Y75.441166 Z1.000000 I0.000000 J-3.775410
G03 X165.931550 Y75.217270 Z1.000000 I5.779669 J19.605245
G03 X167.297800 Y75.136292 Z1.000000 I0.898764 J3.597727
G02 X168.577380 Y75.217270 Z1.000000 I1.279580 J-10.069172
G01 X173.113090 Y75.217270 Z1.000000
G01 X175.002970 Y75.217270 Z1.000000
G02 X175.207434 Y75.179917 Z1.000000 I-0.000000 J-0.578280
G03 X175.380950 Y75.217270 Z1.000000 I0.057839 J0.153017
G03 X175.418300 Y75.390801 Z1.000000 I-0.115685 J0.115685
G02 X175.380950 Y75.595250 Z1.000000 I0.540880 J0.204449
G01 X175.380950 Y75.973220 Z1.000000
G01 X175.380950 Y78.241080 Z1.000000
G01 X175.380950 Y78.619060 Z1.000000
G02 X175.402921 Y78.813240 Z1.000000 I0.869051 J0.000000
G03 X175.380950 Y78.997040 Z1.000000 I-0.267259 J0.061265
G03 X175.191958 Y79.186020 Z1.000000 I-0.378031 J-0.189063
G02 X175.002970 Y79.375010 Z1.000000 I0.189020 J0.378005
G02 X174.989565 Y79.747429 Z1.000000 I0.401829 J0.200915
G03 X175.002970 Y80.130960 Z1.000000 I-0.507830 J0.209749
G03 X174.657394 Y80.943240 Z1.000000 I-5.207417 J-1.735791
G02 X174.247020 Y82.020850 Z1.000000 I4.305941 J2.256726
G02 X174.278031 Y82.576259 Z1.000000 I0.910794 J0.227717
G03 X174.247020 Y83.154770 Z1.000000 I-0.680834 J0.253590
G03 X174.078961 Y83.169831 Z1.000000 I-0.088675 J-0.044302
G02 X173.869050 Y83.154770 Z1.000000 I-0.111477 J0.083362
G02 X173.567938 Y83.853762 Z1.000000 I0.727917 J0.727925
G03 X173.491070 Y84.288700 Z1.000000 I-1.508981 J-0.042427
G03 X173.302073 Y84.666683 Z1.000000 I-1.417655 J-0.472601
G02 X173.113090 Y85.044650 Z1.000000 I1.228505 J0.850477
G02 X173.113094 Y85.611614 Z1.000000 I0.850479 J0.283481
G03 X173.113090 Y86.178580 Z1.000000 I-0.850447 J0.283473
G03 X172.951305 Y86.384369 Z1.000000 I-0.367439 J-0.122378
G02 X172.735120 Y86.556560 Z1.000000 I0.651936 J1.040312
G02 X172.304249 Y87.036534 Z1.000000 I4.236202 J4.236202
G02 X171.979160 Y87.690490 Z1.000000 I1.325151 J1.066529
G02 X171.986427 Y88.070576 Z1.000000 I0.706590 J0.176604
G03 X171.979160 Y88.446440 Z1.000000 I-0.605865 J0.176289
G03 X171.810182 Y88.645896 Z1.000000 I-0.333191 J-0.110972
G02 X171.601190 Y88.824420 Z1.000000 I0.293984 J0.555747
G02 X171.197120 Y89.375248 Z1.000000 I25.768157 J19.326295
G02 X170.845240 Y89.958350 Z1.000000 I3.491318 J2.504607
G02 X170.823266 Y90.142130 Z1.000000 I0.245223 J0.122525
G03 X170.845240 Y90.336320 Z1.000000 I-0.847059 J0.194190
G02 X170.667638 Y90.720902 Z1.000000 I6.107961 J3.053981
G03 X170.467260 Y91.092270 Z1.000000 I-2.086872 J-0.886268
G03 X170.110702 Y91.547162 Z1.000000 I-3.133978 J-2.089318
G02 X169.711310 Y92.226200 Z1.000000 I1.393808 J1.276775
G02 X169.723915 Y92.421341 Z1.000000 I0.246446 J0.082059
G03 X169.711310 Y92.604180 Z1.000000 I-0.166244 J0.080393
G03 X169.353843 Y92.998978 Z1.000000 I-1.504624 J-1.003117
G02 X168.955360 Y93.360130 Z1.000000 I3.475152 J4.234787
G03 X168.739191 Y93.532320 Z1.000000 I-0.868624 J-0.868693
G02 X168.577380 Y93.738110 Z1.000000 I0.205811 J0.328338
G02 X168.577380 Y94.116085 Z1.000000 I0.566844 J0.188987
G03 X168.577380 Y94.494060 Z1.000000 I-0.566844 J0.188988
G03 X168.405278 Y94.691317 Z1.000000 I-0.322389 J-0.107571
G02 X168.199400 Y94.872040 Z1.000000 I0.233525 J0.473659
G02 X168.010415 Y95.250015 Z1.000000 I1.417463 J0.944955
G03 X167.821430 Y95.627990 Z1.000000 I-1.606448 J-0.566980
G03 X167.272290 Y96.207388 Z1.000000 I-1.956339 J-1.304241
G02 X166.687500 Y96.761920 Z1.000000 I2.061968 J2.760097
G02 X165.931547 Y97.706854 Z1.000000 I23.236880 J19.364504
G03 X165.175590 Y98.651800 Z1.000000 I-23.997822 J-18.423400
G03 X164.999506 Y98.855150 Z1.000000 I-5.464342 J-4.553751
G03 X164.797620 Y99.029770 Z1.000000 I-0.795113 J-0.715251
G03 X164.388487 Y99.187607 Z1.000000 I-0.557763 J-0.836609
G02 X164.041660 Y99.407750 Z1.000000 I0.074928 J0.501325
G02 X164.060301 Y99.800997 Z1.000000 I0.275981 J0.183983
G03 X164.041660 Y100.163700 Z1.000000 I-0.210312 J0.171021
G03 X163.690761 Y100.207484 Z1.000000 I-0.203582 J-0.203571
G02 X163.285710 Y100.163700 Z1.000000 I-0.250326 J0.420314
G02 X162.866695 Y100.710344 Z1.000000 I0.194282 J0.582836
G03 X162.529760 Y101.297630 Z1.000000 I-0.758290 J-0.044748
G03 X162.164096 Y101.322796 Z1.000000 I-0.204844 J-0.307251
G02 X161.773810 Y101.297630 Z1.000000 I-0.226088 J0.467326
G02 X161.576548 Y101.469735 Z1.000000 I0.107564 J0.322388
G03 X161.395830 Y101.675610 Z1.000000 I-0.473640 J-0.233509
G03 X161.017855 Y101.864595 Z1.000000 I-0.944955 J-1.417463
G02 X160.639880 Y102.053580 Z1.000000 I0.566980 J1.606448
G02 X160.459171 Y102.259457 Z1.000000 I0.292650 J0.439123
G03 X160.261900 Y102.431560 Z1.000000 I-0.304689 J-0.150135
G03 X159.531573 Y102.431560 Z1.000000 I-0.365164 J-1.095491
G02 X159.127970 Y102.431560 Z1.000000 I-0.201801 J0.605404
G02 X158.744245 Y102.606660 Z1.000000 I0.628572 J1.885504
G03 X158.372020 Y102.809540 Z1.000000 I-3.052926 J-5.158308
G02 X157.241935 Y103.199919 Z1.000000 I17.403708 J52.211815
G03 X156.104160 Y103.565490 Z1.000000 I-6.176111 J-17.268724
G03 X154.783603 Y103.642337 Z1.000000 I-0.832089 J-2.914008
G02 X153.836310 Y103.565490 Z1.000000 I-0.947293 J5.800207
G01 X150.056550 Y103.565490 Z1.000000
G01 X142.875000 Y103.565490 Z1.000000
G03 X140.147378 Y103.524034 Z1.000000 I0.000000 J-89.752762
G03 X137.205360 Y103.187510 Z1.000000 I0.539532 J-17.745180
G03 X136.448443 Y102.814081 Z1.000000 I0.320803 J-1.604073
G02 X135.693450 Y102.431560 Z1.000000 I-1.125627 J1.285347
G02 X134.752753 Y102.406049 Z1.000000 I-0.536118 J2.412493
G03 X133.803570 Y102.431560 Z1.000000 I-0.566719 J-3.415072
G03 X133.042973 Y102.268377 Z1.000000 I0.427842 J-3.848342
G02 X132.291670 Y102.053580 Z1.000000 I-3.581129 J11.104507
G01 X126.244050 Y100.541680 Z1.000000
G02 X124.725685 Y100.186546 Z1.000000 I-12.424266 J49.696077
G03 X123.220240 Y99.785720 Z1.000000 I3.632282 J-16.669885
G03 X120.391351 Y98.821047 Z1.000000 I19.768842 J-62.601994
G02 X117.550590 Y97.895850 Z1.000000 I-14.069645 J38.376207
G02 X116.416664 Y97.706856 Z1.000000 I-1.398523 J4.894452
G03 X115.282740 Y97.517870 Z1.000000 I0.264611 J-5.083712
G03 X112.447914 Y96.572926 Z1.000000 I9.449965 J-33.074534
G02 X109.613090 Y95.627990 Z1.000000 I-12.284091 J32.127758
G02 X108.475441 Y95.451039 Z1.000000 I-1.278700 J4.475449
G03 X107.345240 Y95.250010 Z1.000000 I0.119785 J-3.950989
G03 X104.494982 Y94.158216 Z1.000000 I10.956813 J-32.870440
G02 X101.675590 Y92.982150 Z1.000000 I-41.463938 J95.434275
G01 X97.895832 Y91.470250 Z1.000000
G01 X92.226190 Y89.202390 Z1.000000
G03 X89.581172 Y88.133916 Z1.000000 I155.336017 J-388.343882
G03 X86.934523 Y86.934540 Z1.000000 I14.383445 J-35.259641
G03 X84.491221 Y85.582922 Z1.000000 I14.997398 J-29.994778
G02 X82.020832 Y84.288700 Z1.000000 I-11.276620 J18.519785
G02 X81.081419 Y84.086209 Z1.000000 I-0.954399 J2.147380
G03 X80.130951 Y83.910720 Z1.000000 I0.017582 J-2.756893
G03 X79.554660 Y83.553398 Z1.000000 I0.610455 J-1.627932
G02 X78.997023 Y83.154770 Z1.000000 I-1.795591 J1.922480
G02 X76.713383 Y82.048719 Z1.000000 I-15.345329 J28.772656
G03 X74.461308 Y80.886920 Z1.000000 I7.917200 J-18.110651
G03 X73.886501 Y80.332044 Z1.000000 I0.911893 J-1.519813
G02 X73.327381 Y79.752990 Z1.000000 I-1.767492 J1.147183
G02 X72.019067 Y78.974534 Z1.000000 I-5.905513 J8.436476
G03 X70.681547 Y78.241080 Z1.000000 I8.769970 J-17.579111
G03 X67.865063 Y76.287673 Z1.000000 I13.373962 J-22.290150
G03 X66.523808 Y75.217270 Z1.000000 I449.874620 J-565.085394
G03 X65.748097 Y74.483399 Z1.000000 I4.025536 J-5.031943
G02 X65.011905 Y73.705370 Z1.000000 I-14.449054 J12.934778
G01 X63.499999 Y72.193460 Z1.000000
G02 X63.300752 Y72.012883 Z1.000000 I-1.936732 J1.936763
G03 X63.122023 Y71.815490 Z1.000000 I0.573512 J-0.698895
G03 X62.949584 Y71.423948 Z1.000000 I1.033093 J-0.688727
G02 X62.744048 Y71.059540 Z1.000000 I-0.756414 J0.186470
G02 X62.334921 Y70.892992 Z1.000000 I-0.402176 J0.402162
G03 X61.988093 Y70.681560 Z1.000000 I-0.004675 J-0.382511
G03 X61.957080 Y70.126069 Z1.000000 I0.627268 J-0.313632
G02 X61.988093 Y69.547630 Z1.000000 I-0.924331 J-0.339609
G02 X61.804728 Y69.357006 Z1.000000 I-0.257748 J0.064429
G03 X61.610118 Y69.169650 Z1.000000 I0.081478 J-0.279382
G03 X61.434582 Y68.219791 Z1.000000 I3.306619 J-1.102221
G02 X61.232142 Y67.279770 Z1.000000 I-2.865999 J0.125402
G02 X61.051887 Y67.275849 Z1.000000 I-0.090962 J0.036383
G03 X60.854166 Y67.279770 Z1.000000 I-0.099793 J-0.045044
G03 X60.672126 Y66.517218 Z1.000000 I1.537199 J-0.769972
G03 X60.854166 Y65.011920 Z1.000000 I6.097119 J-0.026315
G03 X61.267952 Y64.326052 Z1.000000 I1.323940 J0.330984
G02 X61.610118 Y63.877990 Z1.000000 I-1.003129 J-1.120726
G02 X61.610118 Y63.689000 Z1.000000 I-0.188973 J-0.094495
G03 X61.610118 Y63.500010 Z1.000000 I0.188973 J-0.094495
G03 X62.062464 Y62.957624 Z1.000000 I1.376734 J0.688367
G02 X62.744048 Y62.366080 Z1.000000 I-3.841460 J-5.114612
G01 X63.122023 Y61.988110 Z1.000000
G02 X63.294214 Y61.771939 Z1.000000 I-0.868625 J-0.868569
G03 X63.499999 Y61.610130 Z1.000000 I0.328332 J0.205803
G03 X63.877977 Y61.610130 Z1.000000 I0.188989 J0.566857
G02 X64.255951 Y61.610130 Z1.000000 I0.188986 J-0.566846
G02 X64.453213 Y61.438024 Z1.000000 I-0.107567 J-0.322390
G03 X64.633927 Y61.232150 Z1.000000 I0.473652 J0.233516
G03 X65.005296 Y61.031777 Z1.000000 I1.257531 J1.886361
G02 X65.389881 Y60.854180 Z1.000000 I-2.668731 J-6.284326
G02 X65.762103 Y60.651300 Z1.000000 I-2.678741 J-5.357568
G03 X66.145833 Y60.476200 Z1.000000 I1.012075 J1.709930
G03 X66.332342 Y60.460983 Z1.000000 I0.124342 J0.373417
G02 X66.523808 Y60.476200 Z1.000000 I0.191466 J-1.196929
G03 X67.093791 Y60.295462 Z1.000000 I6.439689 J19.319372
G02 X67.657738 Y60.098220 Z1.000000 I-1.954260 J-6.492368
G02 X68.792245 Y59.499298 Z1.000000 I-2.268218 J-5.670545
G03 X69.169642 Y59.342270 Z1.000000 I0.582777 J0.868606
G03 X71.325989 Y58.880583 Z1.000000 I1.544478 J1.947068
G02 X73.327381 Y58.964300 Z1.000000 I1.200062 J-4.724305
G02 X73.894344 Y58.775310 Z1.000000 I-0.314972 J-1.889835
G03 X74.461308 Y58.586320 Z1.000000 I0.881935 J1.700845
G03 X75.028273 Y58.586320 Z1.000000 I0.283482 J1.701968
G02 X75.595238 Y58.586320 Z1.000000 I0.283483 J-1.701968
G02 X76.161662 Y58.393851 Z1.000000 I-0.304120 J-1.824715
G03 X76.729166 Y58.208350 Z1.000000 I0.811286 J1.521139
G03 X77.483212 Y58.181512 Z1.000000 I0.502697 J3.517490
G02 X78.241072 Y58.208350 Z1.000000 I0.757860 J-10.686766
G01 X86.934523 Y58.208350 Z1.000000
G01 X92.604166 Y58.208350 Z1.000000
G01 X94.494047 Y58.208350 Z1.000000
G02 X95.252322 Y58.178739 Z1.000000 I-0.000000 J-9.723823
G03 X96.005950 Y58.208350 Z1.000000 I0.251209 J3.211594
G03 X98.839191 Y58.785830 Z1.000000 I-5.071832 J32.122476
G02 X101.675590 Y59.342270 Z1.000000 I6.782142 J-27.063966
G02 X102.809528 Y59.342273 Z1.000000 I0.567149 J-3.968832
G03 X103.943450 Y59.342270 Z1.000000 I0.566803 J3.968935
G03 X106.778278 Y59.909240 Z1.000000 I-3.685520 J25.797963
G02 X109.613090 Y60.476200 Z1.000000 I6.520050 J-25.229842
G02 X110.747028 Y60.476199 Z1.000000 I0.566967 J-3.968715
G03 X111.880950 Y60.476200 Z1.000000 I0.566959 J3.968636
G03 X114.721275 Y61.010121 Z1.000000 I-4.654975 J32.585168
G02 X117.550590 Y61.610130 Z1.000000 I15.868798 J-67.857819
G02 X118.684082 Y61.801483 Z1.000000 I5.126213 J-26.912620
G03 X119.818450 Y61.988110 Z1.000000 I-4.986479 J33.849946
G01 X125.866070 Y63.122040 Z1.000000
G03 X126.799683 Y63.535719 Z1.000000 I-5.182640 J12.956805
G02 X127.755950 Y63.877990 Z1.000000 I2.027962 J-4.158915
G02 X130.766568 Y64.514363 Z1.000000 I14.014360 J-58.860903
G02 X133.803570 Y65.011920 Z1.000000 I13.658331 J-73.850647
G02 X134.752635 Y64.990224 Z1.000000 I0.409291 J-2.864718
G03 X135.693450 Y65.011920 Z1.000000 I0.419681 J2.210485
G03 X138.726207 Y65.922678 Z1.000000 I-6.326466 J26.571467
G02 X141.741070 Y66.901800 Z1.000000 I15.208258 J-41.697339
G02 X142.685529 Y67.092496 Z1.000000 I1.675656 J-5.864845
G03 X143.630950 Y67.279770 Z1.000000 I-0.767021 J6.352224
G03 X146.090468 Y68.026394 Z1.000000 I-14.469183 J52.088554
G02 X148.544640 Y68.791680 Z1.000000 I24.809691 J-75.243662
G02 X150.058453 Y69.163370 Z1.000000 I4.858153 J-16.517655
G03 X151.568450 Y69.547630 Z1.000000 I-2.819248 J14.237563
G03 X154.407603 Y70.479160 Z1.000000 I-31.499267 J100.797126
G02 X157.238090 Y71.437510 Z1.000000 I103.024189 J-299.622757
G03 X159.898925 Y72.333329 Z1.000000 I-148.221438 J444.659315
G03 X162.529760 Y73.327390 Z1.000000 I-13.505502 J39.721359
G03 X163.286546 Y73.703402 Z1.000000 I-2.452105 J5.884849
G02 X164.041660 Y74.083350 Z1.000000 I3.474074 J-5.964088
G02 X164.626866 Y74.240794 Z1.000000 I0.843028 J-1.967154
G03 X165.175590 Y74.461320 Z1.000000 I-0.137847 J1.135944
G03 X165.360739 Y74.844729 Z1.000000 I-0.278000 J0.370655
G02 X165.553570 Y75.217270 Z1.000000 I0.433234 J0.011930
G02 X165.919234 Y75.242436 Z1.000000 I0.204844 J-0.307251
G03 X166.309520 Y75.217270 Z1.000000 I0.226088 J0.467326
G03 X166.506778 Y75.389321 Z1.000000 I-0.107278 J0.322100
G02 X166.687500 Y75.595250 Z1.000000 I0.473560 J-0.233329
G02 X167.068902 Y75.779393 Z1.000000 I0.852702 J-1.279080
G03 X167.443450 Y75.973220 Z1.000000 I-0.391376 J1.215089
G03 X168.032813 Y76.738508 Z1.000000 I-1.082334 J1.443109
G02 X168.199400 Y77.107150 Z1.000000 I4.781058 J-1.938572
G02 X168.388401 Y77.296142 Z1.000000 I0.378035 J-0.189053
G03 X168.577380 Y77.485130 Z1.000000 I-0.188993 J0.377963
G03 X168.599387 Y77.668932 Z1.000000 I-0.244825 J0.122532
G02 X168.577380 Y77.863110 Z1.000000 I0.845651 J0.194178
G01 X168.577380 Y78.241080 Z1.000000
G02 X168.614733 Y78.445536 Z1.000000 I0.578236 J0.000000
G03 X168.577380 Y78.619060 Z1.000000 I-0.153021 J0.057843
G03 X168.401907 Y78.640969 Z1.000000 I-0.101817 J-0.101817
G02 X168.199400 Y78.619060 Z1.000000 I-0.125191 J0.210294
G02 X167.795456 Y78.766030 Z1.000000 I2.502532 J7.506753
G02 X167.443450 Y78.997040 Z1.000000 I0.380484 J0.963463
G02 X167.443453 Y79.186033 Z1.000000 I0.094495 J0.094495
G03 X167.443450 Y79.375010 Z1.000000 I-0.094482 J0.094487
G03 X167.265392 Y79.390211 Z1.000000 I-0.098048 J-0.098048
G02 X167.065470 Y79.375010 Z1.000000 I-0.112664 J0.159470
G02 X166.876484 Y79.564006 Z1.000000 I0.189047 J0.378024
G03 X166.687500 Y79.752990 Z1.000000 I-0.377992 J-0.189007
G03 X166.498527 Y79.752956 Z1.000000 I-0.094453 J-0.189057
G02 X166.309520 Y79.752990 Z1.000000 I-0.094470 J0.188923
G02 X166.124458 Y79.951472 Z1.000000 I0.173829 J0.347592
G03 X165.931550 Y80.130960 Z1.000000 I-0.293358 J-0.121883
G03 X165.553570 Y80.130960 Z1.000000 I-0.188990 J-0.566875
G02 X165.175590 Y80.130960 Z1.000000 I-0.188990 J0.566875
G02 X164.978333 Y80.303065 Z1.000000 I0.107570 J0.322387
G03 X164.797620 Y80.508940 Z1.000000 I-0.473662 J-0.233519
G03 X164.432019 Y80.723235 Z1.000000 I-2.033761 J-3.050707
G03 X164.041660 Y80.886920 Z1.000000 I-1.280037 J-2.505348
G03 X163.854241 Y80.892785 Z1.000000 I-0.103532 J-0.310907
G02 X163.663690 Y80.886920 Z1.000000 I-0.107909 J0.407479
G02 X162.907736 Y81.075901 Z1.000000 I1.605827 J8.031134
G03 X162.151780 Y81.264890 Z1.000000 I-2.362260 J-7.843740
G03 X161.961237 Y81.259026 Z1.000000 I-0.082641 J-0.413338
G02 X161.773810 Y81.264890 Z1.000000 I-0.083893 J0.316804
G02 X161.395827 Y81.453887 Z1.000000 I0.472601 J1.417655
G03 X161.017860 Y81.642870 Z1.000000 I-0.850477 J-1.228505
G03 X160.829932 Y81.646467 Z1.000000 I-0.099731 J-0.299518
G02 X160.639880 Y81.642870 Z1.000000 I-0.101673 J0.349429
G02 X160.076919 Y81.856013 Z1.000000 I0.624974 J2.500736
G03 X159.505950 Y82.020850 Z1.000000 I-0.696482 J-1.341208
G03 X157.805063 Y82.020850 Z1.000000 I-0.850446 J-10.201826
G02 X156.104160 Y82.020850 Z1.000000 I-0.850453 J10.201962
G02 X155.535656 Y82.197438 Z1.000000 I0.114338 J1.371509
G03 X154.970240 Y82.398820 Z1.000000 I-0.845602 J-1.479735
G03 X154.405206 Y82.422227 Z1.000000 I-0.376688 J-2.261585
G02 X153.836310 Y82.398820 Z1.000000 I-0.568896 J6.901795
G03 X152.323664 Y82.375215 Z1.000000 I-0.000000 J-48.478621
G02 X150.812500 Y82.398820 Z1.000000 I-0.503720 J16.135811
G02 X148.544641 Y82.587795 Z1.000000 I3.420965 J54.758019
G03 X146.276780 Y82.776800 Z1.000000 I-5.692445 J-54.603782
G03 X144.576721 Y82.803332 Z1.000000 I-1.133373 J-18.142311
G02 X142.875000 Y82.776800 Z1.000000 I-1.701721 J54.559862
G01 X133.425590 Y82.776800 Z1.000000
G01 X127.755950 Y82.776800 Z1.000000
G02 X126.620962 Y82.801397 Z1.000000 I0.000000 J26.198517
G03 X125.488090 Y82.776800 Z1.000000 I-0.377626 J-8.708426
G03 X122.275295 Y82.398821 Z1.000000 I4.614446 J-53.065755
G02 X119.062500 Y82.020850 Z1.000000 I-7.826642 J52.683746
G02 X117.929370 Y82.008560 Z1.000000 I-0.647361 J7.443272
G03 X116.794640 Y82.020850 Z1.000000 I-0.680561 J-10.445232
G03 X113.581903 Y81.830405 Z1.000000 I4.436396 J-102.034243
G02 X110.369050 Y81.642870 Z1.000000 I-7.233593 J96.311133
G02 X109.045443 Y81.654479 Z1.000000 I-0.546724 J13.127029
G03 X107.723210 Y81.642870 Z1.000000 I-0.575820 J-9.721046
G03 X102.895932 Y81.401291 Z1.000000 I-1.901811 J-10.348235
G02 X98.273808 Y80.508940 Z1.000000 I-7.198157 J24.867587
G02 X93.739811 Y80.112237 Z1.000000 I-18.269322 J182.695158
G03 X89.202381 Y79.752990 Z1.000000 I41.216061 J-549.410040
G01 X84.666666 Y79.375010 Z1.000000
G03 X83.543293 Y78.955840 Z1.000000 I5.358214 J-16.074898
G02 X82.398808 Y78.619060 Z1.000000 I-2.149816 J5.192700
G02 X81.455324 Y78.610097 Z1.000000 I-0.497794 J2.737890
G03 X80.508926 Y78.619060 Z1.000000 I-0.502576 J-3.097446
G03 X77.485118 Y78.052095 Z1.000000 I5.008482 J-35.058824
G02 X74.461308 Y77.485130 Z1.000000 I-8.032288 J34.491848
G02 X73.515518 Y77.490621 Z1.000000 I-0.454444 J3.180744
G03 X72.571427 Y77.485130 Z1.000000 I-0.454961 J-2.940123
G03 X68.695221 Y76.616572 Z1.000000 I5.909093 J-35.454781
G02 X66.145833 Y75.973220 Z1.000000 I-12.548800 J44.353842
G02 X65.198493 Y75.794059 Z1.000000 I-3.294124 J14.823960
G03 X64.255951 Y75.595250 Z1.000000 I1.412543 J-9.030469
G03 X62.360912 Y75.046254 Z1.000000 I11.890282 J-44.588365
G02 X60.476190 Y74.461320 Z1.000000 I-121.254228 J387.365649
G03 X59.905143 Y74.283888 Z1.000000 I31.868172 J-103.571967
G03 X59.342260 Y74.083350 Z1.000000 I2.339882 J-7.457980
G03 X58.964285 Y73.894356 Z1.000000 I0.945236 J-2.362887
G02 X58.586308 Y73.705370 Z1.000000 I-1.322912 J2.173401
G02 X57.442148 Y73.350173 Z1.000000 I-2.801443 J7.003618
G03 X56.318451 Y72.949420 Z1.000000 I1.085226 J-4.818715
G03 X55.373510 Y72.382450 Z1.000000 I3.212853 J-6.425610
G02 X54.428572 Y71.815490 Z1.000000 I-4.157438 J5.858138
G02 X54.239566 Y71.815456 Z1.000000 I-0.094536 J0.188890
G03 X54.050593 Y71.815490 Z1.000000 I-0.094520 J-0.189027
G03 X53.848845 Y71.644195 Z1.000000 I0.248791 J-0.497476
G02 X53.672618 Y71.437510 Z1.000000 I-1.387191 J1.004298
G03 X53.367110 Y70.896763 Z1.000000 I0.819881 J-0.819887
G03 X53.294642 Y70.303580 Z1.000000 I2.391497 J-0.593183
G01 X53.294642 Y69.925610 Z1.000000
G02 X53.272652 Y69.731424 Z1.000000 I-0.868389 J0.000000
G03 X53.294642 Y69.547630 Z1.000000 I0.267029 J-0.061263
G03 X53.728629 Y69.293873 Z1.000000 I0.411479 J0.205739
G02 X54.050593 Y69.169650 Z1.000000 I0.020835 J-0.425349
G02 X54.050594 Y68.791674 Z1.000000 I-0.188987 J-0.188988
G03 X54.050593 Y68.413700 Z1.000000 I0.188988 J-0.188988
G03 X54.224115 Y68.376347 Z1.000000 I0.115680 J0.115667
G02 X54.428572 Y68.413700 Z1.000000 I0.204457 J-0.540890
G03 X54.816929 Y68.457676 Z1.000000 I-0.000000 J1.736795
G02 X55.184523 Y68.413700 Z1.000000 I0.122532 J-0.534106
G02 X55.199590 Y68.245640 Z1.000000 I-0.044302 J-0.088677
G03 X55.184523 Y68.035720 Z1.000000 I0.083379 J-0.111485
G03 X55.362560 Y68.020552 Z1.000000 I0.098014 J0.098003
G02 X55.562499 Y68.035720 Z1.000000 I0.112629 J-0.159283
G02 X55.751489 Y67.846724 Z1.000000 I-0.189057 J-0.378040
G03 X55.940475 Y67.657750 Z1.000000 I0.377964 J0.189003
G03 X56.126683 Y67.651045 Z1.000000 I0.100466 J0.201095
G02 X56.318451 Y67.657750 Z1.000000 I0.104889 J-0.254204
G02 X56.694123 Y67.460840 Z1.000000 I-0.418390 J-1.255035
G03 X57.074405 Y67.279770 Z1.000000 I0.638139 J0.850350
G03 X57.452379 Y67.279770 Z1.000000 I0.188987 J0.756132
G02 X57.830357 Y67.279770 Z1.000000 I0.188990 J-0.756146
G02 X58.216402 Y67.112615 Z1.000000 I-0.312830 J-1.251844
G03 X58.586308 Y66.901800 Z1.000000 I2.122076 J3.293567
G03 X59.493812 Y66.456853 Z1.000000 I28.987507 J57.974355
G03 X60.476190 Y66.145850 Z1.000000 I1.583113 J3.293602
G03 X61.041794 Y66.135297 Z1.000000 I0.318586 J1.912706
G02 X61.610118 Y66.145850 Z1.000000 I0.332300 J-2.587255
G01 X64.633927 Y65.767870 Z1.000000
G02 X65.386014 Y65.559146 Z1.000000 I-3.677587 J-14.710640
G03 X66.145833 Y65.389890 Z1.000000 I1.472898 J4.821990
G03 X66.711363 Y65.369789 Z1.000000 I0.377021 J2.641804
G02 X67.279760 Y65.389890 Z1.000000 I0.568397 J-8.026266
G03 X68.603410 Y65.411921 Z1.000000 I0.000000 J39.774727
G02 X69.925593 Y65.389890 Z1.000000 I0.440728 J-13.236216
G02 X72.193173 Y65.196468 Z1.000000 I-4.086395 J-61.295398
G03 X74.461308 Y65.011920 Z1.000000 I5.247114 J50.458021
G03 X76.161468 Y64.986929 Z1.000000 I1.133439 J19.264591
G02 X77.863093 Y65.011920 Z1.000000 I1.701625 J-57.918578
G01 X83.532738 Y65.011920 Z1.000000
G01 X85.422617 Y65.011920 Z1.000000
G02 X86.368534 Y64.990512 Z1.000000 I0.000000 J-20.908395
G03 X87.312499 Y65.011920 Z1.000000 I0.314654 J6.947940
G03 X93.142401 Y65.734183 Z1.000000 I-8.158335 J89.741560
G02 X96.005950 Y66.145850 Z1.000000 I17.167673 J-109.252812
G02 X101.812690 Y66.874840 Z1.000000 I78.631375 J-602.843768
G03 X104.699400 Y67.279770 Z1.000000 I-9.051730 J75.021009
G03 X108.285237 Y67.882047 Z1.000000 I-37.053397 J231.584460
G02 X111.880950 Y68.413700 Z1.000000 I11.509698 J-65.417945
G02 X113.016438 Y68.402593 Z1.000000 I0.525016 J-4.373602
G03 X114.148810 Y68.413700 Z1.000000 I0.529150 J3.781359
G03 X117.745880 Y69.134660 Z1.000000 I-7.403968 J46.274321
G02 X121.330360 Y69.925610 Z1.000000 I21.781900 J-90.195010
G02 X122.462611 Y70.123713 Z1.000000 I4.660455 J-23.301966
G03 X123.598210 Y70.303580 Z1.000000 I-10.587446 J70.519069
G03 X126.997568 Y71.070839 Z1.000000 I-113.928457 J512.676926
G02 X130.401780 Y71.815490 Z1.000000 I39.109815 J-170.638927
G02 X131.538984 Y71.990512 Z1.000000 I2.228242 J-10.695992
G03 X132.669640 Y72.193460 Z1.000000 I-0.740084 J7.374136
G03 X135.882440 Y73.138405 Z1.000000 I-13.695205 J52.497720
G02 X139.095240 Y74.083350 Z1.000000 I16.908005 J-51.552775
G02 X140.229165 Y74.272335 Z1.000000 I1.613630 J-6.185596
G03 X141.363090 Y74.461320 Z1.000000 I-0.479705 J6.374581
G03 X146.106547 Y75.826522 Z1.000000 I-24.871396 J95.340066
G03 X150.056550 Y77.107150 Z1.000000 I-75.805635 J240.549034
G02 X152.897194 Y78.035289 Z1.000000 I79.417940 J-238.253819
G03 X155.726190 Y78.997040 Z1.000000 I-25.517638 J79.701934
G03 X157.628659 Y79.721380 Z1.000000 I-18.904964 J52.514201
G03 X159.505950 Y80.508940 Z1.000000 I-24.981191 J62.178376
G03 X162.064278 Y81.742793 Z1.000000 I-15.401095 J35.202534
G02 X166.687500 Y83.910720 Z1.000000 I24.937994 J-47.168038
G02 X167.449449 Y84.086543 Z1.000000 I0.912742 J-2.216559
G03 X168.199400 Y84.288700 Z1.000000 I-0.122753 J1.947529
G03 X168.968047 Y84.833375 Z1.000000 I-1.383662 J2.767323
G02 X169.711310 Y85.422630 Z1.000000 I3.338247 J-3.447345
G02 X171.601190 Y86.556560 Z1.000000 I19.277027 J-29.986460
G03 X173.491070 Y87.690490 Z1.000000 I-17.387147 J31.120390
G03 X175.317766 Y89.062175 Z1.000000 I-8.497751 J13.218757
G02 X176.892860 Y90.336320 Z1.000000 I18.154249 J-20.831597
G03 X178.457604 Y91.539339 Z1.000000 I-49.604364 J66.138599
G03 X180.672620 Y93.738110 Z1.000000 I-8.465777 J10.743399
G03 X180.878785 Y94.293123 Z1.000000 I-0.736904 J0.589528
G02 X181.050590 Y94.872040 Z1.000000 I1.210559 J-0.044305
G02 X181.402537 Y95.270332 Z1.000000 I1.250440 J-0.750297
G03 X181.806550 Y95.627990 Z1.000000 I-2.736391 J3.498063
G02 X182.196301 Y96.187765 Z1.000000 I14.041359 J-9.360906
G03 X182.562500 Y96.761920 Z1.000000 I-4.542929 J3.301365
G03 X183.158551 Y97.881577 Z1.000000 I-30.973229 J17.207116
G03 X183.696430 Y99.029770 Z1.000000 I-17.019168 J8.672836
G03 X183.703961 Y99.216209 Z1.000000 I-0.240716 J0.103096
G02 X183.696430 Y99.407750 Z1.000000 I0.323601 J0.108642
G02 X183.866127 Y99.980945 Z1.000000 I6.755974 J-1.688425
G02 X184.074400 Y100.541680 Z1.000000 I11.376668 J-3.906562
G02 X184.282230 Y100.914047 Z1.000000 I1.544236 J-0.617706
G03 X184.452380 Y101.297630 Z1.000000 I-0.772135 J0.572034
G03 X184.480371 Y101.861820 Z1.000000 I-1.881350 J0.376128
G02 X184.452380 Y102.431560 Z1.000000 I5.784389 J0.569740
G01 X184.452380 Y103.565490 Z1.000000
G01 X184.452380 Y106.589300 Z1.000000
G01 X184.452380 Y109.991080 Z1.000000
G02 X184.498074 Y110.565464 Z1.000000 I3.632932 J0.000000
G03 X184.452380 Y111.125010 Z1.000000 I-1.164851 J0.186514
G03 X184.097176 Y111.701411 Z1.000000 I-1.405514 J-0.468494
G02 X183.696430 Y112.258940 Z1.000000 I1.531553 J1.523655
G02 X183.501260 Y112.822989 Z1.000000 I2.050792 J1.025396
G03 X183.318450 Y113.392870 Z1.000000 I-2.723824 J-0.559505
G03 X182.722846 Y114.515690 Z1.000000 I-8.364250 J-3.717469
G02 X182.184520 Y115.660720 Z1.000000 I4.571620 J2.848367
G02 X182.204638 Y116.236027 Z1.000000 I0.781978 J0.260659
G03 X182.184520 Y116.794650 Z1.000000 I-0.622863 J0.257242
G03 X181.627807 Y117.367101 Z1.000000 I-1.178641 J-0.589308
G02 X181.050590 Y117.928580 Z1.000000 I0.687452 J1.284158
G02 X180.841198 Y118.674374 Z1.000000 I1.384114 J0.790900
G03 X180.672620 Y119.440490 Z1.000000 I-2.094562 J-0.059289
G03 X180.322202 Y120.022383 Z1.000000 I-2.283452 J-0.978646
G02 X179.916660 Y120.574410 Z1.000000 I5.848911 J4.721828
G02 X178.813039 Y122.297149 Z1.000000 I46.647782 J31.098384
G03 X177.648810 Y123.976200 Z1.000000 I-15.895865 J-9.778797
G03 X177.087131 Y124.547430 Z1.000000 I-2.733716 J-2.126253
G02 X176.514880 Y125.110130 Z1.000000 I2.544363 J3.159879
G02 X175.758925 Y126.244060 Z1.000000 I4.913465 J4.094601
G03 X175.002970 Y127.377990 Z1.000000 I-5.669420 J-2.960671
G03 X173.880612 Y128.521941 Z1.000000 I-7.595102 J-6.329175
G02 X172.735120 Y129.645840 Z1.000000 I8.465348 J9.773692
G02 X171.270316 Y131.395045 Z1.000000 I23.772139 J21.394978
G03 X169.333330 Y133.425610 Z1.000000 I-11.051638 J-8.603180
G03 X167.254460 Y135.126500 Z1.000000 I-38.175799 J-44.538541
G02 X165.175590 Y136.827390 Z1.000000 I36.096929 J46.239431
G02 X164.616844 Y137.404600 Z1.000000 I2.814066 J3.283090
G03 X164.041660 Y137.961320 Z1.000000 I-2.492346 J-1.999515
G03 X162.336994 Y139.090279 Z1.000000 I-10.482982 J-13.977267
G02 X160.639880 Y140.229180 Z1.000000 I7.948532 J13.678287
G02 X159.894608 Y141.000037 Z1.000000 I2.237974 J2.909392
G03 X159.127970 Y141.741080 Z1.000000 I-2.414548 J-1.730865
G03 X156.498334 Y143.278350 Z1.000000 I-14.329763 J-21.494580
G02 X153.836310 Y144.764890 Z1.000000 I17.589750 J34.625651
G02 X153.085319 Y145.340373 Z1.000000 I2.346707 J3.840144
G03 X152.324400 Y145.898820 Z1.000000 I-2.584110 J-2.723391
G03 X151.384652 Y146.286626 Z1.000000 I-2.138040 J-3.848472
G02 X150.434520 Y146.654770 Z1.000000 I1.477537 J5.223483
G02 X142.694637 Y150.564794 Z1.000000 I469.032931 J938.065090
G03 X136.827380 Y153.458340 Z1.000000 I-108.157680 J-211.916539
G02 X135.704895 Y154.052536 Z1.000000 I6.436830 J13.517023
G03 X134.559520 Y154.592270 Z1.000000 I-3.599654 J-6.153694
G03 X128.904533 Y156.524035 Z1.000000 I-46.191168 J-125.975577
G02 X123.220240 Y158.372040 Z1.000000 I121.617959 J383.751731
G02 X115.112776 Y161.118597 Z1.000000 I277.089252 J831.269360
G03 X106.967260 Y163.663700 Z1.000000 I-48.437930 J-140.716661
G03 X104.509707 Y164.228157 Z1.000000 I-7.055125 J-25.084750
G02 X102.053570 Y164.797630 Z1.000000 I4.409160 J24.598086
G02 X100.540558 Y165.360801 Z1.000000 I2.844782 J9.956785
G03 X99.029760 Y165.931560 Z1.000000 I-4.649733 J-10.022915
G01 X91.848214 Y167.821440 Z1.000000
G03 X90.709608 Y167.987943 Z1.000000 I-4.743729 J-28.462903
G02 X89.580356 Y168.199410 Z1.000000 I1.199778 J9.527811
G02 X86.178570 Y169.144355 Z1.000000 I16.490687 J65.961852
G03 X82.776784 Y170.089300 Z1.000000 I-19.892473 J-65.016907
G03 X81.647192 Y170.298771 Z1.000000 I-2.262448 J-9.050010
G02 X80.508926 Y170.467270 Z1.000000 I2.770269 J22.643005
G02 X77.296465 Y171.036174 Z1.000000 I90.608533 J520.998925
G03 X74.083332 Y171.601200 Z1.000000 I-67.446809 J-374.131003
G01 X67.279760 Y172.735130 Z1.000000
G02 X65.020469 Y173.342306 Z1.000000 I16.149550 J64.599183
G03 X62.744048 Y173.869060 Z1.000000 I-6.129642 J-21.307592
G03 X61.800895 Y173.880962 Z1.000000 I-0.507975 J-2.878483
G02 X60.854166 Y173.869060 Z1.000000 I-0.516572 J3.430992
G02 X60.287201 Y174.058042 Z1.000000 I0.188884 J1.511637
G03 X59.720238 Y174.247040 Z1.000000 I-0.755949 J-1.322830
G03 X58.775052 Y174.245074 Z1.000000 I-0.464858 J-3.720622
G02 X57.830357 Y174.247040 Z1.000000 I-0.464861 J3.598904
G02 X55.939098 Y174.615411 Z1.000000 I2.129780 J15.973677
G03 X54.050593 Y175.002990 Z1.000000 I-4.835057 J-18.764438
G03 X53.485283 Y175.024647 Z1.000000 I-0.376872 J-2.448563
G02 X52.916666 Y175.002990 Z1.000000 I-0.568617 J7.453991
G01 X50.648809 Y175.002990 Z1.000000
G01 X46.113094 Y175.002990 Z1.000000
G01 X45.357142 Y175.002990 Z1.000000
G03 X45.098984 Y174.933814 Z1.000000 I-0.000000 J-0.516299
G02 X44.979166 Y175.002990 Z1.000000 I-0.039940 J0.069176
G02 X45.098978 Y175.072164 Z1.000000 I0.079875 J0.000000
G03 X45.357142 Y175.002990 Z1.000000 I0.258164 J0.447157
G01 X46.113094 Y175.002990 Z1.000000
G01 X48.002975 Y175.002990 Z1.000000
G03 X48.899468 Y175.061847 Z1.000000 I-0.000000 J6.856950
G02 X49.514881 Y175.002990 Z1.000000 I0.179989 J-1.364851
G02 X49.890552 Y174.806080 Z1.000000 I-0.418395 J-1.255040
G03 X50.270833 Y174.625010 Z1.000000 I0.638140 J0.850351
G03 X51.637122 Y174.543911 Z1.000000 I0.898774 J3.592205
G02 X52.916666 Y174.625010 Z1.000000 I1.279544 J-10.053486
G01 X57.452381 Y174.625010 Z1.000000
G03 X58.955842 Y174.765196 Z1.000000 I-0.000000 J8.132254
G02 X60.476190 Y175.002990 Z1.000000 I4.619871 J-24.558214
G02 X61.231717 Y175.006652 Z1.000000 I0.393013 J-3.144582
G03 X61.988093 Y175.002990 Z1.000000 I0.394796 J3.428594
G03 X64.826897 Y175.349746 Z1.000000 I-8.979685 J85.308173
G03 X67.657738 Y175.758940 Z1.000000 I-36.918797 J265.403917
G03 X69.550062 Y176.122191 Z1.000000 I-3.507096 J23.380462
G02 X71.437499 Y176.514890 Z1.000000 I8.708142 J-37.121978
G02 X74.654287 Y177.061406 Z1.000000 I25.233472 J-138.783706
G03 X77.863093 Y177.648820 Z1.000000 I-10.461965 J66.207426
G03 X79.186973 Y178.022319 Z1.000000 I-2.017424 J9.683852
G02 X80.508926 Y178.404770 Z1.000000 I3.694918 J-10.295677
G02 X84.288691 Y179.160725 Z1.000000 I19.654038 J-88.442539
G03 X88.068451 Y179.916680 Z1.000000 I-15.874161 J89.197861
G03 X89.394794 Y180.280629 Z1.000000 I-3.036531 J13.664831
G02 X90.714284 Y180.672630 Z1.000000 I7.614448 J-23.213799
G03 X100.142648 Y183.216630 Z1.000000 I-427.145400 J1601.794443
G03 X111.125000 Y186.342270 Z1.000000 I-139.462082 J510.875399
G03 X115.467349 Y187.680344 Z1.000000 I-59.450269 J200.644311
G02 X119.818450 Y188.988100 Z1.000000 I38.903453 J-121.545425
G02 X121.521142 Y189.359873 Z1.000000 I3.987652 J-14.178162
G03 X123.220240 Y189.744060 Z1.000000 I-2.030360 J12.928719
G03 X128.520944 Y191.415708 Z1.000000 I-47.946492 J161.275680
G02 X133.803570 Y193.145840 Z1.000000 I159.772633 J-478.905143
G02 X139.110724 Y194.801272 Z1.000000 I98.474525 J-306.364997
G03 X144.386900 Y196.547630 Z1.000000 I-31.045799 J102.640443
G03 X148.558585 Y198.211816 Z1.000000 I-22.361000 J62.114024
G02 X152.702380 Y199.949414 Z1.000000 I54.569029 J-124.325485
G02 X154.211110 Y200.524560 Z1.000000 I18.393810 J-45.984409
G03 X155.726190 Y201.083344 Z1.000000 I-50.672001 J139.724886
G03 X161.012196 Y203.364591 Z1.000000 I-448.980130 J1047.622190
G02 X166.309520 Y205.619056 Z1.000000 I151.441413 J-348.491548
G02 X169.818827 Y207.073332 Z1.000000 I378.836298 J-909.207045
G03 X176.892860 Y210.154771 Z1.000000 I-73.957855 J179.445017
G03 X180.118298 Y211.640295 Z1.000000 I-813.392624 J1770.319215
G03 X183.318450 Y213.178580 Z1.000000 I-47.810822 J103.560522
G03 X188.400491 Y215.926378 Z1.000000 I-40.354372 J80.708745
G02 X190.877970 Y217.336319 Z1.000000 I69.729380 J-119.643432
G02 X191.644298 Y217.697519 Z1.000000 I3.089203 J-5.560584
G03 X192.389880 Y218.092271 Z1.000000 I-1.364636 J3.478913
G03 X195.237558 Y220.152850 Z1.000000 I-37.683610 J55.075975
G02 X198.059520 Y222.250010 Z1.000000 I78.383806 J-102.526932
G02 X199.215108 Y222.978969 Z1.000000 I6.381927 J-8.836574
G03 X200.327380 Y223.761913 Z1.000000 I-2.884408 J5.279201
G03 X202.424974 Y225.949464 Z1.000000 I-12.638036 J14.217776
G03 X204.107140 Y228.297628 Z1.000000 I-17.760997 J14.500146
G03 X204.293500 Y228.677297 Z1.000000 I-1.756236 J1.097615
G02 X204.485120 Y229.053580 Z1.000000 I1.696437 J-0.626971
G02 X204.696591 Y229.232610 Z1.000000 I0.416508 J-0.277571
G03 X204.863090 Y229.431556 Z1.000000 I-0.121686 J0.270985
G03 X204.920600 Y230.294486 Z1.000000 I-2.363633 J0.590906
G02 X204.863090 Y231.321438 Z1.000000 I9.140358 J1.026952
G02 X204.921947 Y232.217929 Z1.000000 I6.856924 J0.000000
G03 X204.863090 Y232.833343 Z1.000000 I-1.364852 J0.179989
G03 X203.824491 Y234.355963 Z1.000000 I-3.198370 J-1.066119
G02 X202.595240 Y235.479177 Z1.000000 I11.843591 J14.195939
G03 X201.786714 Y236.127102 Z1.000000 I-3.342215 J-3.342218
G02 X201.083330 Y236.613104 Z1.000000 I5.895807 J9.284925
G02 X200.718340 Y237.012102 Z1.000000 I0.875429 J1.167252
G03 X200.327380 Y237.369056 Z1.000000 I-0.824890 J-0.510896
G03 X199.952935 Y237.376916 Z1.000000 I-0.195513 J-0.391022
G02 X199.571420 Y237.369056 Z1.000000 I-0.200025 J0.445904
G02 X198.992253 Y237.722415 Z1.000000 I0.756570 J1.891357
G03 X198.437500 Y238.125010 Z1.000000 I-2.575951 J-2.966010
G03 X198.059518 Y238.313999 Z1.000000 I-1.417395 J-2.362379
G02 X197.681550 Y238.502986 Z1.000000 I1.039258 J2.550986
G02 X197.120897 Y238.892472 Z1.000000 I2.632905 J4.388250
G03 X196.547620 Y239.258937 Z1.000000 I-2.023118 J-2.533215
G03 X195.247667 Y239.667875 Z1.000000 I-1.926149 J-3.852290
G02 X193.901780 Y240.014889 Z1.000000 I0.951151 J6.472532
G02 X193.136965 Y240.372519 Z1.000000 I1.887330 J5.032796
G03 X192.389880 Y240.770843 Z1.000000 I-7.977784 J-14.063133
G03 X190.119370 Y241.327616 Z1.000000 I-62.951847 J-251.808387
G02 X187.854160 Y241.904771 Z1.000000 I20.223824 J84.108046
G02 X185.206886 Y242.655447 Z1.000000 I26.860283 J99.766491
G03 X182.562500 Y243.416677 Z1.000000 I-42.069823 J-141.169864
G03 X181.810511 Y243.622967 Z1.000000 I-32.587106 J-117.316208
G03 X181.050590 Y243.794652 Z1.000000 I-2.406117 J-8.882420
G03 X177.650986 Y244.374106 Z1.000000 I-27.969372 J-153.831480
G02 X174.247020 Y244.928580 Z1.000000 I73.716773 J463.279726
G02 X173.116225 Y245.143625 Z1.000000 I4.154137 J24.924754
G03 X171.979160 Y245.306556 Z1.000000 I-1.757964 J-8.219362
G03 X168.010720 Y245.499791 Z1.000000 I-5.804511 J-78.360225
G02 X164.041660 Y245.684534 Z1.000000 I2.006098 J85.827827
G02 X159.885748 Y246.096547 Z1.000000 I4.984353 J71.442502
G03 X155.726190 Y246.440486 Z1.000000 I-5.858494 J-45.527313
G03 X149.679272 Y246.464962 Z1.000000 I-3.394487 J-91.651062
G02 X143.630950 Y246.440486 Z1.000000 I-3.515987 J121.522504
G02 X140.606650 Y246.613710 Z1.000000 I0.867252 J41.628310
G03 X137.583330 Y246.818462 Z1.000000 I-5.451530 J-58.072871
G03 X136.071757 Y246.834202 Z1.000000 I-1.007716 J-24.185666
G02 X134.559520 Y246.818462 Z1.000000 I-1.512237 J72.636305
G01 X124.354170 Y246.818462 Z1.000000
G03 X114.007349 Y246.769466 Z1.000000 I-0.000000 J-1092.528284
G03 X103.565470 Y246.440486 Z1.000000 I2.246274 J-237.175100
G03 X98.272335 Y246.086056 Z1.000000 I10.637082 J-198.558042
G02 X92.982141 Y245.684534 Z1.000000 I-47.794350 J594.656842
G03 X87.690592 Y245.304907 Z1.000000 I606.889000 J-8496.299635
G02 X82.398808 Y244.928580 Z1.000000 I-203.888860 J2829.613597
G02 X76.917031 Y244.565454 Z1.000000 I-49.116053 J699.902222
G03 X71.437499 Y244.172628 Z1.000000 I18.296217 J-293.627113
G03 X69.923898 Y244.000109 Z1.000000 I1.889366 J-23.302499
G02 X68.413690 Y243.794652 Z1.000000 I-10.213819 J69.423358
G03 X65.203856 Y243.386667 Z1.000000 I20.285469 J-172.427329
G02 X61.988093 Y243.038701 Z1.000000 I-7.829227 J57.321178
G02 X60.475742 Y243.043858 Z1.000000 I-0.725272 J9.065683
G03 X58.964284 Y243.038701 Z1.000000 I-0.727178 J-8.370966
G03 X50.731758 Y242.060809 Z1.000000 I15.632536 J-166.747173
G03 X41.955357 Y240.770843 Z1.000000 I214.009887 J-1486.535610
G02 X37.222760 Y240.061276 Z1.000000 I-5334.190555 J35561.279211
G03 X32.505951 Y239.258937 Z1.000000 I17.969397 J-119.904776
G03 X29.668703 Y238.704146 Z1.000000 I55.411547 J-290.911813
G03 X26.836309 Y238.125010 Z1.000000 I76.721615 J-382.439836
G02 X25.124731 Y237.788169 Z1.000000 I-16.059048 J77.083445
G03 X23.434524 Y237.369056 Z1.000000 I2.653680 J-14.319502
G03 X22.115334 Y236.789348 Z1.000000 I1.937315 J-6.199412
G02 X20.788690 Y236.235128 Z1.000000 I-2.791669 J4.817542
G02 X20.036925 Y236.216016 Z1.000000 I-0.414790 J1.520884
G03 X19.276786 Y236.235128 Z1.000000 I-0.429682 J-1.963675
G03 X18.927434 Y236.095346 Z1.000000 I0.147479 J-0.875045
G02 X17.764881 Y235.479177 Z1.000000 I-3.452982 J5.110083
G02 X17.192801 Y235.301579 Z1.000000 I-1.400687 J3.501704
G03 X16.630952 Y235.101201 Z1.000000 I0.542587 J-2.409275
G03 X16.252976 Y234.723224 Z1.000000 I0.377977 J-0.755952
G02 X15.875000 Y234.345247 Z1.000000 I-0.755953 J0.377975
G02 X15.675066 Y234.360430 Z1.000000 I-0.087287 J0.174561
G03 X15.497024 Y234.345247 Z1.000000 I-0.080015 J-0.113209
G03 X15.627676 Y233.747852 Z1.000000 I0.256817 J-0.256818
G02 X15.875000 Y233.589295 Z1.000000 I-0.238825 J-0.644700
G02 X16.051228 Y233.382604 Z1.000000 I-1.210903 J-1.210903
G03 X16.252976 Y233.211319 Z1.000000 I0.450440 J0.326096
G03 X16.441964 Y233.211319 Z1.000000 I0.094494 J0.188973
G02 X16.630952 Y233.211319 Z1.000000 I0.094494 J-0.188973
G02 X16.819940 Y233.022333 Z1.000000 I-0.188969 J-0.377960
G03 X17.008928 Y232.833343 Z1.000000 I0.377978 J0.188985
G03 X18.763733 Y232.816053 Z1.000000 I0.895126 J1.790134
G02 X18.898809 Y232.833343 Z1.000000 I0.093920 J-0.197462
G02 X19.277921 Y232.649408 Z1.000000 I-0.164229 J-0.821162
G03 X19.654762 Y232.455368 Z1.000000 I0.601792 J0.705779
G03 X20.029885 Y232.432189 Z1.000000 I0.250082 J1.000246
G02 X20.410714 Y232.455368 Z1.000000 I0.380829 J-3.116971
G03 X20.978383 Y232.469498 Z1.000000 I0.000000 J11.410006
G02 X21.544642 Y232.455368 Z1.000000 I0.188753 J-3.789191
G02 X24.404386 Y232.109835 Z1.000000 I-6.965831 J-69.658289
G03 X28.348215 Y231.699413 Z1.000000 I7.496898 J52.885525
G03 X29.103747 Y231.686833 Z1.000000 I0.503688 J7.556088
G02 X29.860118 Y231.699413 Z1.000000 I0.756371 J-22.731241
G01 X33.639881 Y231.699413 Z1.000000
G01 X40.065475 Y231.699413 Z1.000000
G02 X41.200570 Y231.673708 Z1.000000 I0.000000 J-25.075316
G03 X42.333333 Y231.699413 Z1.000000 I0.377588 J8.332723
G03 X50.975240 Y232.666240 Z1.000000 I-18.969207 J208.660765
G03 X57.830357 Y233.589295 Z1.000000 I-271.194910 J2039.958961
G02 X59.343333 Y233.770943 Z1.000000 I6.418551 J-47.069406
G03 X60.854166 Y233.967271 Z1.000000 I-3.052393 J29.400995
G03 X70.666846 Y235.584757 Z1.000000 I-91.706610 J586.923209
G03 X80.130951 Y237.369056 Z1.000000 I-56.336517 J324.806113
G03 X85.237368 Y238.485261 Z1.000000 I-36.611214 J179.727628
G02 X90.336308 Y239.636913 Z1.000000 I81.222910 J-347.750799
G03 X102.027522 Y242.290230 Z1.000000 I-152.957127 J701.053320
G03 X115.282740 Y245.684534 Z1.000000 I-81.925937 J347.510788
G03 X116.984243 Y246.249311 Z1.000000 I-4.721202 J17.069018
G02 X118.684520 Y246.818462 Z1.000000 I6.761189 J-17.374035
G02 X130.741055 Y250.126644 Z1.000000 I238.613321 J-845.992590
G03 X144.008930 Y254.000010 Z1.000000 I-76.273229 J285.927929
G03 X148.925894 Y255.690731 Z1.000000 I-33.066360 J104.158924
G02 X153.836310 Y257.401795 Z1.000000 I45.915840 J-123.867874
G02 X165.674942 Y261.119593 Z1.000000 I169.997311 J-520.616773
G01 X165.688781 Y261.077452 Z1.000000
G02 X163.706251 Y260.395176 Z1.000000 I-34.431288 J96.827605
G02 X162.590490 Y260.063143 Z1.000000 I-5.742911 J17.257690
G01 X162.575456 Y260.105878 Z1.000000
G02 X165.175590 Y261.181555 Z1.000000 I21.171249 J-47.494917
G02 X172.399999 Y263.816635 Z1.000000 I88.881719 J-232.459734
G03 X182.184520 Y267.607152 Z1.000000 I-48.782180 J140.445938
G03 X182.755748 Y267.975940 Z1.000000 I-0.799075 J1.864506
G02 X183.318450 Y268.363104 Z1.000000 I1.664951 J-1.817333
G03 X187.750739 Y270.507651 Z1.000000 I-56.584623 J122.600048
G03 X189.366070 Y271.386914 Z1.000000 I-14.040489 J27.717793
G02 X191.087235 Y272.300002 Z1.000000 I12.177615 J-20.875991
G03 X192.767860 Y273.276795 Z1.000000 I-5.324863 J11.095913
G03 X193.554754 Y273.995667 Z1.000000 I-2.258630 J3.262461
G02 X194.279760 Y274.788699 Z1.000000 I9.210603 J-7.692598
G02 X194.495925 Y274.960889 Z1.000000 I0.868346 J-0.868332
G03 X194.657740 Y275.166675 Z1.000000 I-0.205793 J0.328332
G03 X194.703434 Y275.726224 Z1.000000 I-1.119160 J0.373033
G02 X194.657740 Y276.300604 Z1.000000 I3.587197 J0.574380
G01 X194.657740 Y277.056556 Z1.000000
G02 X194.679713 Y277.250744 Z1.000000 I0.869067 J0.000000
G03 X194.657740 Y277.434533 Z1.000000 I-0.267230 J0.061260
G03 X194.115826 Y277.902504 Z1.000000 I-0.832450 J-0.416227
G02 X193.523810 Y278.190485 Z1.000000 I0.761965 J2.318917
G02 X193.334814 Y278.379478 Z1.000000 I0.378009 J0.567001
G03 X193.145830 Y278.568461 Z1.000000 I-0.566990 J-0.377998
G03 X191.981317 Y279.131059 Z1.000000 I-2.608417 J-3.912619
G02 X190.877970 Y279.702390 Z1.000000 I1.156522 J3.584510
G02 X190.517901 Y280.112219 Z1.000000 I0.798492 J1.064632
G03 X190.122020 Y280.458342 Z1.000000 I-0.690418 J-0.390214
G03 X189.558108 Y280.466671 Z1.000000 I-0.292830 J-0.732070
G02 X188.988090 Y280.458342 Z1.000000 I-0.296919 J0.810965
G03 X187.868573 Y281.127992 Z1.000000 I-7.395964 J-11.093901
G03 X186.720240 Y281.592271 Z1.000000 I-2.757766 J-5.168709
G02 X185.984996 Y281.808884 Z1.000000 I12.770973 J44.704266
G03 X181.050590 Y283.104175 Z1.000000 I-19.483750 J-64.176836
G03 X180.105657 Y283.293163 Z1.000000 I-4.913399 J-22.110015
G02 X179.160710 Y283.482152 Z1.000000 I3.968842 J22.301112
G02 X178.407615 Y283.687122 Z1.000000 I1.799270 J8.096796
G03 X177.648810 Y283.860128 Z1.000000 I-1.352785 J-4.182766
G03 X174.249996 Y284.262563 Z1.000000 I-13.084480 J-95.952910
G02 X170.845240 Y284.616080 Z1.000000 I52.253217 J519.827630
G03 X165.248634 Y285.086189 Z1.000000 I-13.045914 J-121.761960
G03 X158.372020 Y285.372033 Z1.000000 I-10.833106 J-177.755182
G03 X154.214538 Y285.395128 Z1.000000 I-2.771654 J-124.726215
G02 X150.056550 Y285.372033 Z1.000000 I-4.157988 J374.293378
G02 X143.630675 Y285.401776 Z1.000000 I0.000000 J694.154423
G03 X137.205360 Y285.372033 Z1.000000 I-2.141771 J-231.354649
G03 X131.913069 Y285.205783 Z1.000000 I3.803859 J-205.407793
G02 X126.622020 Y284.994056 Z1.000000 I-27.290002 J615.759665
G02 X121.328065 Y284.848907 Z1.000000 I-11.403051 J319.284891
G03 X116.038690 Y284.616080 Z1.000000 I2.035821 J-106.448228
G03 X113.838976 Y284.393389 Z1.000000 I33.645688 J-343.323348
G02 X93.360117 Y282.348223 Z1.000000 I-234.483720 J2244.402726
G02 X87.120084 Y281.813658 Z1.000000 I-31.274028 J328.377174
G03 X80.886905 Y281.214294 Z1.000000 I11.942996 J-156.914286
G03 X78.996526 Y280.840443 Z1.000000 I1.401497 J-12.052945
G02 X77.107142 Y280.458342 Z1.000000 I-3.480835 J12.349492
G02 X65.874063 Y279.158439 Z1.000000 I-76.674945 J613.399519
G03 X55.184523 Y277.812509 Z1.000000 I29.719895 J-279.160777
G03 X42.893317 Y275.940741 Z1.000000 I133.903107 J-920.583600
G03 X29.482142 Y273.654771 Z1.000000 I96.976765 J-609.419747
G03 X26.840428 Y273.062429 Z1.000000 I5.947688 J-32.712277
G02 X24.190476 Y272.520842 Z1.000000 I-5.855301 J21.895805
G02 X22.870896 Y272.473893 Z1.000000 I-0.879720 J6.158035
G03 X21.544642 Y272.520842 Z1.000000 I-1.326254 J-18.709087
G03 X18.146476 Y271.562466 Z1.000000 I119.890307 J-431.605105
G02 X14.741071 Y270.630961 Z1.000000 I-41.093792 J143.540646
G02 X12.061255 Y270.111199 Z1.000000 I-5.420141 J20.777214
G03 X7.559524 Y269.119055 Z1.000000 I3.311077 J-25.732689
G03 X6.604925 Y268.578113 Z1.000000 I0.793702 J-2.513403
G02 X5.669643 Y267.985128 Z1.000000 I-2.302929 J2.598203
G03 X2.541332 Y266.752450 Z1.000000 I9.922255 J-29.766750
G03 X0.377976 Y265.717270 Z1.000000 I28.762095 J-62.886139
G02 X0.188988 Y265.717270 Z1.000000 I-0.094494 J0.188973
G03 X0.000000 Y265.717270 Z1.000000 I-0.094494 J-0.188973
G03 X-0.219656 Y265.558954 Z1.000000 I0.377925 J-0.755891
G03 X-0.377976 Y265.339295 Z1.000000 I0.597648 J-0.597642
G03 X-0.511864 Y264.772498 Z1.000000 I1.132792 J-0.566797
G03 X-0.377976 Y264.205367 Z1.000000 I1.268092 J0.000000
G03 X0.038043 Y263.923087 Z1.000000 I0.459754 J0.229877
G02 X0.377976 Y263.827389 Z1.000000 I-0.079869 J-0.935299
G02 X0.566964 Y263.638404 Z1.000000 I-0.188970 J-0.377959
G03 X0.755952 Y263.449413 Z1.000000 I0.377978 J0.188984
G03 X0.942164 Y263.442705 Z1.000000 I0.100464 J0.200912
G02 X1.133929 Y263.449413 Z1.000000 I0.104883 J-0.253952
G02 X1.509599 Y263.252509 Z1.000000 I-0.418292 J-1.254872
G03 X1.889881 Y263.071437 Z1.000000 I0.638130 J0.850318
G03 X2.267856 Y263.071441 Z1.000000 I0.188980 J0.755985
G02 X2.645833 Y263.071437 Z1.000000 I0.188982 J-0.755927
G02 X3.399513 Y262.683357 Z1.000000 I-0.449911 J-1.799651
G03 X4.157738 Y262.315486 Z1.000000 I1.086696 J1.274477
G03 X5.289991 Y262.306344 Z1.000000 I0.589981 J2.949913
G02 X6.425595 Y262.315486 Z1.000000 I0.593929 J-3.240931
G02 X6.991421 Y262.118295 Z1.000000 I-0.290806 J-1.744839
G03 X7.559524 Y261.937510 Z1.000000 I0.735913 J1.329548
G03 X10.391094 Y261.709470 Z1.000000 I5.178089 J46.602510
G02 X13.229167 Y261.559534 Z1.000000 I-26.178050 J-522.447333
G03 X14.176977 Y261.585440 Z1.000000 I0.317888 J5.720977
G02 X15.119047 Y261.559534 Z1.000000 I0.377530 J-3.413209
G03 X17.213213 Y261.326147 Z1.000000 I3.199570 J19.197411
G03 X22.300595 Y261.181555 Z1.000000 I5.087382 J89.426051
G02 X23.435504 Y261.157982 Z1.000000 I0.000000 J-27.331531
G03 X24.568452 Y261.181555 Z1.000000 I0.377649 J9.086930
G03 X30.770238 Y261.896008 Z1.000000 I-8.216372 J98.596343
G02 X34.017857 Y262.315486 Z1.000000 I13.408044 J-91.024430
G02 X39.319496 Y262.810599 Z1.000000 I16.764140 J-150.877133
G03 X44.601190 Y263.449413 Z1.000000 I-4.486485 J59.247921
G03 X53.708448 Y265.084561 Z1.000000 I-60.839306 J365.035672
G03 X62.366072 Y266.851201 Z1.000000 I-74.959616 J389.445347
G03 X67.281443 Y267.977446 Z1.000000 I-41.506029 J192.437867
G02 X72.193451 Y269.119055 Z1.000000 I61.364039 J-252.893145
G02 X86.004785 Y272.078583 Z1.000000 I202.153666 J-909.690951
G03 X99.785714 Y275.166675 Z1.000000 I-84.295771 J408.472034
G03 X101.565346 Y275.614859 Z1.000000 I-9.366701 J40.950287
G02 X119.440470 Y280.458342 Z1.000000 I622.464091 J-2261.829544
G02 X125.864180 Y282.166385 Z1.000000 I1191.558212 J-4468.348833
G02 X132.291670 Y283.860128 Z1.000000 I565.263989 J-2132.046540
G02 X133.807285 Y284.224854 Z1.000000 I9.875954 J-37.707956
G03 X135.315470 Y284.616080 Z1.000000 I-4.439105 J20.215524
G03 X139.473889 Y285.936771 Z1.000000 I-39.025630 J130.085898
G02 X143.630950 Y287.261913 Z1.000000 I46.255813 J-137.924523
G02 X147.606394 Y288.374545 Z1.000000 I28.865915 J-95.479699
G03 X151.568450 Y289.529771 Z1.000000 I-16.345249 J63.430930
G03 X156.303577 Y291.200039 Z1.000000 I-32.570278 J99.882164
G02 X161.017860 Y292.931556 Z1.000000 I80.938724 J-213.082939
G02 X164.985106 Y294.258718 Z1.000000 I38.534698 J-108.597479
G03 X168.955360 Y295.577390 Z1.000000 I-39.219358 J124.717722
G03 X169.902211 Y295.950076 Z1.000000 I-4.388973 J12.539795
G02 X170.845240 Y296.333342 Z1.000000 I7.499917 J-17.101819
G02 X171.418494 Y296.507906 Z1.000000 I1.666259 J-4.443309
G03 X171.979160 Y296.711318 Z1.000000 I-0.595382 J2.515447
G03 X173.685936 Y297.644884 Z1.000000 I-11.799833 J23.599828
G02 X175.380950 Y298.601199 Z1.000000 I21.004235 J-35.248483
G02 X176.511056 Y299.175573 Z1.000000 I15.117913 J-28.346181
G03 X177.648810 Y299.735128 Z1.000000 I-41.963187 J86.761186
G02 X178.046958 Y299.896123 Z1.000000 I1.210831 J-2.421619
G03 X178.404760 Y300.113104 Z1.000000 I-0.263916 J0.838694
G03 X178.483048 Y300.302092 Z1.000000 I-0.188967 J0.188988
G03 X178.404760 Y300.491080 Z1.000000 I-0.267254 J0.000000
G03 X178.215762 Y300.491077 Z1.000000 I-0.094498 J-0.094508
G02 X178.026780 Y300.491080 Z1.000000 I-0.094490 J0.094495
G02 X178.026780 Y300.680068 Z1.000000 I0.094483 J0.094494
G03 X178.026780 Y300.869056 Z1.000000 I-0.094483 J0.094494
G03 X177.736544 Y300.963726 Z1.000000 I-0.238309 J-0.238365
G02 X176.514880 Y300.869056 Z1.000000 I-1.221664 J7.835089
G03 X175.757022 Y300.842228 Z1.000000 I-0.000000 J-10.717799
G02 X175.002970 Y300.869056 Z1.000000 I-0.251352 J3.545775
G02 X174.057176 Y301.052503 Z1.000000 I1.371683 J9.601813
G03 X173.113090 Y301.247032 Z1.000000 I-3.026405 J-12.299491
G03 X172.922260 Y301.239630 Z1.000000 I-0.077518 J-0.465090
G02 X172.735120 Y301.247032 Z1.000000 I-0.080806 J0.326388
G02 X172.360587 Y301.448990 Z1.000000 I0.391333 J1.173999
G03 X171.979160 Y301.625008 Z1.000000 I-0.558363 J-0.708678
G03 X171.414973 Y301.653010 Z1.000000 I-0.376125 J-1.880599
G02 X170.845240 Y301.625008 Z1.000000 I-0.569733 J5.782078
G01 X169.711310 Y301.625008 Z1.000000
G01 X165.175590 Y301.625008 Z1.000000
G01 X155.348210 Y301.625008 Z1.000000
G02 X154.024326 Y301.650402 Z1.000000 I-0.000000 J34.522686
G03 X152.702380 Y301.625008 Z1.000000 I-0.440650 J-11.482291
G02 X151.744765 Y301.552861 Z1.000000 I-23.506779 J305.613988
G03 X142.497020 Y300.491080 Z1.000000 I8.418638 J-114.126661
G03 X137.960070 Y299.742894 Z1.000000 I42.044730 J-269.086281
G02 X133.425590 Y298.979175 Z1.000000 I-78.308420 J451.102930
G01 X123.976190 Y297.467270 Z1.000000
G02 X122.272678 Y297.297770 Z1.000000 I-8.231904 J74.087226
G03 X120.574400 Y297.089294 Z1.000000 I2.174991 J-24.739276
G03 X108.927299 Y295.068273 Z1.000000 I60.614556 J-383.891789
G02 X97.139880 Y292.931556 Z1.000000 I-144.718383 J764.772385
G02 X80.682448 Y290.191664 Z1.000000 I-213.999544 J1234.612815
G03 X64.255951 Y287.261913 Z1.000000 I72.326280 J-453.033117
G03 X57.074341 Y285.750330 Z1.000000 I55.609516 J-282.017096
G02 X49.892857 Y284.238104 Z1.000000 I-63.233137 J282.480082
G02 X42.708991 Y282.926739 Z1.000000 I-49.411928 J250.353628
G03 X35.529760 Y281.592271 Z1.000000 I34.456941 J-205.351735
G03 X33.449813 Y281.030471 Z1.000000 I3.449262 J-16.901347
G02 X31.372024 Y280.458342 Z1.000000 I-5.999573 J17.729537
G02 X19.896404 Y278.209516 Z1.000000 I-69.691036 J325.224917
G03 X8.693452 Y275.922628 Z1.000000 I39.348323 J-221.342449
G03 X6.800225 Y275.369278 Z1.000000 I3.854828 J-16.704269
G02 X4.913690 Y274.788699 Z1.000000 I-7.632740 J21.446519
G02 X-4.019912 Y272.583302 Z1.000000 I-88.278549 J338.401206
G03 X-17.386905 Y269.119055 Z1.000000 I63.386249 J-272.100190
G03 X-23.913095 Y266.887022 Z1.000000 I18.497624 J-64.741687
G02 X-26.836309 Y265.717270 Z1.000000 I-4252.930044 J10623.847313
G02 X-30.429887 Y264.401287 Z1.000000 I-24.118808 J60.297121
G03 X-34.017857 Y263.071437 Z1.000000 I18.121193 J-54.396611
G03 X-34.593030 Y262.710726 Z1.000000 I0.751753 J-1.837638
G02 X-35.151785 Y262.315486 Z1.000000 I-1.970886 J2.193683
G03 X-37.855708 Y260.789536 Z1.000000 I13.851107 J-27.702207
G03 X-38.931548 Y260.047628 Z1.000000 I8.781698 J-13.885326
G02 X-39.529133 Y259.744539 Z1.000000 I-1.160329 J1.547102
G03 X-40.065475 Y259.291676 Z1.000000 I0.258638 J-0.850351
G03 X-40.196026 Y258.680146 Z1.000000 I1.115817 J-0.557908
G03 X-40.065475 Y257.779771 Z1.000000 I4.507527 J0.193924
G03 X-39.221343 Y256.906034 Z1.000000 I1.179461 J0.294864
G02 X-38.553572 Y256.645843 Z1.000000 I-1.074617 J-3.744965
G02 X-38.162605 Y256.288886 Z1.000000 I-0.433931 J-0.867863
G03 X-37.797618 Y255.889889 Z1.000000 I1.240456 J0.768284
G03 X-37.019142 Y255.615220 Z1.000000 I0.826525 J1.102037
G02 X-36.285715 Y255.511913 Z1.000000 I-0.123194 J-3.529754
G02 X-35.903281 Y255.336710 Z1.000000 I-0.277909 J-1.111614
G03 X-35.529760 Y255.133937 Z1.000000 I1.050519 J1.489708
G03 X-34.965818 Y254.936702 Z1.000000 I2.518644 J6.296551
G02 X-34.395833 Y254.755961 Z1.000000 I-5.869260 J-19.498477
G02 X-33.834528 Y254.544184 Z1.000000 I-2.431018 J-7.293055
G03 X-33.261905 Y254.377986 Z1.000000 I0.991310 J2.345916
G03 X-32.695451 Y254.374688 Z1.000000 I0.293488 J1.760900
G02 X-32.127975 Y254.377986 Z1.000000 I0.294820 J-1.905439
G02 X-31.368157 Y254.208733 Z1.000000 I-0.713111 J-4.991453
G03 X-30.616072 Y254.000010 Z1.000000 I4.430528 J14.505046
G02 X-29.673950 Y253.793639 Z1.000000 I-5.182958 J-25.914871
G03 X-28.726190 Y253.622034 Z1.000000 I2.038990 J8.558154
G03 X-28.159226 Y253.622034 Z1.000000 I0.283482 J2.267961
G02 X-27.592260 Y253.622034 Z1.000000 I0.283483 J-2.267970
G02 X-26.648920 Y253.414503 Z1.000000 I-0.650606 J-5.205118
G03 X-25.702381 Y253.244056 Z1.000000 I1.122213 J3.518536
G03 X-22.678571 Y253.244056 Z1.000000 I1.511905 J31.748459
G02 X-19.654762 Y253.244056 Z1.000000 I1.511904 J-31.748435
G02 X-18.709886 Y253.053621 Z1.000000 I-0.152108 J-3.194006
G03 X-17.764881 Y252.866080 Z1.000000 I1.075525 J2.944816
G03 X-12.852255 Y252.814924 Z1.000000 I3.275084 J78.602635
G02 X-7.937500 Y252.866080 Z1.000000 I4.914755 J-236.063636
G03 X0.882998 Y252.995203 Z1.000000 I-0.000000 J301.331855
G03 X9.827381 Y253.622034 Z1.000000 I-3.225948 J110.159806
G03 X21.164098 Y255.157976 Z1.000000 I-26.314922 J236.835022
G02 X32.505951 Y256.645843 Z1.000000 I32.014571 J-200.070949
G02 X34.209125 Y256.627513 Z1.000000 I0.770804 J-7.515435
G03 X35.907739 Y256.645843 Z1.000000 I0.781588 J6.284677
G03 X41.961377 Y257.741927 Z1.000000 I-13.175715 J90.034146
G02 X48.002975 Y258.913701 Z1.000000 I30.445213 J-140.812765
G02 X54.049934 Y259.862516 Z1.000000 I35.576438 J-206.991081
G03 X60.098214 Y260.803580 Z1.000000 I-32.384363 J228.043343
G03 X66.338167 Y261.918449 Z1.000000 I-57.744918 J341.219925
G02 X72.571427 Y263.071437 Z1.000000 I191.949848 J-1020.289850
G01 X89.202381 Y266.095246 Z1.000000
G02 X97.526294 Y267.563370 Z1.000000 I143.318458 J-788.250237
G03 X105.833330 Y269.119055 Z1.000000 I-44.994769 J263.219490
G03 X107.724768 Y269.678695 Z1.000000 I-2.272934 J11.158033
G02 X109.613090 Y270.252985 Z1.000000 I4.564287 J-11.616184
G02 X115.464214 Y271.423297 Z1.000000 I34.256314 J-156.056931
G03 X121.330360 Y272.520842 Z1.000000 I-85.230919 J471.766679
G03 X127.372871 Y274.053781 Z1.000000 I-217.757640 J871.028829
G02 X133.425590 Y275.544652 Z1.000000 I74.592577 J-289.802929
G02 X140.234875 Y277.033036 Z1.000000 I50.224989 J-213.456607
G03 X147.032740 Y278.568461 Z1.000000 I-30.211605 J149.573369
G03 X151.580027 Y279.848519 Z1.000000 I-19.475476 J77.901753
G02 X156.104160 Y281.214294 Z1.000000 I66.494621 J-212.087610
G02 X161.162433 Y282.658656 Z1.000000 I166.214310 J-572.516509
G03 X166.309520 Y284.238104 Z1.000000 I-30.311652 J107.955633
G03 X170.205074 Y285.655401 Z1.000000 I-24.112091 J72.336303
G03 X174.247020 Y287.261913 Z1.000000 I-364.457970 J922.855050
G02 X176.147352 Y287.993598 Z1.000000 I29.151855 J-72.879593
G03 X178.026780 Y288.773818 Z1.000000 I-9.077655 J24.520383
G03 X178.596075 Y289.146951 Z1.000000 I-0.968647 J2.098739
G02 X179.160710 Y289.529771 Z1.000000 I1.722262 J-1.932418
G02 X180.115121 Y289.890495 Z1.000000 I2.234331 J-4.468677
G03 X181.050590 Y290.285723 Z1.000000 I-0.927754 J3.500609
G03 X181.198868 Y290.485053 Z1.000000 I-0.167769 J0.279615
G02 X181.428570 Y290.663699 Z1.000000 I0.229702 J-0.058351
G02 X181.622742 Y290.641712 Z1.000000 I0.000000 J-0.868392
G03 X181.806550 Y290.663699 Z1.000000 I0.061271 J0.267082
G03 X182.223453 Y291.132439 Z1.000000 I-0.377979 J0.755948
G03 X182.184520 Y291.797628 Z1.000000 I-0.794885 J0.287209
G03 X182.025491 Y291.827560 Z1.000000 I-0.090877 J-0.045402
G02 X181.806550 Y291.797628 Z1.000000 I-0.131369 J0.145212
G02 X181.604798 Y291.968912 Z1.000000 I0.248692 J0.497389
G03 X181.428570 Y292.175604 Z1.000000 I-1.387282 J-1.004342
G03 X180.853466 Y292.344948 Z1.000000 I-2.679603 J-8.038900
G02 X180.294640 Y292.553580 Z1.000000 I0.697925 J2.722139
G02 X180.111231 Y292.757657 Z1.000000 I0.167489 J0.334981
G03 X179.916660 Y292.931556 Z1.000000 I-0.262531 J-0.097939
G03 X178.971727 Y292.931557 Z1.000000 I-0.472468 J-1.889868
G02 X178.026780 Y292.931556 Z1.000000 I-0.472476 J1.889915
G02 X177.640735 Y293.098726 Z1.000000 I0.313101 J1.252378
G03 X177.270830 Y293.309532 Z1.000000 I-2.122949 J-3.295220
G03 X176.702442 Y293.289412 Z1.000000 I-0.000000 J-8.038173
G02 X176.136900 Y293.309532 Z1.000000 I-0.188515 J2.659319
G02 X175.375408 Y293.472506 Z1.000000 I0.799382 J5.595621
G03 X174.625000 Y293.687509 Z1.000000 I-145.873138 J-507.713588
G02 X174.063524 Y293.908041 Z1.000000 I0.864748 J3.026678
G03 X173.491070 Y294.065485 Z1.000000 I-0.670959 J-1.320135
G03 X171.223364 Y294.067837 Z1.000000 I-1.151776 J-17.276721
G02 X168.955360 Y294.065485 Z1.000000 I-1.152512 J17.845510
G02 X168.198579 Y294.244992 Z1.000000 I0.142987 J2.287812
G03 X167.443450 Y294.443461 Z1.000000 I-1.050746 J-2.462071
G03 X166.499713 Y294.458873 Z1.000000 I-0.553318 J-4.979922
G02 X165.553570 Y294.443461 Z1.000000 I-0.597783 J7.648514
G02 X162.340850 Y294.634034 Z1.000000 I5.285230 J116.275083
G03 X159.127970 Y294.821437 Z1.000000 I-7.932086 J-108.354636
G03 X157.994318 Y294.833755 Z1.000000 I-0.755769 J-17.382742
G02 X156.860120 Y294.821437 Z1.000000 I-1.134198 J52.210421
G01 X149.300590 Y294.821437 Z1.000000
G03 X144.317622 Y294.737686 Z1.000000 I-0.000000 J-148.277797
G03 X136.071430 Y294.443461 Z1.000000 I67.534741 J-2008.490861
G02 X130.966917 Y294.289870 Z1.000000 I-12.606997 J334.086043
G03 X125.866070 Y294.065485 Z1.000000 I2.662488 J-118.615253
G03 X113.930485 Y292.990864 Z1.000000 I16.127648 J-245.946725
G02 X102.809520 Y291.797628 Z1.000000 I-88.209309 J769.690350
G02 X89.743365 Y290.610981 Z1.000000 I-71.740563 J717.405633
G03 X76.729166 Y289.529771 Z1.000000 I374.797697 J-4590.190780
G02 X70.111164 Y288.998624 Z1.000000 I-66.232191 J783.747336
G03 X63.499999 Y288.395842 Z1.000000 I16.706426 J-219.788120
G03 X61.232398 Y288.015405 Z1.000000 I2.020153 J-18.989434
G02 X58.964284 Y287.639890 Z1.000000 I-4.139778 J17.966778
G02 X51.972777 Y287.062293 Z1.000000 I-18.487025 J181.172800
G03 X44.979166 Y286.505961 Z1.000000 I13.654786 J-215.889615
G03 X38.173494 Y285.770596 Z1.000000 I27.143999 J-283.073131
G02 X31.372024 Y284.994056 Z1.000000 I-68.217290 J567.319703
G02 X24.190158 Y284.241027 Z1.000000 I-120.513817 J1114.752591
G03 X17.008928 Y283.482152 Z1.000000 I90.457938 J-890.360844
G03 X8.693602 Y282.535844 Z1.000000 I114.228705 J-1040.752270
G02 X0.377976 Y281.592271 Z1.000000 I-113.229194 J960.767816
G02 X-1.703317 Y281.422267 Z1.000000 I-4.169482 J38.220145
G03 X-3.779762 Y281.214294 Z1.000000 I1.246374 J-22.913852
G03 X-9.448208 Y280.261002 Z1.000000 I19.533604 J-133.479829
G02 X-15.119047 Y279.324414 Z1.000000 I-22.149809 J116.476137
G03 X-24.466204 Y278.121838 Z1.000000 I30.086123 J-270.775087
G03 X-28.726190 Y277.434533 Z1.000000 I21.228917 J-145.124436
G02 X-30.239698 Y277.254067 Z1.000000 I-2.366489 J13.410086
G03 X-31.750000 Y277.056556 Z1.000000 I0.708774 J-11.292900
G03 X-35.906635 Y276.106021 Z1.000000 I15.251520 J-76.257626
G02 X-40.065475 Y275.166675 Z1.000000 I-17.682788 J68.612360
G02 X-45.248432 Y274.330905 Z1.000000 I-15.576608 J80.108331
G03 X-50.270833 Y273.276795 Z1.000000 I4.131936 J-32.178861
G03 X-51.024461 Y272.890277 Z1.000000 I0.639891 J-2.175622
G02 X-51.782739 Y272.520842 Z1.000000 I-1.252720 J1.608335
G02 X-52.538690 Y272.520842 Z1.000000 I-0.377976 J1.511902
G03 X-53.294642 Y272.520842 Z1.000000 I-0.377976 J-1.511907
G03 X-54.823405 Y272.006008 Z1.000000 I2.452224 J-9.808907
G02 X-56.318451 Y271.386914 Z1.000000 I-26.343014 J61.500795
G03 X-56.706644 Y271.217348 Z1.000000 I2.511688 J-6.279232
G03 X-57.074405 Y271.008938 Z1.000000 I1.252476 J-2.638801
G03 X-57.271803 Y270.830205 Z1.000000 I0.501563 J-0.752313
G02 X-57.452381 Y270.630961 Z1.000000 I-2.117421 J1.737599
G02 X-57.659072 Y270.454734 Z1.000000 I-1.210888 J1.210888
G03 X-57.830357 Y270.252985 Z1.000000 I0.326093 J-0.450438
G03 X-57.891218 Y270.054118 Z1.000000 I0.560546 J-0.280295
G03 X-57.830357 Y269.875010 Z1.000000 I0.212163 J-0.027802
G03 X-57.474266 Y269.844642 Z1.000000 I0.196061 J0.196061
G02 X-57.074405 Y269.875010 Z1.000000 I0.225294 J-0.318772
G02 X-56.889344 Y269.676535 Z1.000000 I-0.173793 J-0.347561
G03 X-56.696427 Y269.497034 Z1.000000 I0.293373 J0.121882
G03 X-56.320566 Y269.489778 Z1.000000 I0.199558 J0.598702
G02 X-55.940475 Y269.497034 Z1.000000 I0.203465 J-0.699315
G02 X-55.169734 Y269.255153 Z1.000000 I-1.658057 J-6.632227
G03 X-54.428572 Y269.119055 Z1.000000 I0.741162 J1.950052
G01 X-53.294642 Y269.119055 Z1.000000
G03 X-52.915374 Y269.134671 Z1.000000 I-0.000000 J4.613546
G02 X-52.538690 Y269.119055 Z1.000000 I0.125561 J-1.522199
G02 X-51.783433 Y268.925573 Z1.000000 I-0.749217 J-4.495391
G03 X-51.026784 Y268.741080 Z1.000000 I1.323742 J3.785122
G03 X-50.460154 Y268.738594 Z1.000000 I0.292297 J2.046223
G02 X-49.892857 Y268.741080 Z1.000000 I0.293250 J-2.189988
G02 X-48.948127 Y268.550351 Z1.000000 I-0.799396 J-6.394740
G03 X-48.002975 Y268.363104 Z1.000000 I1.663176 J5.916062
G03 X-45.738140 Y268.139191 Z1.000000 I7.162351 J60.879698
G03 X-43.467260 Y267.985128 Z1.000000 I7.428143 J92.676859
G03 X-41.389191 Y267.956281 Z1.000000 I1.385379 J24.935720
G02 X-39.309524 Y267.985128 Z1.000000 I2.079667 J-74.951272
G03 X-29.298794 Y268.007242 Z1.000000 I-0.000000 J2265.915461
G03 X-19.276786 Y268.363104 Z1.000000 I-0.712978 J161.380130
G03 X-15.871660 Y268.703490 Z1.000000 I-3.442911 J51.643998
G02 X-12.473214 Y269.119055 Z1.000000 I20.554291 J-153.987109
G03 X-5.670707 Y269.884844 Z1.000000 I-261.629070 J2354.648954
G02 X1.133929 Y270.630961 Z1.000000 I89.455366 J-784.436273
G02 X6.804738 Y271.187233 Z1.000000 I42.032333 J-399.307190
G03 X12.473214 Y271.764890 Z1.000000 I-23.733820 J260.998067
G03 X18.522625 Y272.505659 Z1.000000 I-36.295498 J321.474766
G02 X24.568452 Y273.276795 Z1.000000 I90.605191 J-686.272942
G02 X30.807700 Y274.012394 Z1.000000 I75.181640 J-610.851747
G03 X37.041666 Y274.788699 Z1.000000 I-30.235606 J268.219788
G03 X39.120325 Y275.168235 Z1.000000 I-3.168353 J23.234594
G02 X41.199405 Y275.544652 Z1.000000 I5.079105 J-22.123682
G02 X47.626621 Y276.288787 Z1.000000 I24.735707 J-185.517890
G03 X54.050593 Y277.056556 Z1.000000 I-15.089509 J153.513612
